(1001)
(T1  D=2. CR=0. - ZMIN=-3. - FLAT END MILL)
G90 G94 G91.1 G40 G49 G17
G21

(2D 1)
M5
M9
T1 M6
S10000 M3
G54
M8
G0 X55.836 Y-0.957
G43 Z1.5 H1
Z0.5
G1 Z0.15 F900.
Y-0.95
X55.85 Y3.5
G2 X57.15 I0.65 J0.
G1 X57.164 Y-0.943
Y-0.951
Z0.1
Y-0.943
X57.15 Y3.5
G3 X55.85 I-0.65 J0.
G1 X55.836 Y-0.95
Y-0.957
Z0.05
Y-0.95
X55.85 Y3.5
G2 X57.15 I0.65 J0.
G1 X57.164 Y-0.943
Y-0.951
Z0.
Y-0.943
X57.15 Y3.5
G3 X55.85 I-0.65 J0.
G1 X55.836 Y-0.95
Y-0.957
Z-0.05
Y-0.95
X55.85 Y3.5
G2 X57.15 I0.65 J0.
G1 X57.164 Y-0.943
Y-0.951
Z-0.1
Y-0.943
X57.15 Y3.5
G3 X55.85 I-0.65 J0.
G1 X55.836 Y-0.95
Y-0.957
Z-0.15
Y-0.95
X55.85 Y3.5
G2 X57.15 I0.65 J0.
G1 X57.164 Y-0.943
Y-0.951
Z-0.2
Y-0.943
X57.15 Y3.5
G3 X55.85 I-0.65 J0.
G1 X55.836 Y-0.95
Y-0.957
Z-0.25
Y-0.95
X55.85 Y3.5
G2 X57.15 I0.65 J0.
G1 X57.164 Y-0.943
Y-0.951
Z-0.3
Y-0.943
X57.15 Y3.5
G3 X55.85 I-0.65 J0.
G1 X55.836 Y-0.95
Y-0.957
Z-0.35
Y-0.95
X55.85 Y3.5
G2 X57.15 I0.65 J0.
G1 X57.164 Y-0.943
Y-0.951
Z-0.4
Y-0.943
X57.15 Y3.5
G3 X55.85 I-0.65 J0.
G1 X55.836 Y-0.95
Y-0.957
Z-0.45
Y-0.95
X55.85 Y3.5
G2 X57.15 I0.65 J0.
G1 X57.164 Y-0.943
Y-0.951
Z-0.5
Y-0.943
X57.15 Y3.5
G3 X55.85 I-0.65 J0.
G1 X55.836 Y-0.95
Y-0.957
Z-0.55
Y-0.95
X55.85 Y3.5
G2 X57.15 I0.65 J0.
G1 X57.164 Y-0.943
Y-0.951
Z-0.6
Y-0.943
X57.15 Y3.5
G3 X55.85 I-0.65 J0.
G1 X55.836 Y-0.95
Y-0.957
Z-0.65
Y-0.95
X55.85 Y3.5
G2 X57.15 I0.65 J0.
G1 X57.164 Y-0.943
Y-0.951
Z-0.7
Y-0.943
X57.15 Y3.5
G3 X55.85 I-0.65 J0.
G1 X55.836 Y-0.95
Y-0.957
Z-0.75
Y-0.95
X55.85 Y3.5
G2 X57.15 I0.65 J0.
G1 X57.164 Y-0.943
Y-0.951
Z-0.8
Y-0.943
X57.15 Y3.5
G3 X55.85 I-0.65 J0.
G1 X55.836 Y-0.95
Y-0.957
Z-0.85
Y-0.95
X55.85 Y3.5
G2 X57.15 I0.65 J0.
G1 X57.164 Y-0.943
Y-0.951
Z-0.9
Y-0.943
X57.15 Y3.5
G3 X55.85 I-0.65 J0.
G1 X55.836 Y-0.95
Y-0.957
Z-0.95
Y-0.95
X55.85 Y3.5
G2 X57.15 I0.65 J0.
G1 X57.164 Y-0.943
Y-0.951
Z-1.
Y-0.943
X57.15 Y3.5
G3 X55.85 I-0.65 J0.
G1 X55.836 Y-0.95
Y-0.957
Z-1.05
Y-0.95
X55.85 Y3.5
G2 X57.15 I0.65 J0.
G1 X57.164 Y-0.943
Y-0.951
Z-1.1
Y-0.943
X57.15 Y3.5
G3 X55.85 I-0.65 J0.
G1 X55.836 Y-0.95
Y-0.957
Z-1.15
Y-0.95
X55.85 Y3.5
G2 X57.15 I0.65 J0.
G1 X57.164 Y-0.943
Y-0.951
Z-1.2
Y-0.943
X57.15 Y3.5
G3 X55.85 I-0.65 J0.
G1 X55.836 Y-0.95
Y-0.957
Z-1.25
Y-0.95
X55.85 Y3.5
G2 X57.15 I0.65 J0.
G1 X57.164 Y-0.943
Y-0.951
Z-1.3
Y-0.943
X57.15 Y3.5
G3 X55.85 I-0.65 J0.
G1 X55.836 Y-0.95
Y-0.957
Z-1.35
Y-0.95
X55.85 Y3.5
G2 X57.15 I0.65 J0.
G1 X57.164 Y-0.943
Y-0.951
Z-1.4
Y-0.943
X57.15 Y3.5
G3 X55.85 I-0.65 J0.
G1 X55.836 Y-0.95
Y-0.957
Z-1.45
Y-0.95
X55.85 Y3.5
G2 X57.15 I0.65 J0.
G1 X57.164 Y-0.943
Y-0.951
Z-1.5
Y-0.943
X57.15 Y3.5
G3 X55.85 I-0.65 J0.
G1 X55.836 Y-0.95
Y-0.957
Z0.2
X54.937
Z0.15
Y-0.95
X54.95 Y3.5
G2 X58.05 I1.55 J0.
G1 X58.063 Y-0.946
Y-0.954
Z0.1
Y-0.946
X58.05 Y3.5
G3 X54.95 I-1.55 J0.
G1 X54.937 Y-0.95
Y-0.957
Z0.05
Y-0.95
X54.95 Y3.5
G2 X58.05 I1.55 J0.
G1 X58.063 Y-0.946
Y-0.954
Z0.
Y-0.946
X58.05 Y3.5
G3 X54.95 I-1.55 J0.
G1 X54.937 Y-0.95
Y-0.957
Z-0.05
Y-0.95
X54.95 Y3.5
G2 X58.05 I1.55 J0.
G1 X58.063 Y-0.946
Y-0.954
Z-0.1
Y-0.946
X58.05 Y3.5
G3 X54.95 I-1.55 J0.
G1 X54.937 Y-0.95
Y-0.957
Z-0.15
Y-0.95
X54.95 Y3.5
G2 X58.05 I1.55 J0.
G1 X58.063 Y-0.946
Y-0.954
Z-0.2
Y-0.946
X58.05 Y3.5
G3 X54.95 I-1.55 J0.
G1 X54.937 Y-0.95
Y-0.957
Z-0.25
Y-0.95
X54.95 Y3.5
G2 X58.05 I1.55 J0.
G1 X58.063 Y-0.946
Y-0.954
Z-0.3
Y-0.946
X58.05 Y3.5
G3 X54.95 I-1.55 J0.
G1 X54.937 Y-0.95
Y-0.957
Z-0.35
Y-0.95
X54.95 Y3.5
G2 X58.05 I1.55 J0.
G1 X58.063 Y-0.946
Y-0.954
Z-0.4
Y-0.946
X58.05 Y3.5
G3 X54.95 I-1.55 J0.
G1 X54.937 Y-0.95
Y-0.957
Z-0.45
Y-0.95
X54.95 Y3.5
G2 X58.05 I1.55 J0.
G1 X58.063 Y-0.946
Y-0.954
Z-0.5
Y-0.946
X58.05 Y3.5
G3 X54.95 I-1.55 J0.
G1 X54.937 Y-0.95
Y-0.957
Z-0.55
Y-0.95
X54.95 Y3.5
G2 X58.05 I1.55 J0.
G1 X58.063 Y-0.946
Y-0.954
Z-0.6
Y-0.946
X58.05 Y3.5
G3 X54.95 I-1.55 J0.
G1 X54.937 Y-0.95
Y-0.957
Z-0.65
Y-0.95
X54.95 Y3.5
G2 X58.05 I1.55 J0.
G1 X58.063 Y-0.946
Y-0.954
Z-0.7
Y-0.946
X58.05 Y3.5
G3 X54.95 I-1.55 J0.
G1 X54.937 Y-0.95
Y-0.957
Z-0.75
Y-0.95
X54.95 Y3.5
G2 X58.05 I1.55 J0.
G1 X58.063 Y-0.946
Y-0.954
Z-0.8
Y-0.946
X58.05 Y3.5
G3 X54.95 I-1.55 J0.
G1 X54.937 Y-0.95
Y-0.957
Z-0.85
Y-0.95
X54.95 Y3.5
G2 X58.05 I1.55 J0.
G1 X58.063 Y-0.946
Y-0.954
Z-0.9
Y-0.946
X58.05 Y3.5
G3 X54.95 I-1.55 J0.
G1 X54.937 Y-0.95
Y-0.957
Z-0.95
Y-0.95
X54.95 Y3.5
G2 X58.05 I1.55 J0.
G1 X58.063 Y-0.946
Y-0.954
Z-1.
Y-0.946
X58.05 Y3.5
G3 X54.95 I-1.55 J0.
G1 X54.937 Y-0.95
Y-0.957
Z-1.05
Y-0.95
X54.95 Y3.5
G2 X58.05 I1.55 J0.
G1 X58.063 Y-0.946
Y-0.954
Z-1.1
Y-0.946
X58.05 Y3.5
G3 X54.95 I-1.55 J0.
G1 X54.937 Y-0.95
Y-0.957
Z-1.15
Y-0.95
X54.95 Y3.5
G2 X58.05 I1.55 J0.
G1 X58.063 Y-0.946
Y-0.954
Z-1.2
Y-0.946
X58.05 Y3.5
G3 X54.95 I-1.55 J0.
G1 X54.937 Y-0.95
Y-0.957
Z-1.25
Y-0.95
X54.95 Y3.5
G2 X58.05 I1.55 J0.
G1 X58.063 Y-0.946
Y-0.954
Z-1.3
Y-0.946
X58.05 Y3.5
G3 X54.95 I-1.55 J0.
G1 X54.937 Y-0.95
Y-0.957
Z-1.35
Y-0.95
X54.95 Y3.5
G2 X58.05 I1.55 J0.
G1 X58.063 Y-0.946
Y-0.954
Z-1.4
Y-0.946
X58.05 Y3.5
G3 X54.95 I-1.55 J0.
G1 X54.937 Y-0.95
Y-0.957
Z-1.45
Y-0.95
X54.95 Y3.5
G2 X58.05 I1.55 J0.
G1 X58.063 Y-0.946
Y-0.954
Z-1.5
Y-0.946
X58.05 Y3.5
G3 X54.95 I-1.55 J0.
G1 X54.937 Y-0.95
Y-0.957
Z0.2
X54.001 Y-0.962
Z0.15
X54. Y-0.954
Y-0.947
Y3.5
G2 X59. I2.5 J0.
G1 Y-0.941
X58.999 Y-0.956
Z0.1
X59. Y-0.948
Y-0.941
Y3.5
G3 X54. I-2.5 J0.
G1 Y-0.947
X54.001 Y-0.962
Z0.05
X54. Y-0.954
Y-0.947
Y3.5
G2 X59. I2.5 J0.
G1 Y-0.941
X58.999 Y-0.956
Z0.
X59. Y-0.948
Y-0.941
Y3.5
G3 X54. I-2.5 J0.
G1 Y-0.947
X54.001 Y-0.962
Z-0.05
X54. Y-0.954
Y-0.947
Y3.5
G2 X59. I2.5 J0.
G1 Y-0.941
X58.999 Y-0.956
Z-0.1
X59. Y-0.948
Y-0.941
Y3.5
G3 X54. I-2.5 J0.
G1 Y-0.947
X54.001 Y-0.962
Z-0.15
X54. Y-0.954
Y-0.947
Y3.5
G2 X59. I2.5 J0.
G1 Y-0.941
X58.999 Y-0.956
Z-0.2
X59. Y-0.948
Y-0.941
Y3.5
G3 X54. I-2.5 J0.
G1 Y-0.947
X54.001 Y-0.962
Z-0.25
X54. Y-0.954
Y-0.947
Y3.5
G2 X59. I2.5 J0.
G1 Y-0.941
X58.999 Y-0.956
Z-0.3
X59. Y-0.948
Y-0.941
Y3.5
G3 X54. I-2.5 J0.
G1 Y-0.947
X54.001 Y-0.962
Z-0.35
X54. Y-0.954
Y-0.947
Y3.5
G2 X59. I2.5 J0.
G1 Y-0.941
X58.999 Y-0.956
Z-0.4
X59. Y-0.948
Y-0.941
Y3.5
G3 X54. I-2.5 J0.
G1 Y-0.947
X54.001 Y-0.962
Z-0.45
X54. Y-0.954
Y-0.947
Y3.5
G2 X59. I2.5 J0.
G1 Y-0.941
X58.999 Y-0.956
Z-0.5
X59. Y-0.948
Y-0.941
Y3.5
G3 X54. I-2.5 J0.
G1 Y-0.947
X54.001 Y-0.962
Z-0.55
X54. Y-0.954
Y-0.947
Y3.5
G2 X59. I2.5 J0.
G1 Y-0.941
X58.999 Y-0.956
Z-0.6
X59. Y-0.948
Y-0.941
Y3.5
G3 X54. I-2.5 J0.
G1 Y-0.947
X54.001 Y-0.962
Z-0.65
X54. Y-0.954
Y-0.947
Y3.5
G2 X59. I2.5 J0.
G1 Y-0.941
X58.999 Y-0.956
Z-0.7
X59. Y-0.948
Y-0.941
Y3.5
G3 X54. I-2.5 J0.
G1 Y-0.947
X54.001 Y-0.962
Z-0.75
X54. Y-0.954
Y-0.947
Y3.5
G2 X59. I2.5 J0.
G1 Y-0.941
X58.999 Y-0.956
Z-0.8
X59. Y-0.948
Y-0.941
Y3.5
G3 X54. I-2.5 J0.
G1 Y-0.947
X54.001 Y-0.962
Z-0.85
X54. Y-0.954
Y-0.947
Y3.5
G2 X59. I2.5 J0.
G1 Y-0.941
X58.999 Y-0.956
Z-0.9
X59. Y-0.948
Y-0.941
Y3.5
G3 X54. I-2.5 J0.
G1 Y-0.947
X54.001 Y-0.962
Z-0.95
X54. Y-0.954
Y-0.947
Y3.5
G2 X59. I2.5 J0.
G1 Y-0.941
X58.999 Y-0.956
Z-1.
X59. Y-0.948
Y-0.941
Y3.5
G3 X54. I-2.5 J0.
G1 Y-0.947
X54.001 Y-0.962
Z-1.05
X54. Y-0.954
Y-0.947
Y3.5
G2 X59. I2.5 J0.
G1 Y-0.941
X58.999 Y-0.956
Z-1.1
X59. Y-0.948
Y-0.941
Y3.5
G3 X54. I-2.5 J0.
G1 Y-0.947
X54.001 Y-0.962
Z-1.15
X54. Y-0.954
Y-0.947
Y3.5
G2 X59. I2.5 J0.
G1 Y-0.941
X58.999 Y-0.956
Z-1.2
X59. Y-0.948
Y-0.941
Y3.5
G3 X54. I-2.5 J0.
G1 Y-0.947
X54.001 Y-0.962
Z-1.25
X54. Y-0.954
Y-0.947
Y3.5
G2 X59. I2.5 J0.
G1 Y-0.941
X58.999 Y-0.956
Z-1.3
X59. Y-0.948
Y-0.941
Y3.5
G3 X54. I-2.5 J0.
G1 Y-0.947
X54.001 Y-0.962
Z-1.35
X54. Y-0.954
Y-0.947
Y3.5
G2 X59. I2.5 J0.
G1 Y-0.941
X58.999 Y-0.956
Z-1.4
X59. Y-0.948
Y-0.941
Y3.5
G3 X54. I-2.5 J0.
G1 Y-0.947
X54.001 Y-0.962
Z-1.45
X54. Y-0.954
Y-0.947
Y3.5
G2 X59. I2.5 J0.
G1 Y-0.941
X58.999 Y-0.956
Z-1.5
X59. Y-0.948
Y-0.941
Y3.5
G3 X54. I-2.5 J0.
G1 Y-0.947
Z0.5
G0 Z1.5
X192.836 Y-0.957
Z0.5
G1 Z0.15 F900.
Y-0.95
X192.85 Y3.5
G2 X194.15 I0.65 J0.
G1 X194.164 Y-0.943
Y-0.951
Z0.1
Y-0.943
X194.15 Y3.5
G3 X192.85 I-0.65 J0.
G1 X192.836 Y-0.95
Y-0.957
Z0.05
Y-0.95
X192.85 Y3.5
G2 X194.15 I0.65 J0.
G1 X194.164 Y-0.943
Y-0.951
Z0.
Y-0.943
X194.15 Y3.5
G3 X192.85 I-0.65 J0.
G1 X192.836 Y-0.95
Y-0.957
Z-0.05
Y-0.95
X192.85 Y3.5
G2 X194.15 I0.65 J0.
G1 X194.164 Y-0.943
Y-0.951
Z-0.1
Y-0.943
X194.15 Y3.5
G3 X192.85 I-0.65 J0.
G1 X192.836 Y-0.95
Y-0.957
Z-0.15
Y-0.95
X192.85 Y3.5
G2 X194.15 I0.65 J0.
G1 X194.164 Y-0.943
Y-0.951
Z-0.2
Y-0.943
X194.15 Y3.5
G3 X192.85 I-0.65 J0.
G1 X192.836 Y-0.95
Y-0.957
Z-0.25
Y-0.95
X192.85 Y3.5
G2 X194.15 I0.65 J0.
G1 X194.164 Y-0.943
Y-0.951
Z-0.3
Y-0.943
X194.15 Y3.5
G3 X192.85 I-0.65 J0.
G1 X192.836 Y-0.95
Y-0.957
Z-0.35
Y-0.95
X192.85 Y3.5
G2 X194.15 I0.65 J0.
G1 X194.164 Y-0.943
Y-0.951
Z-0.4
Y-0.943
X194.15 Y3.5
G3 X192.85 I-0.65 J0.
G1 X192.836 Y-0.95
Y-0.957
Z-0.45
Y-0.95
X192.85 Y3.5
G2 X194.15 I0.65 J0.
G1 X194.164 Y-0.943
Y-0.951
Z-0.5
Y-0.943
X194.15 Y3.5
G3 X192.85 I-0.65 J0.
G1 X192.836 Y-0.95
Y-0.957
Z-0.55
Y-0.95
X192.85 Y3.5
G2 X194.15 I0.65 J0.
G1 X194.164 Y-0.943
Y-0.951
Z-0.6
Y-0.943
X194.15 Y3.5
G3 X192.85 I-0.65 J0.
G1 X192.836 Y-0.95
Y-0.957
Z-0.65
Y-0.95
X192.85 Y3.5
G2 X194.15 I0.65 J0.
G1 X194.164 Y-0.943
Y-0.951
Z-0.7
Y-0.943
X194.15 Y3.5
G3 X192.85 I-0.65 J0.
G1 X192.836 Y-0.95
Y-0.957
Z-0.75
Y-0.95
X192.85 Y3.5
G2 X194.15 I0.65 J0.
G1 X194.164 Y-0.943
Y-0.951
Z-0.8
Y-0.943
X194.15 Y3.5
G3 X192.85 I-0.65 J0.
G1 X192.836 Y-0.95
Y-0.957
Z-0.85
Y-0.95
X192.85 Y3.5
G2 X194.15 I0.65 J0.
G1 X194.164 Y-0.943
Y-0.951
Z-0.9
Y-0.943
X194.15 Y3.5
G3 X192.85 I-0.65 J0.
G1 X192.836 Y-0.95
Y-0.957
Z-0.95
Y-0.95
X192.85 Y3.5
G2 X194.15 I0.65 J0.
G1 X194.164 Y-0.943
Y-0.951
Z-1.
Y-0.943
X194.15 Y3.5
G3 X192.85 I-0.65 J0.
G1 X192.836 Y-0.95
Y-0.957
Z-1.05
Y-0.95
X192.85 Y3.5
G2 X194.15 I0.65 J0.
G1 X194.164 Y-0.943
Y-0.951
Z-1.1
Y-0.943
X194.15 Y3.5
G3 X192.85 I-0.65 J0.
G1 X192.836 Y-0.95
Y-0.957
Z-1.15
Y-0.95
X192.85 Y3.5
G2 X194.15 I0.65 J0.
G1 X194.164 Y-0.943
Y-0.951
Z-1.2
Y-0.943
X194.15 Y3.5
G3 X192.85 I-0.65 J0.
G1 X192.836 Y-0.95
Y-0.957
Z-1.25
Y-0.95
X192.85 Y3.5
G2 X194.15 I0.65 J0.
G1 X194.164 Y-0.943
Y-0.951
Z-1.3
Y-0.943
X194.15 Y3.5
G3 X192.85 I-0.65 J0.
G1 X192.836 Y-0.95
Y-0.957
Z-1.35
Y-0.95
X192.85 Y3.5
G2 X194.15 I0.65 J0.
G1 X194.164 Y-0.943
Y-0.951
Z-1.4
Y-0.943
X194.15 Y3.5
G3 X192.85 I-0.65 J0.
G1 X192.836 Y-0.95
Y-0.957
Z-1.45
Y-0.95
X192.85 Y3.5
G2 X194.15 I0.65 J0.
G1 X194.164 Y-0.943
Y-0.951
Z-1.5
Y-0.943
X194.15 Y3.5
G3 X192.85 I-0.65 J0.
G1 X192.836 Y-0.95
Y-0.957
Z0.2
X191.937
Z0.15
Y-0.95
X191.95 Y3.5
G2 X195.05 I1.55 J0.
G1 X195.063 Y-0.946
Y-0.954
Z0.1
Y-0.946
X195.05 Y3.5
G3 X191.95 I-1.55 J0.
G1 X191.937 Y-0.95
Y-0.957
Z0.05
Y-0.95
X191.95 Y3.5
G2 X195.05 I1.55 J0.
G1 X195.063 Y-0.946
Y-0.954
Z0.
Y-0.946
X195.05 Y3.5
G3 X191.95 I-1.55 J0.
G1 X191.937 Y-0.95
Y-0.957
Z-0.05
Y-0.95
X191.95 Y3.5
G2 X195.05 I1.55 J0.
G1 X195.063 Y-0.946
Y-0.954
Z-0.1
Y-0.946
X195.05 Y3.5
G3 X191.95 I-1.55 J0.
G1 X191.937 Y-0.95
Y-0.957
Z-0.15
Y-0.95
X191.95 Y3.5
G2 X195.05 I1.55 J0.
G1 X195.063 Y-0.946
Y-0.954
Z-0.2
Y-0.946
X195.05 Y3.5
G3 X191.95 I-1.55 J0.
G1 X191.937 Y-0.95
Y-0.957
Z-0.25
Y-0.95
X191.95 Y3.5
G2 X195.05 I1.55 J0.
G1 X195.063 Y-0.946
Y-0.954
Z-0.3
Y-0.946
X195.05 Y3.5
G3 X191.95 I-1.55 J0.
G1 X191.937 Y-0.95
Y-0.957
Z-0.35
Y-0.95
X191.95 Y3.5
G2 X195.05 I1.55 J0.
G1 X195.063 Y-0.946
Y-0.954
Z-0.4
Y-0.946
X195.05 Y3.5
G3 X191.95 I-1.55 J0.
G1 X191.937 Y-0.95
Y-0.957
Z-0.45
Y-0.95
X191.95 Y3.5
G2 X195.05 I1.55 J0.
G1 X195.063 Y-0.946
Y-0.954
Z-0.5
Y-0.946
X195.05 Y3.5
G3 X191.95 I-1.55 J0.
G1 X191.937 Y-0.95
Y-0.957
Z-0.55
Y-0.95
X191.95 Y3.5
G2 X195.05 I1.55 J0.
G1 X195.063 Y-0.946
Y-0.954
Z-0.6
Y-0.946
X195.05 Y3.5
G3 X191.95 I-1.55 J0.
G1 X191.937 Y-0.95
Y-0.957
Z-0.65
Y-0.95
X191.95 Y3.5
G2 X195.05 I1.55 J0.
G1 X195.063 Y-0.946
Y-0.954
Z-0.7
Y-0.946
X195.05 Y3.5
G3 X191.95 I-1.55 J0.
G1 X191.937 Y-0.95
Y-0.957
Z-0.75
Y-0.95
X191.95 Y3.5
G2 X195.05 I1.55 J0.
G1 X195.063 Y-0.946
Y-0.954
Z-0.8
Y-0.946
X195.05 Y3.5
G3 X191.95 I-1.55 J0.
G1 X191.937 Y-0.95
Y-0.957
Z-0.85
Y-0.95
X191.95 Y3.5
G2 X195.05 I1.55 J0.
G1 X195.063 Y-0.946
Y-0.954
Z-0.9
Y-0.946
X195.05 Y3.5
G3 X191.95 I-1.55 J0.
G1 X191.937 Y-0.95
Y-0.957
Z-0.95
Y-0.95
X191.95 Y3.5
G2 X195.05 I1.55 J0.
G1 X195.063 Y-0.946
Y-0.954
Z-1.
Y-0.946
X195.05 Y3.5
G3 X191.95 I-1.55 J0.
G1 X191.937 Y-0.95
Y-0.957
Z-1.05
Y-0.95
X191.95 Y3.5
G2 X195.05 I1.55 J0.
G1 X195.063 Y-0.946
Y-0.954
Z-1.1
Y-0.946
X195.05 Y3.5
G3 X191.95 I-1.55 J0.
G1 X191.937 Y-0.95
Y-0.957
Z-1.15
Y-0.95
X191.95 Y3.5
G2 X195.05 I1.55 J0.
G1 X195.063 Y-0.946
Y-0.954
Z-1.2
Y-0.946
X195.05 Y3.5
G3 X191.95 I-1.55 J0.
G1 X191.937 Y-0.95
Y-0.957
Z-1.25
Y-0.95
X191.95 Y3.5
G2 X195.05 I1.55 J0.
G1 X195.063 Y-0.946
Y-0.954
Z-1.3
Y-0.946
X195.05 Y3.5
G3 X191.95 I-1.55 J0.
G1 X191.937 Y-0.95
Y-0.957
Z-1.35
Y-0.95
X191.95 Y3.5
G2 X195.05 I1.55 J0.
G1 X195.063 Y-0.946
Y-0.954
Z-1.4
Y-0.946
X195.05 Y3.5
G3 X191.95 I-1.55 J0.
G1 X191.937 Y-0.95
Y-0.957
Z-1.45
Y-0.95
X191.95 Y3.5
G2 X195.05 I1.55 J0.
G1 X195.063 Y-0.946
Y-0.954
Z-1.5
Y-0.946
X195.05 Y3.5
G3 X191.95 I-1.55 J0.
G1 X191.937 Y-0.95
Y-0.957
Z0.2
X191.001 Y-0.962
Z0.15
X191. Y-0.954
Y-0.947
Y3.5
G2 X196. I2.5 J0.
G1 Y-0.941
X195.999 Y-0.956
Z0.1
X196. Y-0.948
Y-0.941
Y3.5
G3 X191. I-2.5 J0.
G1 Y-0.947
X191.001 Y-0.962
Z0.05
X191. Y-0.954
Y-0.947
Y3.5
G2 X196. I2.5 J0.
G1 Y-0.941
X195.999 Y-0.956
Z0.
X196. Y-0.948
Y-0.941
Y3.5
G3 X191. I-2.5 J0.
G1 Y-0.947
X191.001 Y-0.962
Z-0.05
X191. Y-0.954
Y-0.947
Y3.5
G2 X196. I2.5 J0.
G1 Y-0.941
X195.999 Y-0.956
Z-0.1
X196. Y-0.948
Y-0.941
Y3.5
G3 X191. I-2.5 J0.
G1 Y-0.947
X191.001 Y-0.962
Z-0.15
X191. Y-0.954
Y-0.947
Y3.5
G2 X196. I2.5 J0.
G1 Y-0.941
X195.999 Y-0.956
Z-0.2
X196. Y-0.948
Y-0.941
Y3.5
G3 X191. I-2.5 J0.
G1 Y-0.947
X191.001 Y-0.962
Z-0.25
X191. Y-0.954
Y-0.947
Y3.5
G2 X196. I2.5 J0.
G1 Y-0.941
X195.999 Y-0.956
Z-0.3
X196. Y-0.948
Y-0.941
Y3.5
G3 X191. I-2.5 J0.
G1 Y-0.947
X191.001 Y-0.962
Z-0.35
X191. Y-0.954
Y-0.947
Y3.5
G2 X196. I2.5 J0.
G1 Y-0.941
X195.999 Y-0.956
Z-0.4
X196. Y-0.948
Y-0.941
Y3.5
G3 X191. I-2.5 J0.
G1 Y-0.947
X191.001 Y-0.962
Z-0.45
X191. Y-0.954
Y-0.947
Y3.5
G2 X196. I2.5 J0.
G1 Y-0.941
X195.999 Y-0.956
Z-0.5
X196. Y-0.948
Y-0.941
Y3.5
G3 X191. I-2.5 J0.
G1 Y-0.947
X191.001 Y-0.962
Z-0.55
X191. Y-0.954
Y-0.947
Y3.5
G2 X196. I2.5 J0.
G1 Y-0.941
X195.999 Y-0.956
Z-0.6
X196. Y-0.948
Y-0.941
Y3.5
G3 X191. I-2.5 J0.
G1 Y-0.947
X191.001 Y-0.962
Z-0.65
X191. Y-0.954
Y-0.947
Y3.5
G2 X196. I2.5 J0.
G1 Y-0.941
X195.999 Y-0.956
Z-0.7
X196. Y-0.948
Y-0.941
Y3.5
G3 X191. I-2.5 J0.
G1 Y-0.947
X191.001 Y-0.962
Z-0.75
X191. Y-0.954
Y-0.947
Y3.5
G2 X196. I2.5 J0.
G1 Y-0.941
X195.999 Y-0.956
Z-0.8
X196. Y-0.948
Y-0.941
Y3.5
G3 X191. I-2.5 J0.
G1 Y-0.947
X191.001 Y-0.962
Z-0.85
X191. Y-0.954
Y-0.947
Y3.5
G2 X196. I2.5 J0.
G1 Y-0.941
X195.999 Y-0.956
Z-0.9
X196. Y-0.948
Y-0.941
Y3.5
G3 X191. I-2.5 J0.
G1 Y-0.947
X191.001 Y-0.962
Z-0.95
X191. Y-0.954
Y-0.947
Y3.5
G2 X196. I2.5 J0.
G1 Y-0.941
X195.999 Y-0.956
Z-1.
X196. Y-0.948
Y-0.941
Y3.5
G3 X191. I-2.5 J0.
G1 Y-0.947
X191.001 Y-0.962
Z-1.05
X191. Y-0.954
Y-0.947
Y3.5
G2 X196. I2.5 J0.
G1 Y-0.941
X195.999 Y-0.956
Z-1.1
X196. Y-0.948
Y-0.941
Y3.5
G3 X191. I-2.5 J0.
G1 Y-0.947
X191.001 Y-0.962
Z-1.15
X191. Y-0.954
Y-0.947
Y3.5
G2 X196. I2.5 J0.
G1 Y-0.941
X195.999 Y-0.956
Z-1.2
X196. Y-0.948
Y-0.941
Y3.5
G3 X191. I-2.5 J0.
G1 Y-0.947
X191.001 Y-0.962
Z-1.25
X191. Y-0.954
Y-0.947
Y3.5
G2 X196. I2.5 J0.
G1 Y-0.941
X195.999 Y-0.956
Z-1.3
X196. Y-0.948
Y-0.941
Y3.5
G3 X191. I-2.5 J0.
G1 Y-0.947
X191.001 Y-0.962
Z-1.35
X191. Y-0.954
Y-0.947
Y3.5
G2 X196. I2.5 J0.
G1 Y-0.941
X195.999 Y-0.956
Z-1.4
X196. Y-0.948
Y-0.941
Y3.5
G3 X191. I-2.5 J0.
G1 Y-0.947
X191.001 Y-0.962
Z-1.45
X191. Y-0.954
Y-0.947
Y3.5
G2 X196. I2.5 J0.
G1 Y-0.941
X195.999 Y-0.956
Z-1.5
X196. Y-0.948
Y-0.941
Y3.5
G3 X191. I-2.5 J0.
G1 Y-0.947
Z0.5
G0 Z1.5
X194.164 Y135.957
Z0.5
G1 Z0.15 F900.
Y135.95
X194.15 Y131.5
G2 X192.85 I-0.65 J0.
G1 X192.836 Y135.943
Y135.951
Z0.1
Y135.943
X192.85 Y131.5
G3 X194.15 I0.65 J0.
G1 X194.164 Y135.95
Y135.957
Z0.05
Y135.95
X194.15 Y131.5
G2 X192.85 I-0.65 J0.
G1 X192.836 Y135.943
Y135.951
Z0.
Y135.943
X192.85 Y131.5
G3 X194.15 I0.65 J0.
G1 X194.164 Y135.95
Y135.957
Z-0.05
Y135.95
X194.15 Y131.5
G2 X192.85 I-0.65 J0.
G1 X192.836 Y135.943
Y135.951
Z-0.1
Y135.943
X192.85 Y131.5
G3 X194.15 I0.65 J0.
G1 X194.164 Y135.95
Y135.957
Z-0.15
Y135.95
X194.15 Y131.5
G2 X192.85 I-0.65 J0.
G1 X192.836 Y135.943
Y135.951
Z-0.2
Y135.943
X192.85 Y131.5
G3 X194.15 I0.65 J0.
G1 X194.164 Y135.95
Y135.957
Z-0.25
Y135.95
X194.15 Y131.5
G2 X192.85 I-0.65 J0.
G1 X192.836 Y135.943
Y135.951
Z-0.3
Y135.943
X192.85 Y131.5
G3 X194.15 I0.65 J0.
G1 X194.164 Y135.95
Y135.957
Z-0.35
Y135.95
X194.15 Y131.5
G2 X192.85 I-0.65 J0.
G1 X192.836 Y135.943
Y135.951
Z-0.4
Y135.943
X192.85 Y131.5
G3 X194.15 I0.65 J0.
G1 X194.164 Y135.95
Y135.957
Z-0.45
Y135.95
X194.15 Y131.5
G2 X192.85 I-0.65 J0.
G1 X192.836 Y135.943
Y135.951
Z-0.5
Y135.943
X192.85 Y131.5
G3 X194.15 I0.65 J0.
G1 X194.164 Y135.95
Y135.957
Z-0.55
Y135.95
X194.15 Y131.5
G2 X192.85 I-0.65 J0.
G1 X192.836 Y135.943
Y135.951
Z-0.6
Y135.943
X192.85 Y131.5
G3 X194.15 I0.65 J0.
G1 X194.164 Y135.95
Y135.957
Z-0.65
Y135.95
X194.15 Y131.5
G2 X192.85 I-0.65 J0.
G1 X192.836 Y135.943
Y135.951
Z-0.7
Y135.943
X192.85 Y131.5
G3 X194.15 I0.65 J0.
G1 X194.164 Y135.95
Y135.957
Z-0.75
Y135.95
X194.15 Y131.5
G2 X192.85 I-0.65 J0.
G1 X192.836 Y135.943
Y135.951
Z-0.8
Y135.943
X192.85 Y131.5
G3 X194.15 I0.65 J0.
G1 X194.164 Y135.95
Y135.957
Z-0.85
Y135.95
X194.15 Y131.5
G2 X192.85 I-0.65 J0.
G1 X192.836 Y135.943
Y135.951
Z-0.9
Y135.943
X192.85 Y131.5
G3 X194.15 I0.65 J0.
G1 X194.164 Y135.95
Y135.957
Z-0.95
Y135.95
X194.15 Y131.5
G2 X192.85 I-0.65 J0.
G1 X192.836 Y135.943
Y135.951
Z-1.
Y135.943
X192.85 Y131.5
G3 X194.15 I0.65 J0.
G1 X194.164 Y135.95
Y135.957
Z-1.05
Y135.95
X194.15 Y131.5
G2 X192.85 I-0.65 J0.
G1 X192.836 Y135.943
Y135.951
Z-1.1
Y135.943
X192.85 Y131.5
G3 X194.15 I0.65 J0.
G1 X194.164 Y135.95
Y135.957
Z-1.15
Y135.95
X194.15 Y131.5
G2 X192.85 I-0.65 J0.
G1 X192.836 Y135.943
Y135.951
Z-1.2
Y135.943
X192.85 Y131.5
G3 X194.15 I0.65 J0.
G1 X194.164 Y135.95
Y135.957
Z-1.25
Y135.95
X194.15 Y131.5
G2 X192.85 I-0.65 J0.
G1 X192.836 Y135.943
Y135.951
Z-1.3
Y135.943
X192.85 Y131.5
G3 X194.15 I0.65 J0.
G1 X194.164 Y135.95
Y135.957
Z-1.35
Y135.95
X194.15 Y131.5
G2 X192.85 I-0.65 J0.
G1 X192.836 Y135.943
Y135.951
Z-1.4
Y135.943
X192.85 Y131.5
G3 X194.15 I0.65 J0.
G1 X194.164 Y135.95
Y135.957
Z-1.45
Y135.95
X194.15 Y131.5
G2 X192.85 I-0.65 J0.
G1 X192.836 Y135.943
Y135.951
Z-1.5
Y135.943
X192.85 Y131.5
G3 X194.15 I0.65 J0.
G1 X194.164 Y135.95
Y135.957
Z0.2
X195.063
Z0.15
Y135.95
X195.05 Y131.5
G2 X191.95 I-1.55 J0.
G1 X191.937 Y135.946
Y135.953
Z0.1
Y135.946
X191.95 Y131.5
G3 X195.05 I1.55 J0.
G1 X195.063 Y135.95
Y135.957
Z0.05
Y135.95
X195.05 Y131.5
G2 X191.95 I-1.55 J0.
G1 X191.937 Y135.946
Y135.953
Z0.
Y135.946
X191.95 Y131.5
G3 X195.05 I1.55 J0.
G1 X195.063 Y135.95
Y135.957
Z-0.05
Y135.95
X195.05 Y131.5
G2 X191.95 I-1.55 J0.
G1 X191.937 Y135.946
Y135.953
Z-0.1
Y135.946
X191.95 Y131.5
G3 X195.05 I1.55 J0.
G1 X195.063 Y135.95
Y135.957
Z-0.15
Y135.95
X195.05 Y131.5
G2 X191.95 I-1.55 J0.
G1 X191.937 Y135.946
Y135.953
Z-0.2
Y135.946
X191.95 Y131.5
G3 X195.05 I1.55 J0.
G1 X195.063 Y135.95
Y135.957
Z-0.25
Y135.95
X195.05 Y131.5
G2 X191.95 I-1.55 J0.
G1 X191.937 Y135.946
Y135.953
Z-0.3
Y135.946
X191.95 Y131.5
G3 X195.05 I1.55 J0.
G1 X195.063 Y135.95
Y135.957
Z-0.35
Y135.95
X195.05 Y131.5
G2 X191.95 I-1.55 J0.
G1 X191.937 Y135.946
Y135.953
Z-0.4
Y135.946
X191.95 Y131.5
G3 X195.05 I1.55 J0.
G1 X195.063 Y135.95
Y135.957
Z-0.45
Y135.95
X195.05 Y131.5
G2 X191.95 I-1.55 J0.
G1 X191.937 Y135.946
Y135.953
Z-0.5
Y135.946
X191.95 Y131.5
G3 X195.05 I1.55 J0.
G1 X195.063 Y135.95
Y135.957
Z-0.55
Y135.95
X195.05 Y131.5
G2 X191.95 I-1.55 J0.
G1 X191.937 Y135.946
Y135.953
Z-0.6
Y135.946
X191.95 Y131.5
G3 X195.05 I1.55 J0.
G1 X195.063 Y135.95
Y135.957
Z-0.65
Y135.95
X195.05 Y131.5
G2 X191.95 I-1.55 J0.
G1 X191.937 Y135.946
Y135.953
Z-0.7
Y135.946
X191.95 Y131.5
G3 X195.05 I1.55 J0.
G1 X195.063 Y135.95
Y135.957
Z-0.75
Y135.95
X195.05 Y131.5
G2 X191.95 I-1.55 J0.
G1 X191.937 Y135.946
Y135.953
Z-0.8
Y135.946
X191.95 Y131.5
G3 X195.05 I1.55 J0.
G1 X195.063 Y135.95
Y135.957
Z-0.85
Y135.95
X195.05 Y131.5
G2 X191.95 I-1.55 J0.
G1 X191.937 Y135.946
Y135.953
Z-0.9
Y135.946
X191.95 Y131.5
G3 X195.05 I1.55 J0.
G1 X195.063 Y135.95
Y135.957
Z-0.95
Y135.95
X195.05 Y131.5
G2 X191.95 I-1.55 J0.
G1 X191.937 Y135.946
Y135.953
Z-1.
Y135.946
X191.95 Y131.5
G3 X195.05 I1.55 J0.
G1 X195.063 Y135.95
Y135.957
Z-1.05
Y135.95
X195.05 Y131.5
G2 X191.95 I-1.55 J0.
G1 X191.937 Y135.946
Y135.953
Z-1.1
Y135.946
X191.95 Y131.5
G3 X195.05 I1.55 J0.
G1 X195.063 Y135.95
Y135.957
Z-1.15
Y135.95
X195.05 Y131.5
G2 X191.95 I-1.55 J0.
G1 X191.937 Y135.946
Y135.953
Z-1.2
Y135.946
X191.95 Y131.5
G3 X195.05 I1.55 J0.
G1 X195.063 Y135.95
Y135.957
Z-1.25
Y135.95
X195.05 Y131.5
G2 X191.95 I-1.55 J0.
G1 X191.937 Y135.946
Y135.953
Z-1.3
Y135.946
X191.95 Y131.5
G3 X195.05 I1.55 J0.
G1 X195.063 Y135.95
Y135.957
Z-1.35
Y135.95
X195.05 Y131.5
G2 X191.95 I-1.55 J0.
G1 X191.937 Y135.946
Y135.953
Z-1.4
Y135.946
X191.95 Y131.5
G3 X195.05 I1.55 J0.
G1 X195.063 Y135.95
Y135.957
Z-1.45
Y135.95
X195.05 Y131.5
G2 X191.95 I-1.55 J0.
G1 X191.937 Y135.946
Y135.953
Z-1.5
Y135.946
X191.95 Y131.5
G3 X195.05 I1.55 J0.
G1 X195.063 Y135.95
Y135.957
Z0.2
X195.999 Y135.962
Z0.15
X196. Y135.954
Y135.947
Y131.5
G2 X191. I-2.5 J0.
G1 Y135.94
X191.001 Y135.956
Z0.1
X191. Y135.948
Y135.94
Y131.5
G3 X196. I2.5 J0.
G1 Y135.947
X195.999 Y135.962
Z0.05
X196. Y135.954
Y135.947
Y131.5
G2 X191. I-2.5 J0.
G1 Y135.94
X191.001 Y135.956
Z0.
X191. Y135.948
Y135.94
Y131.5
G3 X196. I2.5 J0.
G1 Y135.947
X195.999 Y135.962
Z-0.05
X196. Y135.954
Y135.947
Y131.5
G2 X191. I-2.5 J0.
G1 Y135.94
X191.001 Y135.956
Z-0.1
X191. Y135.948
Y135.94
Y131.5
G3 X196. I2.5 J0.
G1 Y135.947
X195.999 Y135.962
Z-0.15
X196. Y135.954
Y135.947
Y131.5
G2 X191. I-2.5 J0.
G1 Y135.94
X191.001 Y135.956
Z-0.2
X191. Y135.948
Y135.94
Y131.5
G3 X196. I2.5 J0.
G1 Y135.947
X195.999 Y135.962
Z-0.25
X196. Y135.954
Y135.947
Y131.5
G2 X191. I-2.5 J0.
G1 Y135.94
X191.001 Y135.956
Z-0.3
X191. Y135.948
Y135.94
Y131.5
G3 X196. I2.5 J0.
G1 Y135.947
X195.999 Y135.962
Z-0.35
X196. Y135.954
Y135.947
Y131.5
G2 X191. I-2.5 J0.
G1 Y135.94
X191.001 Y135.956
Z-0.4
X191. Y135.948
Y135.94
Y131.5
G3 X196. I2.5 J0.
G1 Y135.947
X195.999 Y135.962
Z-0.45
X196. Y135.954
Y135.947
Y131.5
G2 X191. I-2.5 J0.
G1 Y135.94
X191.001 Y135.956
Z-0.5
X191. Y135.948
Y135.94
Y131.5
G3 X196. I2.5 J0.
G1 Y135.947
X195.999 Y135.962
Z-0.55
X196. Y135.954
Y135.947
Y131.5
G2 X191. I-2.5 J0.
G1 Y135.94
X191.001 Y135.956
Z-0.6
X191. Y135.948
Y135.94
Y131.5
G3 X196. I2.5 J0.
G1 Y135.947
X195.999 Y135.962
Z-0.65
X196. Y135.954
Y135.947
Y131.5
G2 X191. I-2.5 J0.
G1 Y135.94
X191.001 Y135.956
Z-0.7
X191. Y135.948
Y135.94
Y131.5
G3 X196. I2.5 J0.
G1 Y135.947
X195.999 Y135.962
Z-0.75
X196. Y135.954
Y135.947
Y131.5
G2 X191. I-2.5 J0.
G1 Y135.94
X191.001 Y135.956
Z-0.8
X191. Y135.948
Y135.94
Y131.5
G3 X196. I2.5 J0.
G1 Y135.947
X195.999 Y135.962
Z-0.85
X196. Y135.954
Y135.947
Y131.5
G2 X191. I-2.5 J0.
G1 Y135.94
X191.001 Y135.956
Z-0.9
X191. Y135.948
Y135.94
Y131.5
G3 X196. I2.5 J0.
G1 Y135.947
X195.999 Y135.962
Z-0.95
X196. Y135.954
Y135.947
Y131.5
G2 X191. I-2.5 J0.
G1 Y135.94
X191.001 Y135.956
Z-1.
X191. Y135.948
Y135.94
Y131.5
G3 X196. I2.5 J0.
G1 Y135.947
X195.999 Y135.962
Z-1.05
X196. Y135.954
Y135.947
Y131.5
G2 X191. I-2.5 J0.
G1 Y135.94
X191.001 Y135.956
Z-1.1
X191. Y135.948
Y135.94
Y131.5
G3 X196. I2.5 J0.
G1 Y135.947
X195.999 Y135.962
Z-1.15
X196. Y135.954
Y135.947
Y131.5
G2 X191. I-2.5 J0.
G1 Y135.94
X191.001 Y135.956
Z-1.2
X191. Y135.948
Y135.94
Y131.5
G3 X196. I2.5 J0.
G1 Y135.947
X195.999 Y135.962
Z-1.25
X196. Y135.954
Y135.947
Y131.5
G2 X191. I-2.5 J0.
G1 Y135.94
X191.001 Y135.956
Z-1.3
X191. Y135.948
Y135.94
Y131.5
G3 X196. I2.5 J0.
G1 Y135.947
X195.999 Y135.962
Z-1.35
X196. Y135.954
Y135.947
Y131.5
G2 X191. I-2.5 J0.
G1 Y135.94
X191.001 Y135.956
Z-1.4
X191. Y135.948
Y135.94
Y131.5
G3 X196. I2.5 J0.
G1 Y135.947
X195.999 Y135.962
Z-1.45
X196. Y135.954
Y135.947
Y131.5
G2 X191. I-2.5 J0.
G1 Y135.94
X191.001 Y135.956
Z-1.5
X191. Y135.948
Y135.94
Y131.5
G3 X196. I2.5 J0.
G1 Y135.947
Z0.5
G0 Z1.5
X57.164 Y135.957
Z0.5
G1 Z0.15 F900.
Y135.95
X57.15 Y131.5
G2 X55.85 I-0.65 J0.
G1 X55.836 Y135.943
Y135.951
Z0.1
Y135.943
X55.85 Y131.5
G3 X57.15 I0.65 J0.
G1 X57.164 Y135.95
Y135.957
Z0.05
Y135.95
X57.15 Y131.5
G2 X55.85 I-0.65 J0.
G1 X55.836 Y135.943
Y135.951
Z0.
Y135.943
X55.85 Y131.5
G3 X57.15 I0.65 J0.
G1 X57.164 Y135.95
Y135.957
Z-0.05
Y135.95
X57.15 Y131.5
G2 X55.85 I-0.65 J0.
G1 X55.836 Y135.943
Y135.951
Z-0.1
Y135.943
X55.85 Y131.5
G3 X57.15 I0.65 J0.
G1 X57.164 Y135.95
Y135.957
Z-0.15
Y135.95
X57.15 Y131.5
G2 X55.85 I-0.65 J0.
G1 X55.836 Y135.943
Y135.951
Z-0.2
Y135.943
X55.85 Y131.5
G3 X57.15 I0.65 J0.
G1 X57.164 Y135.95
Y135.957
Z-0.25
Y135.95
X57.15 Y131.5
G2 X55.85 I-0.65 J0.
G1 X55.836 Y135.943
Y135.951
Z-0.3
Y135.943
X55.85 Y131.5
G3 X57.15 I0.65 J0.
G1 X57.164 Y135.95
Y135.957
Z-0.35
Y135.95
X57.15 Y131.5
G2 X55.85 I-0.65 J0.
G1 X55.836 Y135.943
Y135.951
Z-0.4
Y135.943
X55.85 Y131.5
G3 X57.15 I0.65 J0.
G1 X57.164 Y135.95
Y135.957
Z-0.45
Y135.95
X57.15 Y131.5
G2 X55.85 I-0.65 J0.
G1 X55.836 Y135.943
Y135.951
Z-0.5
Y135.943
X55.85 Y131.5
G3 X57.15 I0.65 J0.
G1 X57.164 Y135.95
Y135.957
Z-0.55
Y135.95
X57.15 Y131.5
G2 X55.85 I-0.65 J0.
G1 X55.836 Y135.943
Y135.951
Z-0.6
Y135.943
X55.85 Y131.5
G3 X57.15 I0.65 J0.
G1 X57.164 Y135.95
Y135.957
Z-0.65
Y135.95
X57.15 Y131.5
G2 X55.85 I-0.65 J0.
G1 X55.836 Y135.943
Y135.951
Z-0.7
Y135.943
X55.85 Y131.5
G3 X57.15 I0.65 J0.
G1 X57.164 Y135.95
Y135.957
Z-0.75
Y135.95
X57.15 Y131.5
G2 X55.85 I-0.65 J0.
G1 X55.836 Y135.943
Y135.951
Z-0.8
Y135.943
X55.85 Y131.5
G3 X57.15 I0.65 J0.
G1 X57.164 Y135.95
Y135.957
Z-0.85
Y135.95
X57.15 Y131.5
G2 X55.85 I-0.65 J0.
G1 X55.836 Y135.943
Y135.951
Z-0.9
Y135.943
X55.85 Y131.5
G3 X57.15 I0.65 J0.
G1 X57.164 Y135.95
Y135.957
Z-0.95
Y135.95
X57.15 Y131.5
G2 X55.85 I-0.65 J0.
G1 X55.836 Y135.943
Y135.951
Z-1.
Y135.943
X55.85 Y131.5
G3 X57.15 I0.65 J0.
G1 X57.164 Y135.95
Y135.957
Z-1.05
Y135.95
X57.15 Y131.5
G2 X55.85 I-0.65 J0.
G1 X55.836 Y135.943
Y135.951
Z-1.1
Y135.943
X55.85 Y131.5
G3 X57.15 I0.65 J0.
G1 X57.164 Y135.95
Y135.957
Z-1.15
Y135.95
X57.15 Y131.5
G2 X55.85 I-0.65 J0.
G1 X55.836 Y135.943
Y135.951
Z-1.2
Y135.943
X55.85 Y131.5
G3 X57.15 I0.65 J0.
G1 X57.164 Y135.95
Y135.957
Z-1.25
Y135.95
X57.15 Y131.5
G2 X55.85 I-0.65 J0.
G1 X55.836 Y135.943
Y135.951
Z-1.3
Y135.943
X55.85 Y131.5
G3 X57.15 I0.65 J0.
G1 X57.164 Y135.95
Y135.957
Z-1.35
Y135.95
X57.15 Y131.5
G2 X55.85 I-0.65 J0.
G1 X55.836 Y135.943
Y135.951
Z-1.4
Y135.943
X55.85 Y131.5
G3 X57.15 I0.65 J0.
G1 X57.164 Y135.95
Y135.957
Z-1.45
Y135.95
X57.15 Y131.5
G2 X55.85 I-0.65 J0.
G1 X55.836 Y135.943
Y135.951
Z-1.5
Y135.943
X55.85 Y131.5
G3 X57.15 I0.65 J0.
G1 X57.164 Y135.95
Y135.957
Z0.2
X58.063
Z0.15
Y135.95
X58.05 Y131.5
G2 X54.95 I-1.55 J0.
G1 X54.937 Y135.946
Y135.953
Z0.1
Y135.946
X54.95 Y131.5
G3 X58.05 I1.55 J0.
G1 X58.063 Y135.95
Y135.957
Z0.05
Y135.95
X58.05 Y131.5
G2 X54.95 I-1.55 J0.
G1 X54.937 Y135.946
Y135.953
Z0.
Y135.946
X54.95 Y131.5
G3 X58.05 I1.55 J0.
G1 X58.063 Y135.95
Y135.957
Z-0.05
Y135.95
X58.05 Y131.5
G2 X54.95 I-1.55 J0.
G1 X54.937 Y135.946
Y135.953
Z-0.1
Y135.946
X54.95 Y131.5
G3 X58.05 I1.55 J0.
G1 X58.063 Y135.95
Y135.957
Z-0.15
Y135.95
X58.05 Y131.5
G2 X54.95 I-1.55 J0.
G1 X54.937 Y135.946
Y135.953
Z-0.2
Y135.946
X54.95 Y131.5
G3 X58.05 I1.55 J0.
G1 X58.063 Y135.95
Y135.957
Z-0.25
Y135.95
X58.05 Y131.5
G2 X54.95 I-1.55 J0.
G1 X54.937 Y135.946
Y135.953
Z-0.3
Y135.946
X54.95 Y131.5
G3 X58.05 I1.55 J0.
G1 X58.063 Y135.95
Y135.957
Z-0.35
Y135.95
X58.05 Y131.5
G2 X54.95 I-1.55 J0.
G1 X54.937 Y135.946
Y135.953
Z-0.4
Y135.946
X54.95 Y131.5
G3 X58.05 I1.55 J0.
G1 X58.063 Y135.95
Y135.957
Z-0.45
Y135.95
X58.05 Y131.5
G2 X54.95 I-1.55 J0.
G1 X54.937 Y135.946
Y135.953
Z-0.5
Y135.946
X54.95 Y131.5
G3 X58.05 I1.55 J0.
G1 X58.063 Y135.95
Y135.957
Z-0.55
Y135.95
X58.05 Y131.5
G2 X54.95 I-1.55 J0.
G1 X54.937 Y135.946
Y135.953
Z-0.6
Y135.946
X54.95 Y131.5
G3 X58.05 I1.55 J0.
G1 X58.063 Y135.95
Y135.957
Z-0.65
Y135.95
X58.05 Y131.5
G2 X54.95 I-1.55 J0.
G1 X54.937 Y135.946
Y135.953
Z-0.7
Y135.946
X54.95 Y131.5
G3 X58.05 I1.55 J0.
G1 X58.063 Y135.95
Y135.957
Z-0.75
Y135.95
X58.05 Y131.5
G2 X54.95 I-1.55 J0.
G1 X54.937 Y135.946
Y135.953
Z-0.8
Y135.946
X54.95 Y131.5
G3 X58.05 I1.55 J0.
G1 X58.063 Y135.95
Y135.957
Z-0.85
Y135.95
X58.05 Y131.5
G2 X54.95 I-1.55 J0.
G1 X54.937 Y135.946
Y135.953
Z-0.9
Y135.946
X54.95 Y131.5
G3 X58.05 I1.55 J0.
G1 X58.063 Y135.95
Y135.957
Z-0.95
Y135.95
X58.05 Y131.5
G2 X54.95 I-1.55 J0.
G1 X54.937 Y135.946
Y135.953
Z-1.
Y135.946
X54.95 Y131.5
G3 X58.05 I1.55 J0.
G1 X58.063 Y135.95
Y135.957
Z-1.05
Y135.95
X58.05 Y131.5
G2 X54.95 I-1.55 J0.
G1 X54.937 Y135.946
Y135.953
Z-1.1
Y135.946
X54.95 Y131.5
G3 X58.05 I1.55 J0.
G1 X58.063 Y135.95
Y135.957
Z-1.15
Y135.95
X58.05 Y131.5
G2 X54.95 I-1.55 J0.
G1 X54.937 Y135.946
Y135.953
Z-1.2
Y135.946
X54.95 Y131.5
G3 X58.05 I1.55 J0.
G1 X58.063 Y135.95
Y135.957
Z-1.25
Y135.95
X58.05 Y131.5
G2 X54.95 I-1.55 J0.
G1 X54.937 Y135.946
Y135.953
Z-1.3
Y135.946
X54.95 Y131.5
G3 X58.05 I1.55 J0.
G1 X58.063 Y135.95
Y135.957
Z-1.35
Y135.95
X58.05 Y131.5
G2 X54.95 I-1.55 J0.
G1 X54.937 Y135.946
Y135.953
Z-1.4
Y135.946
X54.95 Y131.5
G3 X58.05 I1.55 J0.
G1 X58.063 Y135.95
Y135.957
Z-1.45
Y135.95
X58.05 Y131.5
G2 X54.95 I-1.55 J0.
G1 X54.937 Y135.946
Y135.953
Z-1.5
Y135.946
X54.95 Y131.5
G3 X58.05 I1.55 J0.
G1 X58.063 Y135.95
Y135.957
Z0.2
X58.999 Y135.962
Z0.15
X59. Y135.954
Y135.947
Y131.5
G2 X54. I-2.5 J0.
G1 Y135.94
X54.001 Y135.956
Z0.1
X54. Y135.948
Y135.94
Y131.5
G3 X59. I2.5 J0.
G1 Y135.947
X58.999 Y135.962
Z0.05
X59. Y135.954
Y135.947
Y131.5
G2 X54. I-2.5 J0.
G1 Y135.94
X54.001 Y135.956
Z0.
X54. Y135.948
Y135.94
Y131.5
G3 X59. I2.5 J0.
G1 Y135.947
X58.999 Y135.962
Z-0.05
X59. Y135.954
Y135.947
Y131.5
G2 X54. I-2.5 J0.
G1 Y135.94
X54.001 Y135.956
Z-0.1
X54. Y135.948
Y135.94
Y131.5
G3 X59. I2.5 J0.
G1 Y135.947
X58.999 Y135.962
Z-0.15
X59. Y135.954
Y135.947
Y131.5
G2 X54. I-2.5 J0.
G1 Y135.94
X54.001 Y135.956
Z-0.2
X54. Y135.948
Y135.94
Y131.5
G3 X59. I2.5 J0.
G1 Y135.947
X58.999 Y135.962
Z-0.25
X59. Y135.954
Y135.947
Y131.5
G2 X54. I-2.5 J0.
G1 Y135.94
X54.001 Y135.956
Z-0.3
X54. Y135.948
Y135.94
Y131.5
G3 X59. I2.5 J0.
G1 Y135.947
X58.999 Y135.962
Z-0.35
X59. Y135.954
Y135.947
Y131.5
G2 X54. I-2.5 J0.
G1 Y135.94
X54.001 Y135.956
Z-0.4
X54. Y135.948
Y135.94
Y131.5
G3 X59. I2.5 J0.
G1 Y135.947
X58.999 Y135.962
Z-0.45
X59. Y135.954
Y135.947
Y131.5
G2 X54. I-2.5 J0.
G1 Y135.94
X54.001 Y135.956
Z-0.5
X54. Y135.948
Y135.94
Y131.5
G3 X59. I2.5 J0.
G1 Y135.947
X58.999 Y135.962
Z-0.55
X59. Y135.954
Y135.947
Y131.5
G2 X54. I-2.5 J0.
G1 Y135.94
X54.001 Y135.956
Z-0.6
X54. Y135.948
Y135.94
Y131.5
G3 X59. I2.5 J0.
G1 Y135.947
X58.999 Y135.962
Z-0.65
X59. Y135.954
Y135.947
Y131.5
G2 X54. I-2.5 J0.
G1 Y135.94
X54.001 Y135.956
Z-0.7
X54. Y135.948
Y135.94
Y131.5
G3 X59. I2.5 J0.
G1 Y135.947
X58.999 Y135.962
Z-0.75
X59. Y135.954
Y135.947
Y131.5
G2 X54. I-2.5 J0.
G1 Y135.94
X54.001 Y135.956
Z-0.8
X54. Y135.948
Y135.94
Y131.5
G3 X59. I2.5 J0.
G1 Y135.947
X58.999 Y135.962
Z-0.85
X59. Y135.954
Y135.947
Y131.5
G2 X54. I-2.5 J0.
G1 Y135.94
X54.001 Y135.956
Z-0.9
X54. Y135.948
Y135.94
Y131.5
G3 X59. I2.5 J0.
G1 Y135.947
X58.999 Y135.962
Z-0.95
X59. Y135.954
Y135.947
Y131.5
G2 X54. I-2.5 J0.
G1 Y135.94
X54.001 Y135.956
Z-1.
X54. Y135.948
Y135.94
Y131.5
G3 X59. I2.5 J0.
G1 Y135.947
X58.999 Y135.962
Z-1.05
X59. Y135.954
Y135.947
Y131.5
G2 X54. I-2.5 J0.
G1 Y135.94
X54.001 Y135.956
Z-1.1
X54. Y135.948
Y135.94
Y131.5
G3 X59. I2.5 J0.
G1 Y135.947
X58.999 Y135.962
Z-1.15
X59. Y135.954
Y135.947
Y131.5
G2 X54. I-2.5 J0.
G1 Y135.94
X54.001 Y135.956
Z-1.2
X54. Y135.948
Y135.94
Y131.5
G3 X59. I2.5 J0.
G1 Y135.947
X58.999 Y135.962
Z-1.25
X59. Y135.954
Y135.947
Y131.5
G2 X54. I-2.5 J0.
G1 Y135.94
X54.001 Y135.956
Z-1.3
X54. Y135.948
Y135.94
Y131.5
G3 X59. I2.5 J0.
G1 Y135.947
X58.999 Y135.962
Z-1.35
X59. Y135.954
Y135.947
Y131.5
G2 X54. I-2.5 J0.
G1 Y135.94
X54.001 Y135.956
Z-1.4
X54. Y135.948
Y135.94
Y131.5
G3 X59. I2.5 J0.
G1 Y135.947
X58.999 Y135.962
Z-1.45
X59. Y135.954
Y135.947
Y131.5
G2 X54. I-2.5 J0.
G1 Y135.94
X54.001 Y135.956
Z-1.5
X54. Y135.948
Y135.94
Y131.5
G3 X59. I2.5 J0.
G1 Y135.947
Z0.5
G0 Z1.5

(2D 1)
M8
G0 X22. Y118.25
Z1.5
Z1.
G1 Z0.1 F30.
G3 Y123.25 Z0.075 I0. J2.5 F900.
Y118.25 Z0.05 I0. J-2.5
Y123.25 Z0.025 I0. J2.5
Y118.25 Z0. I0. J-2.5
Y123.25 Z-0.025 I0. J2.5
Y118.25 Z-0.05 I0. J-2.5
Y123.25 Z-0.075 I0. J2.5
Y118.25 Z-0.1 I0. J-2.5
Y123.25 Z-0.125 I0. J2.5
Y118.25 Z-0.15 I0. J-2.5
Y123.25 Z-0.175 I0. J2.5
Y118.25 Z-0.2 I0. J-2.5
Y123.25 Z-0.225 I0. J2.5
Y118.25 Z-0.25 I0. J-2.5
Y123.25 Z-0.275 I0. J2.5
Y118.25 Z-0.3 I0. J-2.5
Y123.25 Z-0.325 I0. J2.5
Y118.25 Z-0.35 I0. J-2.5
Y123.25 Z-0.375 I0. J2.5
Y118.25 Z-0.4 I0. J-2.5
Y123.25 Z-0.425 I0. J2.5
Y118.25 Z-0.45 I0. J-2.5
Y123.25 Z-0.475 I0. J2.5
Y118.25 Z-0.5 I0. J-2.5
Y123.25 Z-0.525 I0. J2.5
Y118.25 Z-0.55 I0. J-2.5
Y123.25 Z-0.575 I0. J2.5
Y118.25 Z-0.6 I0. J-2.5
Y123.25 Z-0.625 I0. J2.5
Y118.25 Z-0.65 I0. J-2.5
Y123.25 Z-0.675 I0. J2.5
Y118.25 Z-0.7 I0. J-2.5
Y123.25 Z-0.725 I0. J2.5
Y118.25 Z-0.75 I0. J-2.5
Y123.25 Z-0.775 I0. J2.5
Y118.25 Z-0.8 I0. J-2.5
Y123.25 Z-0.825 I0. J2.5
Y118.25 Z-0.85 I0. J-2.5
Y123.25 Z-0.875 I0. J2.5
Y118.25 Z-0.9 I0. J-2.5
Y123.25 Z-0.925 I0. J2.5
Y118.25 Z-0.95 I0. J-2.5
Y123.25 Z-0.975 I0. J2.5
Y118.25 Z-1. I0. J-2.5
Y123.25 Z-1.025 I0. J2.5
Y118.25 Z-1.05 I0. J-2.5
Y123.25 Z-1.075 I0. J2.5
Y118.25 Z-1.1 I0. J-2.5
Y123.25 Z-1.125 I0. J2.5
Y118.25 Z-1.15 I0. J-2.5
Y123.25 Z-1.175 I0. J2.5
Y118.25 Z-1.2 I0. J-2.5
Y123.25 Z-1.225 I0. J2.5
Y118.25 Z-1.25 I0. J-2.5
Y123.25 Z-1.275 I0. J2.5
Y118.25 Z-1.3 I0. J-2.5
Y123.25 Z-1.325 I0. J2.5
Y118.25 Z-1.35 I0. J-2.5
Y123.25 Z-1.375 I0. J2.5
Y118.25 Z-1.4 I0. J-2.5
Y123.25 Z-1.425 I0. J2.5
Y118.25 Z-1.45 I0. J-2.5
Y123.25 Z-1.475 I0. J2.5
Y118.25 Z-1.5 I0. J-2.5
Y123.25 I0. J2.5 F600.
Y118.25 I0. J-2.5
G1 Z1. F900.
G0 Y98.75
G1 Z0.1 F30.
G3 Y103.75 Z0.075 I0. J2.5 F900.
Y98.75 Z0.05 I0. J-2.5
Y103.75 Z0.025 I0. J2.5
Y98.75 Z0. I0. J-2.5
Y103.75 Z-0.025 I0. J2.5
Y98.75 Z-0.05 I0. J-2.5
Y103.75 Z-0.075 I0. J2.5
Y98.75 Z-0.1 I0. J-2.5
Y103.75 Z-0.125 I0. J2.5
Y98.75 Z-0.15 I0. J-2.5
Y103.75 Z-0.175 I0. J2.5
Y98.75 Z-0.2 I0. J-2.5
Y103.75 Z-0.225 I0. J2.5
Y98.75 Z-0.25 I0. J-2.5
Y103.75 Z-0.275 I0. J2.5
Y98.75 Z-0.3 I0. J-2.5
Y103.75 Z-0.325 I0. J2.5
Y98.75 Z-0.35 I0. J-2.5
Y103.75 Z-0.375 I0. J2.5
Y98.75 Z-0.4 I0. J-2.5
Y103.75 Z-0.425 I0. J2.5
Y98.75 Z-0.45 I0. J-2.5
Y103.75 Z-0.475 I0. J2.5
Y98.75 Z-0.5 I0. J-2.5
Y103.75 Z-0.525 I0. J2.5
Y98.75 Z-0.55 I0. J-2.5
Y103.75 Z-0.575 I0. J2.5
Y98.75 Z-0.6 I0. J-2.5
Y103.75 Z-0.625 I0. J2.5
Y98.75 Z-0.65 I0. J-2.5
Y103.75 Z-0.675 I0. J2.5
Y98.75 Z-0.7 I0. J-2.5
Y103.75 Z-0.725 I0. J2.5
Y98.75 Z-0.75 I0. J-2.5
Y103.75 Z-0.775 I0. J2.5
Y98.75 Z-0.8 I0. J-2.5
Y103.75 Z-0.825 I0. J2.5
Y98.75 Z-0.85 I0. J-2.5
Y103.75 Z-0.875 I0. J2.5
Y98.75 Z-0.9 I0. J-2.5
Y103.75 Z-0.925 I0. J2.5
Y98.75 Z-0.95 I0. J-2.5
Y103.75 Z-0.975 I0. J2.5
Y98.75 Z-1. I0. J-2.5
Y103.75 Z-1.025 I0. J2.5
Y98.75 Z-1.05 I0. J-2.5
Y103.75 Z-1.075 I0. J2.5
Y98.75 Z-1.1 I0. J-2.5
Y103.75 Z-1.125 I0. J2.5
Y98.75 Z-1.15 I0. J-2.5
Y103.75 Z-1.175 I0. J2.5
Y98.75 Z-1.2 I0. J-2.5
Y103.75 Z-1.225 I0. J2.5
Y98.75 Z-1.25 I0. J-2.5
Y103.75 Z-1.275 I0. J2.5
Y98.75 Z-1.3 I0. J-2.5
Y103.75 Z-1.325 I0. J2.5
Y98.75 Z-1.35 I0. J-2.5
Y103.75 Z-1.375 I0. J2.5
Y98.75 Z-1.4 I0. J-2.5
Y103.75 Z-1.425 I0. J2.5
Y98.75 Z-1.45 I0. J-2.5
Y103.75 Z-1.475 I0. J2.5
Y98.75 Z-1.5 I0. J-2.5
Y103.75 I0. J2.5 F600.
Y98.75 I0. J-2.5
G1 Z1. F900.
G0 X59. Y90.5
G1 Z0.1 F30.
G3 X54. Z0.075 I-2.5 J0. F900.
X59. Z0.05 I2.5 J0.
X54. Z0.025 I-2.5 J0.
X59. Z0. I2.5 J0.
X54. Z-0.025 I-2.5 J0.
X59. Z-0.05 I2.5 J0.
X54. Z-0.075 I-2.5 J0.
X59. Z-0.1 I2.5 J0.
X54. Z-0.125 I-2.5 J0.
X59. Z-0.15 I2.5 J0.
X54. Z-0.175 I-2.5 J0.
X59. Z-0.2 I2.5 J0.
X54. Z-0.225 I-2.5 J0.
X59. Z-0.25 I2.5 J0.
X54. Z-0.275 I-2.5 J0.
X59. Z-0.3 I2.5 J0.
X54. Z-0.325 I-2.5 J0.
X59. Z-0.35 I2.5 J0.
X54. Z-0.375 I-2.5 J0.
X59. Z-0.4 I2.5 J0.
X54. Z-0.425 I-2.5 J0.
X59. Z-0.45 I2.5 J0.
X54. Z-0.475 I-2.5 J0.
X59. Z-0.5 I2.5 J0.
X54. Z-0.525 I-2.5 J0.
X59. Z-0.55 I2.5 J0.
X54. Z-0.575 I-2.5 J0.
X59. Z-0.6 I2.5 J0.
X54. Z-0.625 I-2.5 J0.
X59. Z-0.65 I2.5 J0.
X54. Z-0.675 I-2.5 J0.
X59. Z-0.7 I2.5 J0.
X54. Z-0.725 I-2.5 J0.
X59. Z-0.75 I2.5 J0.
X54. Z-0.775 I-2.5 J0.
X59. Z-0.8 I2.5 J0.
X54. Z-0.825 I-2.5 J0.
X59. Z-0.85 I2.5 J0.
X54. Z-0.875 I-2.5 J0.
X59. Z-0.9 I2.5 J0.
X54. Z-0.925 I-2.5 J0.
X59. Z-0.95 I2.5 J0.
X54. Z-0.975 I-2.5 J0.
X59. Z-1. I2.5 J0.
X54. Z-1.025 I-2.5 J0.
X59. Z-1.05 I2.5 J0.
X54. Z-1.075 I-2.5 J0.
X59. Z-1.1 I2.5 J0.
X54. Z-1.125 I-2.5 J0.
X59. Z-1.15 I2.5 J0.
X54. Z-1.175 I-2.5 J0.
X59. Z-1.2 I2.5 J0.
X54. Z-1.225 I-2.5 J0.
X59. Z-1.25 I2.5 J0.
X54. Z-1.275 I-2.5 J0.
X59. Z-1.3 I2.5 J0.
X54. Z-1.325 I-2.5 J0.
X59. Z-1.35 I2.5 J0.
X54. Z-1.375 I-2.5 J0.
X59. Z-1.4 I2.5 J0.
X54. Z-1.425 I-2.5 J0.
X59. Z-1.45 I2.5 J0.
X54. Z-1.475 I-2.5 J0.
X59. Z-1.5 I2.5 J0.
X54. I-2.5 J0. F600.
X59. I2.5 J0.
G1 Z1. F900.
G0 X50.8 Y82.5
G1 Z0.1 F30.
G3 Y77.5 Z0.075 I0. J-2.5 F900.
Y82.5 Z0.05 I0. J2.5
Y77.5 Z0.025 I0. J-2.5
Y82.5 Z0. I0. J2.5
Y77.5 Z-0.025 I0. J-2.5
Y82.5 Z-0.05 I0. J2.5
Y77.5 Z-0.075 I0. J-2.5
Y82.5 Z-0.1 I0. J2.5
Y77.5 Z-0.125 I0. J-2.5
Y82.5 Z-0.15 I0. J2.5
Y77.5 Z-0.175 I0. J-2.5
Y82.5 Z-0.2 I0. J2.5
Y77.5 Z-0.225 I0. J-2.5
Y82.5 Z-0.25 I0. J2.5
Y77.5 Z-0.275 I0. J-2.5
Y82.5 Z-0.3 I0. J2.5
Y77.5 Z-0.325 I0. J-2.5
Y82.5 Z-0.35 I0. J2.5
Y77.5 Z-0.375 I0. J-2.5
Y82.5 Z-0.4 I0. J2.5
Y77.5 Z-0.425 I0. J-2.5
Y82.5 Z-0.45 I0. J2.5
Y77.5 Z-0.475 I0. J-2.5
Y82.5 Z-0.5 I0. J2.5
Y77.5 Z-0.525 I0. J-2.5
Y82.5 Z-0.55 I0. J2.5
Y77.5 Z-0.575 I0. J-2.5
Y82.5 Z-0.6 I0. J2.5
Y77.5 Z-0.625 I0. J-2.5
Y82.5 Z-0.65 I0. J2.5
Y77.5 Z-0.675 I0. J-2.5
Y82.5 Z-0.7 I0. J2.5
Y77.5 Z-0.725 I0. J-2.5
Y82.5 Z-0.75 I0. J2.5
Y77.5 Z-0.775 I0. J-2.5
Y82.5 Z-0.8 I0. J2.5
Y77.5 Z-0.825 I0. J-2.5
Y82.5 Z-0.85 I0. J2.5
Y77.5 Z-0.875 I0. J-2.5
Y82.5 Z-0.9 I0. J2.5
Y77.5 Z-0.925 I0. J-2.5
Y82.5 Z-0.95 I0. J2.5
Y77.5 Z-0.975 I0. J-2.5
Y82.5 Z-1. I0. J2.5
Y77.5 Z-1.025 I0. J-2.5
Y82.5 Z-1.05 I0. J2.5
Y77.5 Z-1.075 I0. J-2.5
Y82.5 Z-1.1 I0. J2.5
Y77.5 Z-1.125 I0. J-2.5
Y82.5 Z-1.15 I0. J2.5
Y77.5 Z-1.175 I0. J-2.5
Y82.5 Z-1.2 I0. J2.5
Y77.5 Z-1.225 I0. J-2.5
Y82.5 Z-1.25 I0. J2.5
Y77.5 Z-1.275 I0. J-2.5
Y82.5 Z-1.3 I0. J2.5
Y77.5 Z-1.325 I0. J-2.5
Y82.5 Z-1.35 I0. J2.5
Y77.5 Z-1.375 I0. J-2.5
Y82.5 Z-1.4 I0. J2.5
Y77.5 Z-1.425 I0. J-2.5
Y82.5 Z-1.45 I0. J2.5
Y77.5 Z-1.475 I0. J-2.5
Y82.5 Z-1.5 I0. J2.5
Y77.5 I0. J-2.5 F600.
Y82.5 I0. J2.5
G1 Z1. F900.
G0 X53.3 Y55.
G1 Z0.1 F30.
G3 X48.3 Z0.075 I-2.5 J0. F900.
X53.3 Z0.05 I2.5 J0.
X48.3 Z0.025 I-2.5 J0.
X53.3 Z0. I2.5 J0.
X48.3 Z-0.025 I-2.5 J0.
X53.3 Z-0.05 I2.5 J0.
X48.3 Z-0.075 I-2.5 J0.
X53.3 Z-0.1 I2.5 J0.
X48.3 Z-0.125 I-2.5 J0.
X53.3 Z-0.15 I2.5 J0.
X48.3 Z-0.175 I-2.5 J0.
X53.3 Z-0.2 I2.5 J0.
X48.3 Z-0.225 I-2.5 J0.
X53.3 Z-0.25 I2.5 J0.
X48.3 Z-0.275 I-2.5 J0.
X53.3 Z-0.3 I2.5 J0.
X48.3 Z-0.325 I-2.5 J0.
X53.3 Z-0.35 I2.5 J0.
X48.3 Z-0.375 I-2.5 J0.
X53.3 Z-0.4 I2.5 J0.
X48.3 Z-0.425 I-2.5 J0.
X53.3 Z-0.45 I2.5 J0.
X48.3 Z-0.475 I-2.5 J0.
X53.3 Z-0.5 I2.5 J0.
X48.3 Z-0.525 I-2.5 J0.
X53.3 Z-0.55 I2.5 J0.
X48.3 Z-0.575 I-2.5 J0.
X53.3 Z-0.6 I2.5 J0.
X48.3 Z-0.625 I-2.5 J0.
X53.3 Z-0.65 I2.5 J0.
X48.3 Z-0.675 I-2.5 J0.
X53.3 Z-0.7 I2.5 J0.
X48.3 Z-0.725 I-2.5 J0.
X53.3 Z-0.75 I2.5 J0.
X48.3 Z-0.775 I-2.5 J0.
X53.3 Z-0.8 I2.5 J0.
X48.3 Z-0.825 I-2.5 J0.
X53.3 Z-0.85 I2.5 J0.
X48.3 Z-0.875 I-2.5 J0.
X53.3 Z-0.9 I2.5 J0.
X48.3 Z-0.925 I-2.5 J0.
X53.3 Z-0.95 I2.5 J0.
X48.3 Z-0.975 I-2.5 J0.
X53.3 Z-1. I2.5 J0.
X48.3 Z-1.025 I-2.5 J0.
X53.3 Z-1.05 I2.5 J0.
X48.3 Z-1.075 I-2.5 J0.
X53.3 Z-1.1 I2.5 J0.
X48.3 Z-1.125 I-2.5 J0.
X53.3 Z-1.15 I2.5 J0.
X48.3 Z-1.175 I-2.5 J0.
X53.3 Z-1.2 I2.5 J0.
X48.3 Z-1.225 I-2.5 J0.
X53.3 Z-1.25 I2.5 J0.
X48.3 Z-1.275 I-2.5 J0.
X53.3 Z-1.3 I2.5 J0.
X48.3 Z-1.325 I-2.5 J0.
X53.3 Z-1.35 I2.5 J0.
X48.3 Z-1.375 I-2.5 J0.
X53.3 Z-1.4 I2.5 J0.
X48.3 Z-1.425 I-2.5 J0.
X53.3 Z-1.45 I2.5 J0.
X48.3 Z-1.475 I-2.5 J0.
X53.3 Z-1.5 I2.5 J0.
X48.3 I-2.5 J0. F600.
X53.3 I2.5 J0.
G1 Z1. F900.
G0 X59. Y44.5
G1 Z0.1 F30.
G3 X54. Z0.075 I-2.5 J0. F900.
X59. Z0.05 I2.5 J0.
X54. Z0.025 I-2.5 J0.
X59. Z0. I2.5 J0.
X54. Z-0.025 I-2.5 J0.
X59. Z-0.05 I2.5 J0.
X54. Z-0.075 I-2.5 J0.
X59. Z-0.1 I2.5 J0.
X54. Z-0.125 I-2.5 J0.
X59. Z-0.15 I2.5 J0.
X54. Z-0.175 I-2.5 J0.
X59. Z-0.2 I2.5 J0.
X54. Z-0.225 I-2.5 J0.
X59. Z-0.25 I2.5 J0.
X54. Z-0.275 I-2.5 J0.
X59. Z-0.3 I2.5 J0.
X54. Z-0.325 I-2.5 J0.
X59. Z-0.35 I2.5 J0.
X54. Z-0.375 I-2.5 J0.
X59. Z-0.4 I2.5 J0.
X54. Z-0.425 I-2.5 J0.
X59. Z-0.45 I2.5 J0.
X54. Z-0.475 I-2.5 J0.
X59. Z-0.5 I2.5 J0.
X54. Z-0.525 I-2.5 J0.
X59. Z-0.55 I2.5 J0.
X54. Z-0.575 I-2.5 J0.
X59. Z-0.6 I2.5 J0.
X54. Z-0.625 I-2.5 J0.
X59. Z-0.65 I2.5 J0.
X54. Z-0.675 I-2.5 J0.
X59. Z-0.7 I2.5 J0.
X54. Z-0.725 I-2.5 J0.
X59. Z-0.75 I2.5 J0.
X54. Z-0.775 I-2.5 J0.
X59. Z-0.8 I2.5 J0.
X54. Z-0.825 I-2.5 J0.
X59. Z-0.85 I2.5 J0.
X54. Z-0.875 I-2.5 J0.
X59. Z-0.9 I2.5 J0.
X54. Z-0.925 I-2.5 J0.
X59. Z-0.95 I2.5 J0.
X54. Z-0.975 I-2.5 J0.
X59. Z-1. I2.5 J0.
X54. Z-1.025 I-2.5 J0.
X59. Z-1.05 I2.5 J0.
X54. Z-1.075 I-2.5 J0.
X59. Z-1.1 I2.5 J0.
X54. Z-1.125 I-2.5 J0.
X59. Z-1.15 I2.5 J0.
X54. Z-1.175 I-2.5 J0.
X59. Z-1.2 I2.5 J0.
X54. Z-1.225 I-2.5 J0.
X59. Z-1.25 I2.5 J0.
X54. Z-1.275 I-2.5 J0.
X59. Z-1.3 I2.5 J0.
X54. Z-1.325 I-2.5 J0.
X59. Z-1.35 I2.5 J0.
X54. Z-1.375 I-2.5 J0.
X59. Z-1.4 I2.5 J0.
X54. Z-1.425 I-2.5 J0.
X59. Z-1.45 I2.5 J0.
X54. Z-1.475 I-2.5 J0.
X59. Z-1.5 I2.5 J0.
X54. I-2.5 J0. F600.
X59. I2.5 J0.
G1 Z1. F900.
G0 X24.5 Y33.75
G1 Z0.1 F30.
G3 X19.5 Z0.075 I-2.5 J0. F900.
X24.5 Z0.05 I2.5 J0.
X19.5 Z0.025 I-2.5 J0.
X24.5 Z0. I2.5 J0.
X19.5 Z-0.025 I-2.5 J0.
X24.5 Z-0.05 I2.5 J0.
X19.5 Z-0.075 I-2.5 J0.
X24.5 Z-0.1 I2.5 J0.
X19.5 Z-0.125 I-2.5 J0.
X24.5 Z-0.15 I2.5 J0.
X19.5 Z-0.175 I-2.5 J0.
X24.5 Z-0.2 I2.5 J0.
X19.5 Z-0.225 I-2.5 J0.
X24.5 Z-0.25 I2.5 J0.
X19.5 Z-0.275 I-2.5 J0.
X24.5 Z-0.3 I2.5 J0.
X19.5 Z-0.325 I-2.5 J0.
X24.5 Z-0.35 I2.5 J0.
X19.5 Z-0.375 I-2.5 J0.
X24.5 Z-0.4 I2.5 J0.
X19.5 Z-0.425 I-2.5 J0.
X24.5 Z-0.45 I2.5 J0.
X19.5 Z-0.475 I-2.5 J0.
X24.5 Z-0.5 I2.5 J0.
X19.5 Z-0.525 I-2.5 J0.
X24.5 Z-0.55 I2.5 J0.
X19.5 Z-0.575 I-2.5 J0.
X24.5 Z-0.6 I2.5 J0.
X19.5 Z-0.625 I-2.5 J0.
X24.5 Z-0.65 I2.5 J0.
X19.5 Z-0.675 I-2.5 J0.
X24.5 Z-0.7 I2.5 J0.
X19.5 Z-0.725 I-2.5 J0.
X24.5 Z-0.75 I2.5 J0.
X19.5 Z-0.775 I-2.5 J0.
X24.5 Z-0.8 I2.5 J0.
X19.5 Z-0.825 I-2.5 J0.
X24.5 Z-0.85 I2.5 J0.
X19.5 Z-0.875 I-2.5 J0.
X24.5 Z-0.9 I2.5 J0.
X19.5 Z-0.925 I-2.5 J0.
X24.5 Z-0.95 I2.5 J0.
X19.5 Z-0.975 I-2.5 J0.
X24.5 Z-1. I2.5 J0.
X19.5 Z-1.025 I-2.5 J0.
X24.5 Z-1.05 I2.5 J0.
X19.5 Z-1.075 I-2.5 J0.
X24.5 Z-1.1 I2.5 J0.
X19.5 Z-1.125 I-2.5 J0.
X24.5 Z-1.15 I2.5 J0.
X19.5 Z-1.175 I-2.5 J0.
X24.5 Z-1.2 I2.5 J0.
X19.5 Z-1.225 I-2.5 J0.
X24.5 Z-1.25 I2.5 J0.
X19.5 Z-1.275 I-2.5 J0.
X24.5 Z-1.3 I2.5 J0.
X19.5 Z-1.325 I-2.5 J0.
X24.5 Z-1.35 I2.5 J0.
X19.5 Z-1.375 I-2.5 J0.
X24.5 Z-1.4 I2.5 J0.
X19.5 Z-1.425 I-2.5 J0.
X24.5 Z-1.45 I2.5 J0.
X19.5 Z-1.475 I-2.5 J0.
X24.5 Z-1.5 I2.5 J0.
X19.5 I-2.5 J0. F600.
X24.5 I2.5 J0.
G1 Z1. F900.
G0 X19.5 Y14.25
G1 Z0.1 F30.
G3 X24.5 Z0.075 I2.5 J0. F900.
X19.5 Z0.05 I-2.5 J0.
X24.5 Z0.025 I2.5 J0.
X19.5 Z0. I-2.5 J0.
X24.5 Z-0.025 I2.5 J0.
X19.5 Z-0.05 I-2.5 J0.
X24.5 Z-0.075 I2.5 J0.
X19.5 Z-0.1 I-2.5 J0.
X24.5 Z-0.125 I2.5 J0.
X19.5 Z-0.15 I-2.5 J0.
X24.5 Z-0.175 I2.5 J0.
X19.5 Z-0.2 I-2.5 J0.
X24.5 Z-0.225 I2.5 J0.
X19.5 Z-0.25 I-2.5 J0.
X24.5 Z-0.275 I2.5 J0.
X19.5 Z-0.3 I-2.5 J0.
X24.5 Z-0.325 I2.5 J0.
X19.5 Z-0.35 I-2.5 J0.
X24.5 Z-0.375 I2.5 J0.
X19.5 Z-0.4 I-2.5 J0.
X24.5 Z-0.425 I2.5 J0.
X19.5 Z-0.45 I-2.5 J0.
X24.5 Z-0.475 I2.5 J0.
X19.5 Z-0.5 I-2.5 J0.
X24.5 Z-0.525 I2.5 J0.
X19.5 Z-0.55 I-2.5 J0.
X24.5 Z-0.575 I2.5 J0.
X19.5 Z-0.6 I-2.5 J0.
X24.5 Z-0.625 I2.5 J0.
X19.5 Z-0.65 I-2.5 J0.
X24.5 Z-0.675 I2.5 J0.
X19.5 Z-0.7 I-2.5 J0.
X24.5 Z-0.725 I2.5 J0.
X19.5 Z-0.75 I-2.5 J0.
X24.5 Z-0.775 I2.5 J0.
X19.5 Z-0.8 I-2.5 J0.
X24.5 Z-0.825 I2.5 J0.
X19.5 Z-0.85 I-2.5 J0.
X24.5 Z-0.875 I2.5 J0.
X19.5 Z-0.9 I-2.5 J0.
X24.5 Z-0.925 I2.5 J0.
X19.5 Z-0.95 I-2.5 J0.
X24.5 Z-0.975 I2.5 J0.
X19.5 Z-1. I-2.5 J0.
X24.5 Z-1.025 I2.5 J0.
X19.5 Z-1.05 I-2.5 J0.
X24.5 Z-1.075 I2.5 J0.
X19.5 Z-1.1 I-2.5 J0.
X24.5 Z-1.125 I2.5 J0.
X19.5 Z-1.15 I-2.5 J0.
X24.5 Z-1.175 I2.5 J0.
X19.5 Z-1.2 I-2.5 J0.
X24.5 Z-1.225 I2.5 J0.
X19.5 Z-1.25 I-2.5 J0.
X24.5 Z-1.275 I2.5 J0.
X19.5 Z-1.3 I-2.5 J0.
X24.5 Z-1.325 I2.5 J0.
X19.5 Z-1.35 I-2.5 J0.
X24.5 Z-1.375 I2.5 J0.
X19.5 Z-1.4 I-2.5 J0.
X24.5 Z-1.425 I2.5 J0.
X19.5 Z-1.45 I-2.5 J0.
X24.5 Z-1.475 I2.5 J0.
X19.5 Z-1.5 I-2.5 J0.
X24.5 I2.5 J0. F600.
X19.5 I-2.5 J0.
G1 Z1. F900.
G0 X119. Y52.5
G1 Z0.1 F30.
G3 Y57.5 Z0.075 I0. J2.5 F900.
Y52.5 Z0.05 I0. J-2.5
Y57.5 Z0.025 I0. J2.5
Y52.5 Z0. I0. J-2.5
Y57.5 Z-0.025 I0. J2.5
Y52.5 Z-0.05 I0. J-2.5
Y57.5 Z-0.075 I0. J2.5
Y52.5 Z-0.1 I0. J-2.5
Y57.5 Z-0.125 I0. J2.5
Y52.5 Z-0.15 I0. J-2.5
Y57.5 Z-0.175 I0. J2.5
Y52.5 Z-0.2 I0. J-2.5
Y57.5 Z-0.225 I0. J2.5
Y52.5 Z-0.25 I0. J-2.5
Y57.5 Z-0.275 I0. J2.5
Y52.5 Z-0.3 I0. J-2.5
Y57.5 Z-0.325 I0. J2.5
Y52.5 Z-0.35 I0. J-2.5
Y57.5 Z-0.375 I0. J2.5
Y52.5 Z-0.4 I0. J-2.5
Y57.5 Z-0.425 I0. J2.5
Y52.5 Z-0.45 I0. J-2.5
Y57.5 Z-0.475 I0. J2.5
Y52.5 Z-0.5 I0. J-2.5
Y57.5 Z-0.525 I0. J2.5
Y52.5 Z-0.55 I0. J-2.5
Y57.5 Z-0.575 I0. J2.5
Y52.5 Z-0.6 I0. J-2.5
Y57.5 Z-0.625 I0. J2.5
Y52.5 Z-0.65 I0. J-2.5
Y57.5 Z-0.675 I0. J2.5
Y52.5 Z-0.7 I0. J-2.5
Y57.5 Z-0.725 I0. J2.5
Y52.5 Z-0.75 I0. J-2.5
Y57.5 Z-0.775 I0. J2.5
Y52.5 Z-0.8 I0. J-2.5
Y57.5 Z-0.825 I0. J2.5
Y52.5 Z-0.85 I0. J-2.5
Y57.5 Z-0.875 I0. J2.5
Y52.5 Z-0.9 I0. J-2.5
Y57.5 Z-0.925 I0. J2.5
Y52.5 Z-0.95 I0. J-2.5
Y57.5 Z-0.975 I0. J2.5
Y52.5 Z-1. I0. J-2.5
Y57.5 Z-1.025 I0. J2.5
Y52.5 Z-1.05 I0. J-2.5
Y57.5 Z-1.075 I0. J2.5
Y52.5 Z-1.1 I0. J-2.5
Y57.5 Z-1.125 I0. J2.5
Y52.5 Z-1.15 I0. J-2.5
Y57.5 Z-1.175 I0. J2.5
Y52.5 Z-1.2 I0. J-2.5
Y57.5 Z-1.225 I0. J2.5
Y52.5 Z-1.25 I0. J-2.5
Y57.5 Z-1.275 I0. J2.5
Y52.5 Z-1.3 I0. J-2.5
Y57.5 Z-1.325 I0. J2.5
Y52.5 Z-1.35 I0. J-2.5
Y57.5 Z-1.375 I0. J2.5
Y52.5 Z-1.4 I0. J-2.5
Y57.5 Z-1.425 I0. J2.5
Y52.5 Z-1.45 I0. J-2.5
Y57.5 Z-1.475 I0. J2.5
Y52.5 Z-1.5 I0. J-2.5
Y57.5 I0. J2.5 F600.
Y52.5 I0. J-2.5
G1 Z1. F900.
G0 X133.5 Y55.
G1 Z0.1 F30.
G3 X128.5 Z0.075 I-2.5 J0. F900.
X133.5 Z0.05 I2.5 J0.
X128.5 Z0.025 I-2.5 J0.
X133.5 Z0. I2.5 J0.
X128.5 Z-0.025 I-2.5 J0.
X133.5 Z-0.05 I2.5 J0.
X128.5 Z-0.075 I-2.5 J0.
X133.5 Z-0.1 I2.5 J0.
X128.5 Z-0.125 I-2.5 J0.
X133.5 Z-0.15 I2.5 J0.
X128.5 Z-0.175 I-2.5 J0.
X133.5 Z-0.2 I2.5 J0.
X128.5 Z-0.225 I-2.5 J0.
X133.5 Z-0.25 I2.5 J0.
X128.5 Z-0.275 I-2.5 J0.
X133.5 Z-0.3 I2.5 J0.
X128.5 Z-0.325 I-2.5 J0.
X133.5 Z-0.35 I2.5 J0.
X128.5 Z-0.375 I-2.5 J0.
X133.5 Z-0.4 I2.5 J0.
X128.5 Z-0.425 I-2.5 J0.
X133.5 Z-0.45 I2.5 J0.
X128.5 Z-0.475 I-2.5 J0.
X133.5 Z-0.5 I2.5 J0.
X128.5 Z-0.525 I-2.5 J0.
X133.5 Z-0.55 I2.5 J0.
X128.5 Z-0.575 I-2.5 J0.
X133.5 Z-0.6 I2.5 J0.
X128.5 Z-0.625 I-2.5 J0.
X133.5 Z-0.65 I2.5 J0.
X128.5 Z-0.675 I-2.5 J0.
X133.5 Z-0.7 I2.5 J0.
X128.5 Z-0.725 I-2.5 J0.
X133.5 Z-0.75 I2.5 J0.
X128.5 Z-0.775 I-2.5 J0.
X133.5 Z-0.8 I2.5 J0.
X128.5 Z-0.825 I-2.5 J0.
X133.5 Z-0.85 I2.5 J0.
X128.5 Z-0.875 I-2.5 J0.
X133.5 Z-0.9 I2.5 J0.
X128.5 Z-0.925 I-2.5 J0.
X133.5 Z-0.95 I2.5 J0.
X128.5 Z-0.975 I-2.5 J0.
X133.5 Z-1. I2.5 J0.
X128.5 Z-1.025 I-2.5 J0.
X133.5 Z-1.05 I2.5 J0.
X128.5 Z-1.075 I-2.5 J0.
X133.5 Z-1.1 I2.5 J0.
X128.5 Z-1.125 I-2.5 J0.
X133.5 Z-1.15 I2.5 J0.
X128.5 Z-1.175 I-2.5 J0.
X133.5 Z-1.2 I2.5 J0.
X128.5 Z-1.225 I-2.5 J0.
X133.5 Z-1.25 I2.5 J0.
X128.5 Z-1.275 I-2.5 J0.
X133.5 Z-1.3 I2.5 J0.
X128.5 Z-1.325 I-2.5 J0.
X133.5 Z-1.35 I2.5 J0.
X128.5 Z-1.375 I-2.5 J0.
X133.5 Z-1.4 I2.5 J0.
X128.5 Z-1.425 I-2.5 J0.
X133.5 Z-1.45 I2.5 J0.
X128.5 Z-1.475 I-2.5 J0.
X133.5 Z-1.5 I2.5 J0.
X128.5 I-2.5 J0. F600.
X133.5 I2.5 J0.
G1 Z1. F900.
G0 X131. Y82.5
G1 Z0.1 F30.
G3 Y77.5 Z0.075 I0. J-2.5 F900.
Y82.5 Z0.05 I0. J2.5
Y77.5 Z0.025 I0. J-2.5
Y82.5 Z0. I0. J2.5
Y77.5 Z-0.025 I0. J-2.5
Y82.5 Z-0.05 I0. J2.5
Y77.5 Z-0.075 I0. J-2.5
Y82.5 Z-0.1 I0. J2.5
Y77.5 Z-0.125 I0. J-2.5
Y82.5 Z-0.15 I0. J2.5
Y77.5 Z-0.175 I0. J-2.5
Y82.5 Z-0.2 I0. J2.5
Y77.5 Z-0.225 I0. J-2.5
Y82.5 Z-0.25 I0. J2.5
Y77.5 Z-0.275 I0. J-2.5
Y82.5 Z-0.3 I0. J2.5
Y77.5 Z-0.325 I0. J-2.5
Y82.5 Z-0.35 I0. J2.5
Y77.5 Z-0.375 I0. J-2.5
Y82.5 Z-0.4 I0. J2.5
Y77.5 Z-0.425 I0. J-2.5
Y82.5 Z-0.45 I0. J2.5
Y77.5 Z-0.475 I0. J-2.5
Y82.5 Z-0.5 I0. J2.5
Y77.5 Z-0.525 I0. J-2.5
Y82.5 Z-0.55 I0. J2.5
Y77.5 Z-0.575 I0. J-2.5
Y82.5 Z-0.6 I0. J2.5
Y77.5 Z-0.625 I0. J-2.5
Y82.5 Z-0.65 I0. J2.5
Y77.5 Z-0.675 I0. J-2.5
Y82.5 Z-0.7 I0. J2.5
Y77.5 Z-0.725 I0. J-2.5
Y82.5 Z-0.75 I0. J2.5
Y77.5 Z-0.775 I0. J-2.5
Y82.5 Z-0.8 I0. J2.5
Y77.5 Z-0.825 I0. J-2.5
Y82.5 Z-0.85 I0. J2.5
Y77.5 Z-0.875 I0. J-2.5
Y82.5 Z-0.9 I0. J2.5
Y77.5 Z-0.925 I0. J-2.5
Y82.5 Z-0.95 I0. J2.5
Y77.5 Z-0.975 I0. J-2.5
Y82.5 Z-1. I0. J2.5
Y77.5 Z-1.025 I0. J-2.5
Y82.5 Z-1.05 I0. J2.5
Y77.5 Z-1.075 I0. J-2.5
Y82.5 Z-1.1 I0. J2.5
Y77.5 Z-1.125 I0. J-2.5
Y82.5 Z-1.15 I0. J2.5
Y77.5 Z-1.175 I0. J-2.5
Y82.5 Z-1.2 I0. J2.5
Y77.5 Z-1.225 I0. J-2.5
Y82.5 Z-1.25 I0. J2.5
Y77.5 Z-1.275 I0. J-2.5
Y82.5 Z-1.3 I0. J2.5
Y77.5 Z-1.325 I0. J-2.5
Y82.5 Z-1.35 I0. J2.5
Y77.5 Z-1.375 I0. J-2.5
Y82.5 Z-1.4 I0. J2.5
Y77.5 Z-1.425 I0. J-2.5
Y82.5 Z-1.45 I0. J2.5
Y77.5 Z-1.475 I0. J-2.5
Y82.5 Z-1.5 I0. J2.5
Y77.5 I0. J-2.5 F600.
Y82.5 I0. J2.5
G1 Z1. F900.
G0 X119. Y77.5
G1 Z0.1 F30.
G3 Y82.5 Z0.075 I0. J2.5 F900.
Y77.5 Z0.05 I0. J-2.5
Y82.5 Z0.025 I0. J2.5
Y77.5 Z0. I0. J-2.5
Y82.5 Z-0.025 I0. J2.5
Y77.5 Z-0.05 I0. J-2.5
Y82.5 Z-0.075 I0. J2.5
Y77.5 Z-0.1 I0. J-2.5
Y82.5 Z-0.125 I0. J2.5
Y77.5 Z-0.15 I0. J-2.5
Y82.5 Z-0.175 I0. J2.5
Y77.5 Z-0.2 I0. J-2.5
Y82.5 Z-0.225 I0. J2.5
Y77.5 Z-0.25 I0. J-2.5
Y82.5 Z-0.275 I0. J2.5
Y77.5 Z-0.3 I0. J-2.5
Y82.5 Z-0.325 I0. J2.5
Y77.5 Z-0.35 I0. J-2.5
Y82.5 Z-0.375 I0. J2.5
Y77.5 Z-0.4 I0. J-2.5
Y82.5 Z-0.425 I0. J2.5
Y77.5 Z-0.45 I0. J-2.5
Y82.5 Z-0.475 I0. J2.5
Y77.5 Z-0.5 I0. J-2.5
Y82.5 Z-0.525 I0. J2.5
Y77.5 Z-0.55 I0. J-2.5
Y82.5 Z-0.575 I0. J2.5
Y77.5 Z-0.6 I0. J-2.5
Y82.5 Z-0.625 I0. J2.5
Y77.5 Z-0.65 I0. J-2.5
Y82.5 Z-0.675 I0. J2.5
Y77.5 Z-0.7 I0. J-2.5
Y82.5 Z-0.725 I0. J2.5
Y77.5 Z-0.75 I0. J-2.5
Y82.5 Z-0.775 I0. J2.5
Y77.5 Z-0.8 I0. J-2.5
Y82.5 Z-0.825 I0. J2.5
Y77.5 Z-0.85 I0. J-2.5
Y82.5 Z-0.875 I0. J2.5
Y77.5 Z-0.9 I0. J-2.5
Y82.5 Z-0.925 I0. J2.5
Y77.5 Z-0.95 I0. J-2.5
Y82.5 Z-0.975 I0. J2.5
Y77.5 Z-1. I0. J-2.5
Y82.5 Z-1.025 I0. J2.5
Y77.5 Z-1.05 I0. J-2.5
Y82.5 Z-1.075 I0. J2.5
Y77.5 Z-1.1 I0. J-2.5
Y82.5 Z-1.125 I0. J2.5
Y77.5 Z-1.15 I0. J-2.5
Y82.5 Z-1.175 I0. J2.5
Y77.5 Z-1.2 I0. J-2.5
Y82.5 Z-1.225 I0. J2.5
Y77.5 Z-1.25 I0. J-2.5
Y82.5 Z-1.275 I0. J2.5
Y77.5 Z-1.3 I0. J-2.5
Y82.5 Z-1.325 I0. J2.5
Y77.5 Z-1.35 I0. J-2.5
Y82.5 Z-1.375 I0. J2.5
Y77.5 Z-1.4 I0. J-2.5
Y82.5 Z-1.425 I0. J2.5
Y77.5 Z-1.45 I0. J-2.5
Y82.5 Z-1.475 I0. J2.5
Y77.5 Z-1.5 I0. J-2.5
Y82.5 I0. J2.5 F600.
Y77.5 I0. J-2.5
G1 Z1. F900.
G0 X225.5 Y120.75
G1 Z0.1 F30.
G3 X230.5 Z0.075 I2.5 J0. F900.
X225.5 Z0.05 I-2.5 J0.
X230.5 Z0.025 I2.5 J0.
X225.5 Z0. I-2.5 J0.
X230.5 Z-0.025 I2.5 J0.
X225.5 Z-0.05 I-2.5 J0.
X230.5 Z-0.075 I2.5 J0.
X225.5 Z-0.1 I-2.5 J0.
X230.5 Z-0.125 I2.5 J0.
X225.5 Z-0.15 I-2.5 J0.
X230.5 Z-0.175 I2.5 J0.
X225.5 Z-0.2 I-2.5 J0.
X230.5 Z-0.225 I2.5 J0.
X225.5 Z-0.25 I-2.5 J0.
X230.5 Z-0.275 I2.5 J0.
X225.5 Z-0.3 I-2.5 J0.
X230.5 Z-0.325 I2.5 J0.
X225.5 Z-0.35 I-2.5 J0.
X230.5 Z-0.375 I2.5 J0.
X225.5 Z-0.4 I-2.5 J0.
X230.5 Z-0.425 I2.5 J0.
X225.5 Z-0.45 I-2.5 J0.
X230.5 Z-0.475 I2.5 J0.
X225.5 Z-0.5 I-2.5 J0.
X230.5 Z-0.525 I2.5 J0.
X225.5 Z-0.55 I-2.5 J0.
X230.5 Z-0.575 I2.5 J0.
X225.5 Z-0.6 I-2.5 J0.
X230.5 Z-0.625 I2.5 J0.
X225.5 Z-0.65 I-2.5 J0.
X230.5 Z-0.675 I2.5 J0.
X225.5 Z-0.7 I-2.5 J0.
X230.5 Z-0.725 I2.5 J0.
X225.5 Z-0.75 I-2.5 J0.
X230.5 Z-0.775 I2.5 J0.
X225.5 Z-0.8 I-2.5 J0.
X230.5 Z-0.825 I2.5 J0.
X225.5 Z-0.85 I-2.5 J0.
X230.5 Z-0.875 I2.5 J0.
X225.5 Z-0.9 I-2.5 J0.
X230.5 Z-0.925 I2.5 J0.
X225.5 Z-0.95 I-2.5 J0.
X230.5 Z-0.975 I2.5 J0.
X225.5 Z-1. I-2.5 J0.
X230.5 Z-1.025 I2.5 J0.
X225.5 Z-1.05 I-2.5 J0.
X230.5 Z-1.075 I2.5 J0.
X225.5 Z-1.1 I-2.5 J0.
X230.5 Z-1.125 I2.5 J0.
X225.5 Z-1.15 I-2.5 J0.
X230.5 Z-1.175 I2.5 J0.
X225.5 Z-1.2 I-2.5 J0.
X230.5 Z-1.225 I2.5 J0.
X225.5 Z-1.25 I-2.5 J0.
X230.5 Z-1.275 I2.5 J0.
X225.5 Z-1.3 I-2.5 J0.
X230.5 Z-1.325 I2.5 J0.
X225.5 Z-1.35 I-2.5 J0.
X230.5 Z-1.375 I2.5 J0.
X225.5 Z-1.4 I-2.5 J0.
X230.5 Z-1.425 I2.5 J0.
X225.5 Z-1.45 I-2.5 J0.
X230.5 Z-1.475 I2.5 J0.
X225.5 Z-1.5 I-2.5 J0.
X230.5 I2.5 J0. F600.
X225.5 I-2.5 J0.
G1 Z1. F900.
G0 X230.5 Y101.25
G1 Z0.1 F30.
G3 X225.5 Z0.075 I-2.5 J0. F900.
X230.5 Z0.05 I2.5 J0.
X225.5 Z0.025 I-2.5 J0.
X230.5 Z0. I2.5 J0.
X225.5 Z-0.025 I-2.5 J0.
X230.5 Z-0.05 I2.5 J0.
X225.5 Z-0.075 I-2.5 J0.
X230.5 Z-0.1 I2.5 J0.
X225.5 Z-0.125 I-2.5 J0.
X230.5 Z-0.15 I2.5 J0.
X225.5 Z-0.175 I-2.5 J0.
X230.5 Z-0.2 I2.5 J0.
X225.5 Z-0.225 I-2.5 J0.
X230.5 Z-0.25 I2.5 J0.
X225.5 Z-0.275 I-2.5 J0.
X230.5 Z-0.3 I2.5 J0.
X225.5 Z-0.325 I-2.5 J0.
X230.5 Z-0.35 I2.5 J0.
X225.5 Z-0.375 I-2.5 J0.
X230.5 Z-0.4 I2.5 J0.
X225.5 Z-0.425 I-2.5 J0.
X230.5 Z-0.45 I2.5 J0.
X225.5 Z-0.475 I-2.5 J0.
X230.5 Z-0.5 I2.5 J0.
X225.5 Z-0.525 I-2.5 J0.
X230.5 Z-0.55 I2.5 J0.
X225.5 Z-0.575 I-2.5 J0.
X230.5 Z-0.6 I2.5 J0.
X225.5 Z-0.625 I-2.5 J0.
X230.5 Z-0.65 I2.5 J0.
X225.5 Z-0.675 I-2.5 J0.
X230.5 Z-0.7 I2.5 J0.
X225.5 Z-0.725 I-2.5 J0.
X230.5 Z-0.75 I2.5 J0.
X225.5 Z-0.775 I-2.5 J0.
X230.5 Z-0.8 I2.5 J0.
X225.5 Z-0.825 I-2.5 J0.
X230.5 Z-0.85 I2.5 J0.
X225.5 Z-0.875 I-2.5 J0.
X230.5 Z-0.9 I2.5 J0.
X225.5 Z-0.925 I-2.5 J0.
X230.5 Z-0.95 I2.5 J0.
X225.5 Z-0.975 I-2.5 J0.
X230.5 Z-1. I2.5 J0.
X225.5 Z-1.025 I-2.5 J0.
X230.5 Z-1.05 I2.5 J0.
X225.5 Z-1.075 I-2.5 J0.
X230.5 Z-1.1 I2.5 J0.
X225.5 Z-1.125 I-2.5 J0.
X230.5 Z-1.15 I2.5 J0.
X225.5 Z-1.175 I-2.5 J0.
X230.5 Z-1.2 I2.5 J0.
X225.5 Z-1.225 I-2.5 J0.
X230.5 Z-1.25 I2.5 J0.
X225.5 Z-1.275 I-2.5 J0.
X230.5 Z-1.3 I2.5 J0.
X225.5 Z-1.325 I-2.5 J0.
X230.5 Z-1.35 I2.5 J0.
X225.5 Z-1.375 I-2.5 J0.
X230.5 Z-1.4 I2.5 J0.
X225.5 Z-1.425 I-2.5 J0.
X230.5 Z-1.45 I2.5 J0.
X225.5 Z-1.475 I-2.5 J0.
X230.5 Z-1.5 I2.5 J0.
X225.5 I-2.5 J0. F600.
X230.5 I2.5 J0.
G1 Z1. F900.
G0 X191. Y90.5
G1 Z0.1 F30.
G3 X196. Z0.075 I2.5 J0. F900.
X191. Z0.05 I-2.5 J0.
X196. Z0.025 I2.5 J0.
X191. Z0. I-2.5 J0.
X196. Z-0.025 I2.5 J0.
X191. Z-0.05 I-2.5 J0.
X196. Z-0.075 I2.5 J0.
X191. Z-0.1 I-2.5 J0.
X196. Z-0.125 I2.5 J0.
X191. Z-0.15 I-2.5 J0.
X196. Z-0.175 I2.5 J0.
X191. Z-0.2 I-2.5 J0.
X196. Z-0.225 I2.5 J0.
X191. Z-0.25 I-2.5 J0.
X196. Z-0.275 I2.5 J0.
X191. Z-0.3 I-2.5 J0.
X196. Z-0.325 I2.5 J0.
X191. Z-0.35 I-2.5 J0.
X196. Z-0.375 I2.5 J0.
X191. Z-0.4 I-2.5 J0.
X196. Z-0.425 I2.5 J0.
X191. Z-0.45 I-2.5 J0.
X196. Z-0.475 I2.5 J0.
X191. Z-0.5 I-2.5 J0.
X196. Z-0.525 I2.5 J0.
X191. Z-0.55 I-2.5 J0.
X196. Z-0.575 I2.5 J0.
X191. Z-0.6 I-2.5 J0.
X196. Z-0.625 I2.5 J0.
X191. Z-0.65 I-2.5 J0.
X196. Z-0.675 I2.5 J0.
X191. Z-0.7 I-2.5 J0.
X196. Z-0.725 I2.5 J0.
X191. Z-0.75 I-2.5 J0.
X196. Z-0.775 I2.5 J0.
X191. Z-0.8 I-2.5 J0.
X196. Z-0.825 I2.5 J0.
X191. Z-0.85 I-2.5 J0.
X196. Z-0.875 I2.5 J0.
X191. Z-0.9 I-2.5 J0.
X196. Z-0.925 I2.5 J0.
X191. Z-0.95 I-2.5 J0.
X196. Z-0.975 I2.5 J0.
X191. Z-1. I-2.5 J0.
X196. Z-1.025 I2.5 J0.
X191. Z-1.05 I-2.5 J0.
X196. Z-1.075 I2.5 J0.
X191. Z-1.1 I-2.5 J0.
X196. Z-1.125 I2.5 J0.
X191. Z-1.15 I-2.5 J0.
X196. Z-1.175 I2.5 J0.
X191. Z-1.2 I-2.5 J0.
X196. Z-1.225 I2.5 J0.
X191. Z-1.25 I-2.5 J0.
X196. Z-1.275 I2.5 J0.
X191. Z-1.3 I-2.5 J0.
X196. Z-1.325 I2.5 J0.
X191. Z-1.35 I-2.5 J0.
X196. Z-1.375 I2.5 J0.
X191. Z-1.4 I-2.5 J0.
X196. Z-1.425 I2.5 J0.
X191. Z-1.45 I-2.5 J0.
X196. Z-1.475 I2.5 J0.
X191. Z-1.5 I-2.5 J0.
X196. I2.5 J0. F600.
X191. I-2.5 J0.
G1 Z1. F900.
G0 X201.7 Y80.
G1 Z0.1 F30.
G3 X196.7 Z0.075 I-2.5 J0. F900.
X201.7 Z0.05 I2.5 J0.
X196.7 Z0.025 I-2.5 J0.
X201.7 Z0. I2.5 J0.
X196.7 Z-0.025 I-2.5 J0.
X201.7 Z-0.05 I2.5 J0.
X196.7 Z-0.075 I-2.5 J0.
X201.7 Z-0.1 I2.5 J0.
X196.7 Z-0.125 I-2.5 J0.
X201.7 Z-0.15 I2.5 J0.
X196.7 Z-0.175 I-2.5 J0.
X201.7 Z-0.2 I2.5 J0.
X196.7 Z-0.225 I-2.5 J0.
X201.7 Z-0.25 I2.5 J0.
X196.7 Z-0.275 I-2.5 J0.
X201.7 Z-0.3 I2.5 J0.
X196.7 Z-0.325 I-2.5 J0.
X201.7 Z-0.35 I2.5 J0.
X196.7 Z-0.375 I-2.5 J0.
X201.7 Z-0.4 I2.5 J0.
X196.7 Z-0.425 I-2.5 J0.
X201.7 Z-0.45 I2.5 J0.
X196.7 Z-0.475 I-2.5 J0.
X201.7 Z-0.5 I2.5 J0.
X196.7 Z-0.525 I-2.5 J0.
X201.7 Z-0.55 I2.5 J0.
X196.7 Z-0.575 I-2.5 J0.
X201.7 Z-0.6 I2.5 J0.
X196.7 Z-0.625 I-2.5 J0.
X201.7 Z-0.65 I2.5 J0.
X196.7 Z-0.675 I-2.5 J0.
X201.7 Z-0.7 I2.5 J0.
X196.7 Z-0.725 I-2.5 J0.
X201.7 Z-0.75 I2.5 J0.
X196.7 Z-0.775 I-2.5 J0.
X201.7 Z-0.8 I2.5 J0.
X196.7 Z-0.825 I-2.5 J0.
X201.7 Z-0.85 I2.5 J0.
X196.7 Z-0.875 I-2.5 J0.
X201.7 Z-0.9 I2.5 J0.
X196.7 Z-0.925 I-2.5 J0.
X201.7 Z-0.95 I2.5 J0.
X196.7 Z-0.975 I-2.5 J0.
X201.7 Z-1. I2.5 J0.
X196.7 Z-1.025 I-2.5 J0.
X201.7 Z-1.05 I2.5 J0.
X196.7 Z-1.075 I-2.5 J0.
X201.7 Z-1.1 I2.5 J0.
X196.7 Z-1.125 I-2.5 J0.
X201.7 Z-1.15 I2.5 J0.
X196.7 Z-1.175 I-2.5 J0.
X201.7 Z-1.2 I2.5 J0.
X196.7 Z-1.225 I-2.5 J0.
X201.7 Z-1.25 I2.5 J0.
X196.7 Z-1.275 I-2.5 J0.
X201.7 Z-1.3 I2.5 J0.
X196.7 Z-1.325 I-2.5 J0.
X201.7 Z-1.35 I2.5 J0.
X196.7 Z-1.375 I-2.5 J0.
X201.7 Z-1.4 I2.5 J0.
X196.7 Z-1.425 I-2.5 J0.
X201.7 Z-1.45 I2.5 J0.
X196.7 Z-1.475 I-2.5 J0.
X201.7 Z-1.5 I2.5 J0.
X196.7 I-2.5 J0. F600.
X201.7 I2.5 J0.
G1 Z1. F900.
G0 X196.7 Y55.
G1 Z0.1 F30.
G3 X201.7 Z0.075 I2.5 J0. F900.
X196.7 Z0.05 I-2.5 J0.
X201.7 Z0.025 I2.5 J0.
X196.7 Z0. I-2.5 J0.
X201.7 Z-0.025 I2.5 J0.
X196.7 Z-0.05 I-2.5 J0.
X201.7 Z-0.075 I2.5 J0.
X196.7 Z-0.1 I-2.5 J0.
X201.7 Z-0.125 I2.5 J0.
X196.7 Z-0.15 I-2.5 J0.
X201.7 Z-0.175 I2.5 J0.
X196.7 Z-0.2 I-2.5 J0.
X201.7 Z-0.225 I2.5 J0.
X196.7 Z-0.25 I-2.5 J0.
X201.7 Z-0.275 I2.5 J0.
X196.7 Z-0.3 I-2.5 J0.
X201.7 Z-0.325 I2.5 J0.
X196.7 Z-0.35 I-2.5 J0.
X201.7 Z-0.375 I2.5 J0.
X196.7 Z-0.4 I-2.5 J0.
X201.7 Z-0.425 I2.5 J0.
X196.7 Z-0.45 I-2.5 J0.
X201.7 Z-0.475 I2.5 J0.
X196.7 Z-0.5 I-2.5 J0.
X201.7 Z-0.525 I2.5 J0.
X196.7 Z-0.55 I-2.5 J0.
X201.7 Z-0.575 I2.5 J0.
X196.7 Z-0.6 I-2.5 J0.
X201.7 Z-0.625 I2.5 J0.
X196.7 Z-0.65 I-2.5 J0.
X201.7 Z-0.675 I2.5 J0.
X196.7 Z-0.7 I-2.5 J0.
X201.7 Z-0.725 I2.5 J0.
X196.7 Z-0.75 I-2.5 J0.
X201.7 Z-0.775 I2.5 J0.
X196.7 Z-0.8 I-2.5 J0.
X201.7 Z-0.825 I2.5 J0.
X196.7 Z-0.85 I-2.5 J0.
X201.7 Z-0.875 I2.5 J0.
X196.7 Z-0.9 I-2.5 J0.
X201.7 Z-0.925 I2.5 J0.
X196.7 Z-0.95 I-2.5 J0.
X201.7 Z-0.975 I2.5 J0.
X196.7 Z-1. I-2.5 J0.
X201.7 Z-1.025 I2.5 J0.
X196.7 Z-1.05 I-2.5 J0.
X201.7 Z-1.075 I2.5 J0.
X196.7 Z-1.1 I-2.5 J0.
X201.7 Z-1.125 I2.5 J0.
X196.7 Z-1.15 I-2.5 J0.
X201.7 Z-1.175 I2.5 J0.
X196.7 Z-1.2 I-2.5 J0.
X201.7 Z-1.225 I2.5 J0.
X196.7 Z-1.25 I-2.5 J0.
X201.7 Z-1.275 I2.5 J0.
X196.7 Z-1.3 I-2.5 J0.
X201.7 Z-1.325 I2.5 J0.
X196.7 Z-1.35 I-2.5 J0.
X201.7 Z-1.375 I2.5 J0.
X196.7 Z-1.4 I-2.5 J0.
X201.7 Z-1.425 I2.5 J0.
X196.7 Z-1.45 I-2.5 J0.
X201.7 Z-1.475 I2.5 J0.
X196.7 Z-1.5 I-2.5 J0.
X201.7 I2.5 J0. F600.
X196.7 I-2.5 J0.
G1 Z1. F900.
G0 X191. Y44.5
G1 Z0.1 F30.
G3 X196. Z0.075 I2.5 J0. F900.
X191. Z0.05 I-2.5 J0.
X196. Z0.025 I2.5 J0.
X191. Z0. I-2.5 J0.
X196. Z-0.025 I2.5 J0.
X191. Z-0.05 I-2.5 J0.
X196. Z-0.075 I2.5 J0.
X191. Z-0.1 I-2.5 J0.
X196. Z-0.125 I2.5 J0.
X191. Z-0.15 I-2.5 J0.
X196. Z-0.175 I2.5 J0.
X191. Z-0.2 I-2.5 J0.
X196. Z-0.225 I2.5 J0.
X191. Z-0.25 I-2.5 J0.
X196. Z-0.275 I2.5 J0.
X191. Z-0.3 I-2.5 J0.
X196. Z-0.325 I2.5 J0.
X191. Z-0.35 I-2.5 J0.
X196. Z-0.375 I2.5 J0.
X191. Z-0.4 I-2.5 J0.
X196. Z-0.425 I2.5 J0.
X191. Z-0.45 I-2.5 J0.
X196. Z-0.475 I2.5 J0.
X191. Z-0.5 I-2.5 J0.
X196. Z-0.525 I2.5 J0.
X191. Z-0.55 I-2.5 J0.
X196. Z-0.575 I2.5 J0.
X191. Z-0.6 I-2.5 J0.
X196. Z-0.625 I2.5 J0.
X191. Z-0.65 I-2.5 J0.
X196. Z-0.675 I2.5 J0.
X191. Z-0.7 I-2.5 J0.
X196. Z-0.725 I2.5 J0.
X191. Z-0.75 I-2.5 J0.
X196. Z-0.775 I2.5 J0.
X191. Z-0.8 I-2.5 J0.
X196. Z-0.825 I2.5 J0.
X191. Z-0.85 I-2.5 J0.
X196. Z-0.875 I2.5 J0.
X191. Z-0.9 I-2.5 J0.
X196. Z-0.925 I2.5 J0.
X191. Z-0.95 I-2.5 J0.
X196. Z-0.975 I2.5 J0.
X191. Z-1. I-2.5 J0.
X196. Z-1.025 I2.5 J0.
X191. Z-1.05 I-2.5 J0.
X196. Z-1.075 I2.5 J0.
X191. Z-1.1 I-2.5 J0.
X196. Z-1.125 I2.5 J0.
X191. Z-1.15 I-2.5 J0.
X196. Z-1.175 I2.5 J0.
X191. Z-1.2 I-2.5 J0.
X196. Z-1.225 I2.5 J0.
X191. Z-1.25 I-2.5 J0.
X196. Z-1.275 I2.5 J0.
X191. Z-1.3 I-2.5 J0.
X196. Z-1.325 I2.5 J0.
X191. Z-1.35 I-2.5 J0.
X196. Z-1.375 I2.5 J0.
X191. Z-1.4 I-2.5 J0.
X196. Z-1.425 I2.5 J0.
X191. Z-1.45 I-2.5 J0.
X196. Z-1.475 I2.5 J0.
X191. Z-1.5 I-2.5 J0.
X196. I2.5 J0. F600.
X191. I-2.5 J0.
G1 Z1. F900.
G0 X225.5 Y33.75
G1 Z0.1 F30.
G3 X230.5 Z0.075 I2.5 J0. F900.
X225.5 Z0.05 I-2.5 J0.
X230.5 Z0.025 I2.5 J0.
X225.5 Z0. I-2.5 J0.
X230.5 Z-0.025 I2.5 J0.
X225.5 Z-0.05 I-2.5 J0.
X230.5 Z-0.075 I2.5 J0.
X225.5 Z-0.1 I-2.5 J0.
X230.5 Z-0.125 I2.5 J0.
X225.5 Z-0.15 I-2.5 J0.
X230.5 Z-0.175 I2.5 J0.
X225.5 Z-0.2 I-2.5 J0.
X230.5 Z-0.225 I2.5 J0.
X225.5 Z-0.25 I-2.5 J0.
X230.5 Z-0.275 I2.5 J0.
X225.5 Z-0.3 I-2.5 J0.
X230.5 Z-0.325 I2.5 J0.
X225.5 Z-0.35 I-2.5 J0.
X230.5 Z-0.375 I2.5 J0.
X225.5 Z-0.4 I-2.5 J0.
X230.5 Z-0.425 I2.5 J0.
X225.5 Z-0.45 I-2.5 J0.
X230.5 Z-0.475 I2.5 J0.
X225.5 Z-0.5 I-2.5 J0.
X230.5 Z-0.525 I2.5 J0.
X225.5 Z-0.55 I-2.5 J0.
X230.5 Z-0.575 I2.5 J0.
X225.5 Z-0.6 I-2.5 J0.
X230.5 Z-0.625 I2.5 J0.
X225.5 Z-0.65 I-2.5 J0.
X230.5 Z-0.675 I2.5 J0.
X225.5 Z-0.7 I-2.5 J0.
X230.5 Z-0.725 I2.5 J0.
X225.5 Z-0.75 I-2.5 J0.
X230.5 Z-0.775 I2.5 J0.
X225.5 Z-0.8 I-2.5 J0.
X230.5 Z-0.825 I2.5 J0.
X225.5 Z-0.85 I-2.5 J0.
X230.5 Z-0.875 I2.5 J0.
X225.5 Z-0.9 I-2.5 J0.
X230.5 Z-0.925 I2.5 J0.
X225.5 Z-0.95 I-2.5 J0.
X230.5 Z-0.975 I2.5 J0.
X225.5 Z-1. I-2.5 J0.
X230.5 Z-1.025 I2.5 J0.
X225.5 Z-1.05 I-2.5 J0.
X230.5 Z-1.075 I2.5 J0.
X225.5 Z-1.1 I-2.5 J0.
X230.5 Z-1.125 I2.5 J0.
X225.5 Z-1.15 I-2.5 J0.
X230.5 Z-1.175 I2.5 J0.
X225.5 Z-1.2 I-2.5 J0.
X230.5 Z-1.225 I2.5 J0.
X225.5 Z-1.25 I-2.5 J0.
X230.5 Z-1.275 I2.5 J0.
X225.5 Z-1.3 I-2.5 J0.
X230.5 Z-1.325 I2.5 J0.
X225.5 Z-1.35 I-2.5 J0.
X230.5 Z-1.375 I2.5 J0.
X225.5 Z-1.4 I-2.5 J0.
X230.5 Z-1.425 I2.5 J0.
X225.5 Z-1.45 I-2.5 J0.
X230.5 Z-1.475 I2.5 J0.
X225.5 Z-1.5 I-2.5 J0.
X230.5 I2.5 J0. F600.
X225.5 I-2.5 J0.
G1 Z1. F900.
G0 X230.5 Y14.25
G1 Z0.1 F30.
G3 X225.5 Z0.075 I-2.5 J0. F900.
X230.5 Z0.05 I2.5 J0.
X225.5 Z0.025 I-2.5 J0.
X230.5 Z0. I2.5 J0.
X225.5 Z-0.025 I-2.5 J0.
X230.5 Z-0.05 I2.5 J0.
X225.5 Z-0.075 I-2.5 J0.
X230.5 Z-0.1 I2.5 J0.
X225.5 Z-0.125 I-2.5 J0.
X230.5 Z-0.15 I2.5 J0.
X225.5 Z-0.175 I-2.5 J0.
X230.5 Z-0.2 I2.5 J0.
X225.5 Z-0.225 I-2.5 J0.
X230.5 Z-0.25 I2.5 J0.
X225.5 Z-0.275 I-2.5 J0.
X230.5 Z-0.3 I2.5 J0.
X225.5 Z-0.325 I-2.5 J0.
X230.5 Z-0.35 I2.5 J0.
X225.5 Z-0.375 I-2.5 J0.
X230.5 Z-0.4 I2.5 J0.
X225.5 Z-0.425 I-2.5 J0.
X230.5 Z-0.45 I2.5 J0.
X225.5 Z-0.475 I-2.5 J0.
X230.5 Z-0.5 I2.5 J0.
X225.5 Z-0.525 I-2.5 J0.
X230.5 Z-0.55 I2.5 J0.
X225.5 Z-0.575 I-2.5 J0.
X230.5 Z-0.6 I2.5 J0.
X225.5 Z-0.625 I-2.5 J0.
X230.5 Z-0.65 I2.5 J0.
X225.5 Z-0.675 I-2.5 J0.
X230.5 Z-0.7 I2.5 J0.
X225.5 Z-0.725 I-2.5 J0.
X230.5 Z-0.75 I2.5 J0.
X225.5 Z-0.775 I-2.5 J0.
X230.5 Z-0.8 I2.5 J0.
X225.5 Z-0.825 I-2.5 J0.
X230.5 Z-0.85 I2.5 J0.
X225.5 Z-0.875 I-2.5 J0.
X230.5 Z-0.9 I2.5 J0.
X225.5 Z-0.925 I-2.5 J0.
X230.5 Z-0.95 I2.5 J0.
X225.5 Z-0.975 I-2.5 J0.
X230.5 Z-1. I2.5 J0.
X225.5 Z-1.025 I-2.5 J0.
X230.5 Z-1.05 I2.5 J0.
X225.5 Z-1.075 I-2.5 J0.
X230.5 Z-1.1 I2.5 J0.
X225.5 Z-1.125 I-2.5 J0.
X230.5 Z-1.15 I2.5 J0.
X225.5 Z-1.175 I-2.5 J0.
X230.5 Z-1.2 I2.5 J0.
X225.5 Z-1.225 I-2.5 J0.
X230.5 Z-1.25 I2.5 J0.
X225.5 Z-1.275 I-2.5 J0.
X230.5 Z-1.3 I2.5 J0.
X225.5 Z-1.325 I-2.5 J0.
X230.5 Z-1.35 I2.5 J0.
X225.5 Z-1.375 I-2.5 J0.
X230.5 Z-1.4 I2.5 J0.
X225.5 Z-1.425 I-2.5 J0.
X230.5 Z-1.45 I2.5 J0.
X225.5 Z-1.475 I-2.5 J0.
X230.5 Z-1.5 I2.5 J0.
X225.5 I-2.5 J0. F600.
X230.5 I2.5 J0.
G1 Z1. F900.
G0 X35. Y118.25
G1 Z0.1 F30.
G3 Y123.25 Z0.075 I0. J2.5 F900.
Y118.25 Z0.05 I0. J-2.5
Y123.25 Z0.025 I0. J2.5
Y118.25 Z0. I0. J-2.5
Y123.25 Z-0.025 I0. J2.5
Y118.25 Z-0.05 I0. J-2.5
Y123.25 Z-0.075 I0. J2.5
Y118.25 Z-0.1 I0. J-2.5
Y123.25 Z-0.125 I0. J2.5
Y118.25 Z-0.15 I0. J-2.5
Y123.25 Z-0.175 I0. J2.5
Y118.25 Z-0.2 I0. J-2.5
Y123.25 Z-0.225 I0. J2.5
Y118.25 Z-0.25 I0. J-2.5
Y123.25 Z-0.275 I0. J2.5
Y118.25 Z-0.3 I0. J-2.5
Y123.25 Z-0.325 I0. J2.5
Y118.25 Z-0.35 I0. J-2.5
Y123.25 Z-0.375 I0. J2.5
Y118.25 Z-0.4 I0. J-2.5
Y123.25 Z-0.425 I0. J2.5
Y118.25 Z-0.45 I0. J-2.5
Y123.25 Z-0.475 I0. J2.5
Y118.25 Z-0.5 I0. J-2.5
Y123.25 Z-0.525 I0. J2.5
Y118.25 Z-0.55 I0. J-2.5
Y123.25 Z-0.575 I0. J2.5
Y118.25 Z-0.6 I0. J-2.5
Y123.25 Z-0.625 I0. J2.5
Y118.25 Z-0.65 I0. J-2.5
Y123.25 Z-0.675 I0. J2.5
Y118.25 Z-0.7 I0. J-2.5
Y123.25 Z-0.725 I0. J2.5
Y118.25 Z-0.75 I0. J-2.5
Y123.25 Z-0.775 I0. J2.5
Y118.25 Z-0.8 I0. J-2.5
Y123.25 Z-0.825 I0. J2.5
Y118.25 Z-0.85 I0. J-2.5
Y123.25 Z-0.875 I0. J2.5
Y118.25 Z-0.9 I0. J-2.5
Y123.25 Z-0.925 I0. J2.5
Y118.25 Z-0.95 I0. J-2.5
Y123.25 Z-0.975 I0. J2.5
Y118.25 Z-1. I0. J-2.5
Y123.25 Z-1.025 I0. J2.5
Y118.25 Z-1.05 I0. J-2.5
Y123.25 Z-1.075 I0. J2.5
Y118.25 Z-1.1 I0. J-2.5
Y123.25 Z-1.125 I0. J2.5
Y118.25 Z-1.15 I0. J-2.5
Y123.25 Z-1.175 I0. J2.5
Y118.25 Z-1.2 I0. J-2.5
Y123.25 Z-1.225 I0. J2.5
Y118.25 Z-1.25 I0. J-2.5
Y123.25 Z-1.275 I0. J2.5
Y118.25 Z-1.3 I0. J-2.5
Y123.25 Z-1.325 I0. J2.5
Y118.25 Z-1.35 I0. J-2.5
Y123.25 Z-1.375 I0. J2.5
Y118.25 Z-1.4 I0. J-2.5
Y123.25 Z-1.425 I0. J2.5
Y118.25 Z-1.45 I0. J-2.5
Y123.25 Z-1.475 I0. J2.5
Y118.25 Z-1.5 I0. J-2.5
Y123.25 I0. J2.5 F600.
Y118.25 I0. J-2.5
G1 Z1. F900.
G0 Y103.75
G1 Z0.1 F30.
G3 Y98.75 Z0.075 I0. J-2.5 F900.
Y103.75 Z0.05 I0. J2.5
Y98.75 Z0.025 I0. J-2.5
Y103.75 Z0. I0. J2.5
Y98.75 Z-0.025 I0. J-2.5
Y103.75 Z-0.05 I0. J2.5
Y98.75 Z-0.075 I0. J-2.5
Y103.75 Z-0.1 I0. J2.5
Y98.75 Z-0.125 I0. J-2.5
Y103.75 Z-0.15 I0. J2.5
Y98.75 Z-0.175 I0. J-2.5
Y103.75 Z-0.2 I0. J2.5
Y98.75 Z-0.225 I0. J-2.5
Y103.75 Z-0.25 I0. J2.5
Y98.75 Z-0.275 I0. J-2.5
Y103.75 Z-0.3 I0. J2.5
Y98.75 Z-0.325 I0. J-2.5
Y103.75 Z-0.35 I0. J2.5
Y98.75 Z-0.375 I0. J-2.5
Y103.75 Z-0.4 I0. J2.5
Y98.75 Z-0.425 I0. J-2.5
Y103.75 Z-0.45 I0. J2.5
Y98.75 Z-0.475 I0. J-2.5
Y103.75 Z-0.5 I0. J2.5
Y98.75 Z-0.525 I0. J-2.5
Y103.75 Z-0.55 I0. J2.5
Y98.75 Z-0.575 I0. J-2.5
Y103.75 Z-0.6 I0. J2.5
Y98.75 Z-0.625 I0. J-2.5
Y103.75 Z-0.65 I0. J2.5
Y98.75 Z-0.675 I0. J-2.5
Y103.75 Z-0.7 I0. J2.5
Y98.75 Z-0.725 I0. J-2.5
Y103.75 Z-0.75 I0. J2.5
Y98.75 Z-0.775 I0. J-2.5
Y103.75 Z-0.8 I0. J2.5
Y98.75 Z-0.825 I0. J-2.5
Y103.75 Z-0.85 I0. J2.5
Y98.75 Z-0.875 I0. J-2.5
Y103.75 Z-0.9 I0. J2.5
Y98.75 Z-0.925 I0. J-2.5
Y103.75 Z-0.95 I0. J2.5
Y98.75 Z-0.975 I0. J-2.5
Y103.75 Z-1. I0. J2.5
Y98.75 Z-1.025 I0. J-2.5
Y103.75 Z-1.05 I0. J2.5
Y98.75 Z-1.075 I0. J-2.5
Y103.75 Z-1.1 I0. J2.5
Y98.75 Z-1.125 I0. J-2.5
Y103.75 Z-1.15 I0. J2.5
Y98.75 Z-1.175 I0. J-2.5
Y103.75 Z-1.2 I0. J2.5
Y98.75 Z-1.225 I0. J-2.5
Y103.75 Z-1.25 I0. J2.5
Y98.75 Z-1.275 I0. J-2.5
Y103.75 Z-1.3 I0. J2.5
Y98.75 Z-1.325 I0. J-2.5
Y103.75 Z-1.35 I0. J2.5
Y98.75 Z-1.375 I0. J-2.5
Y103.75 Z-1.4 I0. J2.5
Y98.75 Z-1.425 I0. J-2.5
Y103.75 Z-1.45 I0. J2.5
Y98.75 Z-1.475 I0. J-2.5
Y103.75 Z-1.5 I0. J2.5
Y98.75 I0. J-2.5 F600.
Y103.75 I0. J2.5
G1 Z1. F900.
G0 X37.5 Y33.75
G1 Z0.1 F30.
G3 X32.5 Z0.075 I-2.5 J0. F900.
X37.5 Z0.05 I2.5 J0.
X32.5 Z0.025 I-2.5 J0.
X37.5 Z0. I2.5 J0.
X32.5 Z-0.025 I-2.5 J0.
X37.5 Z-0.05 I2.5 J0.
X32.5 Z-0.075 I-2.5 J0.
X37.5 Z-0.1 I2.5 J0.
X32.5 Z-0.125 I-2.5 J0.
X37.5 Z-0.15 I2.5 J0.
X32.5 Z-0.175 I-2.5 J0.
X37.5 Z-0.2 I2.5 J0.
X32.5 Z-0.225 I-2.5 J0.
X37.5 Z-0.25 I2.5 J0.
X32.5 Z-0.275 I-2.5 J0.
X37.5 Z-0.3 I2.5 J0.
X32.5 Z-0.325 I-2.5 J0.
X37.5 Z-0.35 I2.5 J0.
X32.5 Z-0.375 I-2.5 J0.
X37.5 Z-0.4 I2.5 J0.
X32.5 Z-0.425 I-2.5 J0.
X37.5 Z-0.45 I2.5 J0.
X32.5 Z-0.475 I-2.5 J0.
X37.5 Z-0.5 I2.5 J0.
X32.5 Z-0.525 I-2.5 J0.
X37.5 Z-0.55 I2.5 J0.
X32.5 Z-0.575 I-2.5 J0.
X37.5 Z-0.6 I2.5 J0.
X32.5 Z-0.625 I-2.5 J0.
X37.5 Z-0.65 I2.5 J0.
X32.5 Z-0.675 I-2.5 J0.
X37.5 Z-0.7 I2.5 J0.
X32.5 Z-0.725 I-2.5 J0.
X37.5 Z-0.75 I2.5 J0.
X32.5 Z-0.775 I-2.5 J0.
X37.5 Z-0.8 I2.5 J0.
X32.5 Z-0.825 I-2.5 J0.
X37.5 Z-0.85 I2.5 J0.
X32.5 Z-0.875 I-2.5 J0.
X37.5 Z-0.9 I2.5 J0.
X32.5 Z-0.925 I-2.5 J0.
X37.5 Z-0.95 I2.5 J0.
X32.5 Z-0.975 I-2.5 J0.
X37.5 Z-1. I2.5 J0.
X32.5 Z-1.025 I-2.5 J0.
X37.5 Z-1.05 I2.5 J0.
X32.5 Z-1.075 I-2.5 J0.
X37.5 Z-1.1 I2.5 J0.
X32.5 Z-1.125 I-2.5 J0.
X37.5 Z-1.15 I2.5 J0.
X32.5 Z-1.175 I-2.5 J0.
X37.5 Z-1.2 I2.5 J0.
X32.5 Z-1.225 I-2.5 J0.
X37.5 Z-1.25 I2.5 J0.
X32.5 Z-1.275 I-2.5 J0.
X37.5 Z-1.3 I2.5 J0.
X32.5 Z-1.325 I-2.5 J0.
X37.5 Z-1.35 I2.5 J0.
X32.5 Z-1.375 I-2.5 J0.
X37.5 Z-1.4 I2.5 J0.
X32.5 Z-1.425 I-2.5 J0.
X37.5 Z-1.45 I2.5 J0.
X32.5 Z-1.475 I-2.5 J0.
X37.5 Z-1.5 I2.5 J0.
X32.5 I-2.5 J0. F600.
X37.5 I2.5 J0.
G1 Z1. F900.
G0 X35. Y11.75
G1 Z0.1 F30.
G3 Y16.75 Z0.075 I0. J2.5 F900.
Y11.75 Z0.05 I0. J-2.5
Y16.75 Z0.025 I0. J2.5
Y11.75 Z0. I0. J-2.5
Y16.75 Z-0.025 I0. J2.5
Y11.75 Z-0.05 I0. J-2.5
Y16.75 Z-0.075 I0. J2.5
Y11.75 Z-0.1 I0. J-2.5
Y16.75 Z-0.125 I0. J2.5
Y11.75 Z-0.15 I0. J-2.5
Y16.75 Z-0.175 I0. J2.5
Y11.75 Z-0.2 I0. J-2.5
Y16.75 Z-0.225 I0. J2.5
Y11.75 Z-0.25 I0. J-2.5
Y16.75 Z-0.275 I0. J2.5
Y11.75 Z-0.3 I0. J-2.5
Y16.75 Z-0.325 I0. J2.5
Y11.75 Z-0.35 I0. J-2.5
Y16.75 Z-0.375 I0. J2.5
Y11.75 Z-0.4 I0. J-2.5
Y16.75 Z-0.425 I0. J2.5
Y11.75 Z-0.45 I0. J-2.5
Y16.75 Z-0.475 I0. J2.5
Y11.75 Z-0.5 I0. J-2.5
Y16.75 Z-0.525 I0. J2.5
Y11.75 Z-0.55 I0. J-2.5
Y16.75 Z-0.575 I0. J2.5
Y11.75 Z-0.6 I0. J-2.5
Y16.75 Z-0.625 I0. J2.5
Y11.75 Z-0.65 I0. J-2.5
Y16.75 Z-0.675 I0. J2.5
Y11.75 Z-0.7 I0. J-2.5
Y16.75 Z-0.725 I0. J2.5
Y11.75 Z-0.75 I0. J-2.5
Y16.75 Z-0.775 I0. J2.5
Y11.75 Z-0.8 I0. J-2.5
Y16.75 Z-0.825 I0. J2.5
Y11.75 Z-0.85 I0. J-2.5
Y16.75 Z-0.875 I0. J2.5
Y11.75 Z-0.9 I0. J-2.5
Y16.75 Z-0.925 I0. J2.5
Y11.75 Z-0.95 I0. J-2.5
Y16.75 Z-0.975 I0. J2.5
Y11.75 Z-1. I0. J-2.5
Y16.75 Z-1.025 I0. J2.5
Y11.75 Z-1.05 I0. J-2.5
Y16.75 Z-1.075 I0. J2.5
Y11.75 Z-1.1 I0. J-2.5
Y16.75 Z-1.125 I0. J2.5
Y11.75 Z-1.15 I0. J-2.5
Y16.75 Z-1.175 I0. J2.5
Y11.75 Z-1.2 I0. J-2.5
Y16.75 Z-1.225 I0. J2.5
Y11.75 Z-1.25 I0. J-2.5
Y16.75 Z-1.275 I0. J2.5
Y11.75 Z-1.3 I0. J-2.5
Y16.75 Z-1.325 I0. J2.5
Y11.75 Z-1.35 I0. J-2.5
Y16.75 Z-1.375 I0. J2.5
Y11.75 Z-1.4 I0. J-2.5
Y16.75 Z-1.425 I0. J2.5
Y11.75 Z-1.45 I0. J-2.5
Y16.75 Z-1.475 I0. J2.5
Y11.75 Z-1.5 I0. J-2.5
Y16.75 I0. J2.5 F600.
Y11.75 I0. J-2.5
G1 Z1. F900.
G0 X217.5 Y14.25
G1 Z0.1 F30.
G3 X212.5 Z0.075 I-2.5 J0. F900.
X217.5 Z0.05 I2.5 J0.
X212.5 Z0.025 I-2.5 J0.
X217.5 Z0. I2.5 J0.
X212.5 Z-0.025 I-2.5 J0.
X217.5 Z-0.05 I2.5 J0.
X212.5 Z-0.075 I-2.5 J0.
X217.5 Z-0.1 I2.5 J0.
X212.5 Z-0.125 I-2.5 J0.
X217.5 Z-0.15 I2.5 J0.
X212.5 Z-0.175 I-2.5 J0.
X217.5 Z-0.2 I2.5 J0.
X212.5 Z-0.225 I-2.5 J0.
X217.5 Z-0.25 I2.5 J0.
X212.5 Z-0.275 I-2.5 J0.
X217.5 Z-0.3 I2.5 J0.
X212.5 Z-0.325 I-2.5 J0.
X217.5 Z-0.35 I2.5 J0.
X212.5 Z-0.375 I-2.5 J0.
X217.5 Z-0.4 I2.5 J0.
X212.5 Z-0.425 I-2.5 J0.
X217.5 Z-0.45 I2.5 J0.
X212.5 Z-0.475 I-2.5 J0.
X217.5 Z-0.5 I2.5 J0.
X212.5 Z-0.525 I-2.5 J0.
X217.5 Z-0.55 I2.5 J0.
X212.5 Z-0.575 I-2.5 J0.
X217.5 Z-0.6 I2.5 J0.
X212.5 Z-0.625 I-2.5 J0.
X217.5 Z-0.65 I2.5 J0.
X212.5 Z-0.675 I-2.5 J0.
X217.5 Z-0.7 I2.5 J0.
X212.5 Z-0.725 I-2.5 J0.
X217.5 Z-0.75 I2.5 J0.
X212.5 Z-0.775 I-2.5 J0.
X217.5 Z-0.8 I2.5 J0.
X212.5 Z-0.825 I-2.5 J0.
X217.5 Z-0.85 I2.5 J0.
X212.5 Z-0.875 I-2.5 J0.
X217.5 Z-0.9 I2.5 J0.
X212.5 Z-0.925 I-2.5 J0.
X217.5 Z-0.95 I2.5 J0.
X212.5 Z-0.975 I-2.5 J0.
X217.5 Z-1. I2.5 J0.
X212.5 Z-1.025 I-2.5 J0.
X217.5 Z-1.05 I2.5 J0.
X212.5 Z-1.075 I-2.5 J0.
X217.5 Z-1.1 I2.5 J0.
X212.5 Z-1.125 I-2.5 J0.
X217.5 Z-1.15 I2.5 J0.
X212.5 Z-1.175 I-2.5 J0.
X217.5 Z-1.2 I2.5 J0.
X212.5 Z-1.225 I-2.5 J0.
X217.5 Z-1.25 I2.5 J0.
X212.5 Z-1.275 I-2.5 J0.
X217.5 Z-1.3 I2.5 J0.
X212.5 Z-1.325 I-2.5 J0.
X217.5 Z-1.35 I2.5 J0.
X212.5 Z-1.375 I-2.5 J0.
X217.5 Z-1.4 I2.5 J0.
X212.5 Z-1.425 I-2.5 J0.
X217.5 Z-1.45 I2.5 J0.
X212.5 Z-1.475 I-2.5 J0.
X217.5 Z-1.5 I2.5 J0.
X212.5 I-2.5 J0. F600.
X217.5 I2.5 J0.
G1 Z1. F900.
G0 Y33.75
G1 Z0.1 F30.
G3 X212.5 Z0.075 I-2.5 J0. F900.
X217.5 Z0.05 I2.5 J0.
X212.5 Z0.025 I-2.5 J0.
X217.5 Z0. I2.5 J0.
X212.5 Z-0.025 I-2.5 J0.
X217.5 Z-0.05 I2.5 J0.
X212.5 Z-0.075 I-2.5 J0.
X217.5 Z-0.1 I2.5 J0.
X212.5 Z-0.125 I-2.5 J0.
X217.5 Z-0.15 I2.5 J0.
X212.5 Z-0.175 I-2.5 J0.
X217.5 Z-0.2 I2.5 J0.
X212.5 Z-0.225 I-2.5 J0.
X217.5 Z-0.25 I2.5 J0.
X212.5 Z-0.275 I-2.5 J0.
X217.5 Z-0.3 I2.5 J0.
X212.5 Z-0.325 I-2.5 J0.
X217.5 Z-0.35 I2.5 J0.
X212.5 Z-0.375 I-2.5 J0.
X217.5 Z-0.4 I2.5 J0.
X212.5 Z-0.425 I-2.5 J0.
X217.5 Z-0.45 I2.5 J0.
X212.5 Z-0.475 I-2.5 J0.
X217.5 Z-0.5 I2.5 J0.
X212.5 Z-0.525 I-2.5 J0.
X217.5 Z-0.55 I2.5 J0.
X212.5 Z-0.575 I-2.5 J0.
X217.5 Z-0.6 I2.5 J0.
X212.5 Z-0.625 I-2.5 J0.
X217.5 Z-0.65 I2.5 J0.
X212.5 Z-0.675 I-2.5 J0.
X217.5 Z-0.7 I2.5 J0.
X212.5 Z-0.725 I-2.5 J0.
X217.5 Z-0.75 I2.5 J0.
X212.5 Z-0.775 I-2.5 J0.
X217.5 Z-0.8 I2.5 J0.
X212.5 Z-0.825 I-2.5 J0.
X217.5 Z-0.85 I2.5 J0.
X212.5 Z-0.875 I-2.5 J0.
X217.5 Z-0.9 I2.5 J0.
X212.5 Z-0.925 I-2.5 J0.
X217.5 Z-0.95 I2.5 J0.
X212.5 Z-0.975 I-2.5 J0.
X217.5 Z-1. I2.5 J0.
X212.5 Z-1.025 I-2.5 J0.
X217.5 Z-1.05 I2.5 J0.
X212.5 Z-1.075 I-2.5 J0.
X217.5 Z-1.1 I2.5 J0.
X212.5 Z-1.125 I-2.5 J0.
X217.5 Z-1.15 I2.5 J0.
X212.5 Z-1.175 I-2.5 J0.
X217.5 Z-1.2 I2.5 J0.
X212.5 Z-1.225 I-2.5 J0.
X217.5 Z-1.25 I2.5 J0.
X212.5 Z-1.275 I-2.5 J0.
X217.5 Z-1.3 I2.5 J0.
X212.5 Z-1.325 I-2.5 J0.
X217.5 Z-1.35 I2.5 J0.
X212.5 Z-1.375 I-2.5 J0.
X217.5 Z-1.4 I2.5 J0.
X212.5 Z-1.425 I-2.5 J0.
X217.5 Z-1.45 I2.5 J0.
X212.5 Z-1.475 I-2.5 J0.
X217.5 Z-1.5 I2.5 J0.
X212.5 I-2.5 J0. F600.
X217.5 I2.5 J0.
G1 Z1. F900.
G0 X212.5 Y101.25
G1 Z0.1 F30.
G3 X217.5 Z0.075 I2.5 J0. F900.
X212.5 Z0.05 I-2.5 J0.
X217.5 Z0.025 I2.5 J0.
X212.5 Z0. I-2.5 J0.
X217.5 Z-0.025 I2.5 J0.
X212.5 Z-0.05 I-2.5 J0.
X217.5 Z-0.075 I2.5 J0.
X212.5 Z-0.1 I-2.5 J0.
X217.5 Z-0.125 I2.5 J0.
X212.5 Z-0.15 I-2.5 J0.
X217.5 Z-0.175 I2.5 J0.
X212.5 Z-0.2 I-2.5 J0.
X217.5 Z-0.225 I2.5 J0.
X212.5 Z-0.25 I-2.5 J0.
X217.5 Z-0.275 I2.5 J0.
X212.5 Z-0.3 I-2.5 J0.
X217.5 Z-0.325 I2.5 J0.
X212.5 Z-0.35 I-2.5 J0.
X217.5 Z-0.375 I2.5 J0.
X212.5 Z-0.4 I-2.5 J0.
X217.5 Z-0.425 I2.5 J0.
X212.5 Z-0.45 I-2.5 J0.
X217.5 Z-0.475 I2.5 J0.
X212.5 Z-0.5 I-2.5 J0.
X217.5 Z-0.525 I2.5 J0.
X212.5 Z-0.55 I-2.5 J0.
X217.5 Z-0.575 I2.5 J0.
X212.5 Z-0.6 I-2.5 J0.
X217.5 Z-0.625 I2.5 J0.
X212.5 Z-0.65 I-2.5 J0.
X217.5 Z-0.675 I2.5 J0.
X212.5 Z-0.7 I-2.5 J0.
X217.5 Z-0.725 I2.5 J0.
X212.5 Z-0.75 I-2.5 J0.
X217.5 Z-0.775 I2.5 J0.
X212.5 Z-0.8 I-2.5 J0.
X217.5 Z-0.825 I2.5 J0.
X212.5 Z-0.85 I-2.5 J0.
X217.5 Z-0.875 I2.5 J0.
X212.5 Z-0.9 I-2.5 J0.
X217.5 Z-0.925 I2.5 J0.
X212.5 Z-0.95 I-2.5 J0.
X217.5 Z-0.975 I2.5 J0.
X212.5 Z-1. I-2.5 J0.
X217.5 Z-1.025 I2.5 J0.
X212.5 Z-1.05 I-2.5 J0.
X217.5 Z-1.075 I2.5 J0.
X212.5 Z-1.1 I-2.5 J0.
X217.5 Z-1.125 I2.5 J0.
X212.5 Z-1.15 I-2.5 J0.
X217.5 Z-1.175 I2.5 J0.
X212.5 Z-1.2 I-2.5 J0.
X217.5 Z-1.225 I2.5 J0.
X212.5 Z-1.25 I-2.5 J0.
X217.5 Z-1.275 I2.5 J0.
X212.5 Z-1.3 I-2.5 J0.
X217.5 Z-1.325 I2.5 J0.
X212.5 Z-1.35 I-2.5 J0.
X217.5 Z-1.375 I2.5 J0.
X212.5 Z-1.4 I-2.5 J0.
X217.5 Z-1.425 I2.5 J0.
X212.5 Z-1.45 I-2.5 J0.
X217.5 Z-1.475 I2.5 J0.
X212.5 Z-1.5 I-2.5 J0.
X217.5 I2.5 J0. F600.
X212.5 I-2.5 J0.
G1 Z1. F900.
G0 Y120.75
G1 Z0.1 F30.
G3 X217.5 Z0.075 I2.5 J0. F900.
X212.5 Z0.05 I-2.5 J0.
X217.5 Z0.025 I2.5 J0.
X212.5 Z0. I-2.5 J0.
X217.5 Z-0.025 I2.5 J0.
X212.5 Z-0.05 I-2.5 J0.
X217.5 Z-0.075 I2.5 J0.
X212.5 Z-0.1 I-2.5 J0.
X217.5 Z-0.125 I2.5 J0.
X212.5 Z-0.15 I-2.5 J0.
X217.5 Z-0.175 I2.5 J0.
X212.5 Z-0.2 I-2.5 J0.
X217.5 Z-0.225 I2.5 J0.
X212.5 Z-0.25 I-2.5 J0.
X217.5 Z-0.275 I2.5 J0.
X212.5 Z-0.3 I-2.5 J0.
X217.5 Z-0.325 I2.5 J0.
X212.5 Z-0.35 I-2.5 J0.
X217.5 Z-0.375 I2.5 J0.
X212.5 Z-0.4 I-2.5 J0.
X217.5 Z-0.425 I2.5 J0.
X212.5 Z-0.45 I-2.5 J0.
X217.5 Z-0.475 I2.5 J0.
X212.5 Z-0.5 I-2.5 J0.
X217.5 Z-0.525 I2.5 J0.
X212.5 Z-0.55 I-2.5 J0.
X217.5 Z-0.575 I2.5 J0.
X212.5 Z-0.6 I-2.5 J0.
X217.5 Z-0.625 I2.5 J0.
X212.5 Z-0.65 I-2.5 J0.
X217.5 Z-0.675 I2.5 J0.
X212.5 Z-0.7 I-2.5 J0.
X217.5 Z-0.725 I2.5 J0.
X212.5 Z-0.75 I-2.5 J0.
X217.5 Z-0.775 I2.5 J0.
X212.5 Z-0.8 I-2.5 J0.
X217.5 Z-0.825 I2.5 J0.
X212.5 Z-0.85 I-2.5 J0.
X217.5 Z-0.875 I2.5 J0.
X212.5 Z-0.9 I-2.5 J0.
X217.5 Z-0.925 I2.5 J0.
X212.5 Z-0.95 I-2.5 J0.
X217.5 Z-0.975 I2.5 J0.
X212.5 Z-1. I-2.5 J0.
X217.5 Z-1.025 I2.5 J0.
X212.5 Z-1.05 I-2.5 J0.
X217.5 Z-1.075 I2.5 J0.
X212.5 Z-1.1 I-2.5 J0.
X217.5 Z-1.125 I2.5 J0.
X212.5 Z-1.15 I-2.5 J0.
X217.5 Z-1.175 I2.5 J0.
X212.5 Z-1.2 I-2.5 J0.
X217.5 Z-1.225 I2.5 J0.
X212.5 Z-1.25 I-2.5 J0.
X217.5 Z-1.275 I2.5 J0.
X212.5 Z-1.3 I-2.5 J0.
X217.5 Z-1.325 I2.5 J0.
X212.5 Z-1.35 I-2.5 J0.
X217.5 Z-1.375 I2.5 J0.
X212.5 Z-1.4 I-2.5 J0.
X217.5 Z-1.425 I2.5 J0.
X212.5 Z-1.45 I-2.5 J0.
X217.5 Z-1.475 I2.5 J0.
X212.5 Z-1.5 I-2.5 J0.
X217.5 I2.5 J0. F600.
X212.5 I-2.5 J0.
G1 Z1. F900.
G0 X36.1 Y76.43
G1 Z0.1 F30.
G3 Y81.43 Z0.075 I0. J2.5 F900.
Y76.43 Z0.05 I0. J-2.5
Y81.43 Z0.025 I0. J2.5
Y76.43 Z0. I0. J-2.5
Y81.43 Z-0.025 I0. J2.5
Y76.43 Z-0.05 I0. J-2.5
Y81.43 Z-0.075 I0. J2.5
Y76.43 Z-0.1 I0. J-2.5
Y81.43 Z-0.125 I0. J2.5
Y76.43 Z-0.15 I0. J-2.5
Y81.43 Z-0.175 I0. J2.5
Y76.43 Z-0.2 I0. J-2.5
Y81.43 Z-0.225 I0. J2.5
Y76.43 Z-0.25 I0. J-2.5
Y81.43 Z-0.275 I0. J2.5
Y76.43 Z-0.3 I0. J-2.5
Y81.43 Z-0.325 I0. J2.5
Y76.43 Z-0.35 I0. J-2.5
Y81.43 Z-0.375 I0. J2.5
Y76.43 Z-0.4 I0. J-2.5
Y81.43 Z-0.425 I0. J2.5
Y76.43 Z-0.45 I0. J-2.5
Y81.43 Z-0.475 I0. J2.5
Y76.43 Z-0.5 I0. J-2.5
Y81.43 Z-0.525 I0. J2.5
Y76.43 Z-0.55 I0. J-2.5
Y81.43 Z-0.575 I0. J2.5
Y76.43 Z-0.6 I0. J-2.5
Y81.43 Z-0.625 I0. J2.5
Y76.43 Z-0.65 I0. J-2.5
Y81.43 Z-0.675 I0. J2.5
Y76.43 Z-0.7 I0. J-2.5
Y81.43 Z-0.725 I0. J2.5
Y76.43 Z-0.75 I0. J-2.5
Y81.43 Z-0.775 I0. J2.5
Y76.43 Z-0.8 I0. J-2.5
Y81.43 Z-0.825 I0. J2.5
Y76.43 Z-0.85 I0. J-2.5
Y81.43 Z-0.875 I0. J2.5
Y76.43 Z-0.9 I0. J-2.5
Y81.43 Z-0.925 I0. J2.5
Y76.43 Z-0.95 I0. J-2.5
Y81.43 Z-0.975 I0. J2.5
Y76.43 Z-1. I0. J-2.5
Y81.43 Z-1.025 I0. J2.5
Y76.43 Z-1.05 I0. J-2.5
Y81.43 Z-1.075 I0. J2.5
Y76.43 Z-1.1 I0. J-2.5
Y81.43 Z-1.125 I0. J2.5
Y76.43 Z-1.15 I0. J-2.5
Y81.43 Z-1.175 I0. J2.5
Y76.43 Z-1.2 I0. J-2.5
Y81.43 Z-1.225 I0. J2.5
Y76.43 Z-1.25 I0. J-2.5
Y81.43 Z-1.275 I0. J2.5
Y76.43 Z-1.3 I0. J-2.5
Y81.43 Z-1.325 I0. J2.5
Y76.43 Z-1.35 I0. J-2.5
Y81.43 Z-1.375 I0. J2.5
Y76.43 Z-1.4 I0. J-2.5
Y81.43 Z-1.425 I0. J2.5
Y76.43 Z-1.45 I0. J-2.5
Y81.43 Z-1.475 I0. J2.5
Y76.43 Z-1.5 I0. J-2.5
Y81.43 I0. J2.5 F600.
Y76.43 I0. J-2.5
G1 Z1. F900.
G0 Y53.57
G1 Z0.1 F30.
G3 Y58.57 Z0.075 I0. J2.5 F900.
Y53.57 Z0.05 I0. J-2.5
Y58.57 Z0.025 I0. J2.5
Y53.57 Z0. I0. J-2.5
Y58.57 Z-0.025 I0. J2.5
Y53.57 Z-0.05 I0. J-2.5
Y58.57 Z-0.075 I0. J2.5
Y53.57 Z-0.1 I0. J-2.5
Y58.57 Z-0.125 I0. J2.5
Y53.57 Z-0.15 I0. J-2.5
Y58.57 Z-0.175 I0. J2.5
Y53.57 Z-0.2 I0. J-2.5
Y58.57 Z-0.225 I0. J2.5
Y53.57 Z-0.25 I0. J-2.5
Y58.57 Z-0.275 I0. J2.5
Y53.57 Z-0.3 I0. J-2.5
Y58.57 Z-0.325 I0. J2.5
Y53.57 Z-0.35 I0. J-2.5
Y58.57 Z-0.375 I0. J2.5
Y53.57 Z-0.4 I0. J-2.5
Y58.57 Z-0.425 I0. J2.5
Y53.57 Z-0.45 I0. J-2.5
Y58.57 Z-0.475 I0. J2.5
Y53.57 Z-0.5 I0. J-2.5
Y58.57 Z-0.525 I0. J2.5
Y53.57 Z-0.55 I0. J-2.5
Y58.57 Z-0.575 I0. J2.5
Y53.57 Z-0.6 I0. J-2.5
Y58.57 Z-0.625 I0. J2.5
Y53.57 Z-0.65 I0. J-2.5
Y58.57 Z-0.675 I0. J2.5
Y53.57 Z-0.7 I0. J-2.5
Y58.57 Z-0.725 I0. J2.5
Y53.57 Z-0.75 I0. J-2.5
Y58.57 Z-0.775 I0. J2.5
Y53.57 Z-0.8 I0. J-2.5
Y58.57 Z-0.825 I0. J2.5
Y53.57 Z-0.85 I0. J-2.5
Y58.57 Z-0.875 I0. J2.5
Y53.57 Z-0.9 I0. J-2.5
Y58.57 Z-0.925 I0. J2.5
Y53.57 Z-0.95 I0. J-2.5
Y58.57 Z-0.975 I0. J2.5
Y53.57 Z-1. I0. J-2.5
Y58.57 Z-1.025 I0. J2.5
Y53.57 Z-1.05 I0. J-2.5
Y58.57 Z-1.075 I0. J2.5
Y53.57 Z-1.1 I0. J-2.5
Y58.57 Z-1.125 I0. J2.5
Y53.57 Z-1.15 I0. J-2.5
Y58.57 Z-1.175 I0. J2.5
Y53.57 Z-1.2 I0. J-2.5
Y58.57 Z-1.225 I0. J2.5
Y53.57 Z-1.25 I0. J-2.5
Y58.57 Z-1.275 I0. J2.5
Y53.57 Z-1.3 I0. J-2.5
Y58.57 Z-1.325 I0. J2.5
Y53.57 Z-1.35 I0. J-2.5
Y58.57 Z-1.375 I0. J2.5
Y53.57 Z-1.4 I0. J-2.5
Y58.57 Z-1.425 I0. J2.5
Y53.57 Z-1.45 I0. J-2.5
Y58.57 Z-1.475 I0. J2.5
Y53.57 Z-1.5 I0. J-2.5
Y58.57 I0. J2.5 F600.
Y53.57 I0. J-2.5
G1 Z1. F900.
G0 X216.4 Y78.93
G1 Z0.1 F30.
G3 X211.4 Z0.075 I-2.5 J0. F900.
X216.4 Z0.05 I2.5 J0.
X211.4 Z0.025 I-2.5 J0.
X216.4 Z0. I2.5 J0.
X211.4 Z-0.025 I-2.5 J0.
X216.4 Z-0.05 I2.5 J0.
X211.4 Z-0.075 I-2.5 J0.
X216.4 Z-0.1 I2.5 J0.
X211.4 Z-0.125 I-2.5 J0.
X216.4 Z-0.15 I2.5 J0.
X211.4 Z-0.175 I-2.5 J0.
X216.4 Z-0.2 I2.5 J0.
X211.4 Z-0.225 I-2.5 J0.
X216.4 Z-0.25 I2.5 J0.
X211.4 Z-0.275 I-2.5 J0.
X216.4 Z-0.3 I2.5 J0.
X211.4 Z-0.325 I-2.5 J0.
X216.4 Z-0.35 I2.5 J0.
X211.4 Z-0.375 I-2.5 J0.
X216.4 Z-0.4 I2.5 J0.
X211.4 Z-0.425 I-2.5 J0.
X216.4 Z-0.45 I2.5 J0.
X211.4 Z-0.475 I-2.5 J0.
X216.4 Z-0.5 I2.5 J0.
X211.4 Z-0.525 I-2.5 J0.
X216.4 Z-0.55 I2.5 J0.
X211.4 Z-0.575 I-2.5 J0.
X216.4 Z-0.6 I2.5 J0.
X211.4 Z-0.625 I-2.5 J0.
X216.4 Z-0.65 I2.5 J0.
X211.4 Z-0.675 I-2.5 J0.
X216.4 Z-0.7 I2.5 J0.
X211.4 Z-0.725 I-2.5 J0.
X216.4 Z-0.75 I2.5 J0.
X211.4 Z-0.775 I-2.5 J0.
X216.4 Z-0.8 I2.5 J0.
X211.4 Z-0.825 I-2.5 J0.
X216.4 Z-0.85 I2.5 J0.
X211.4 Z-0.875 I-2.5 J0.
X216.4 Z-0.9 I2.5 J0.
X211.4 Z-0.925 I-2.5 J0.
X216.4 Z-0.95 I2.5 J0.
X211.4 Z-0.975 I-2.5 J0.
X216.4 Z-1. I2.5 J0.
X211.4 Z-1.025 I-2.5 J0.
X216.4 Z-1.05 I2.5 J0.
X211.4 Z-1.075 I-2.5 J0.
X216.4 Z-1.1 I2.5 J0.
X211.4 Z-1.125 I-2.5 J0.
X216.4 Z-1.15 I2.5 J0.
X211.4 Z-1.175 I-2.5 J0.
X216.4 Z-1.2 I2.5 J0.
X211.4 Z-1.225 I-2.5 J0.
X216.4 Z-1.25 I2.5 J0.
X211.4 Z-1.275 I-2.5 J0.
X216.4 Z-1.3 I2.5 J0.
X211.4 Z-1.325 I-2.5 J0.
X216.4 Z-1.35 I2.5 J0.
X211.4 Z-1.375 I-2.5 J0.
X216.4 Z-1.4 I2.5 J0.
X211.4 Z-1.425 I-2.5 J0.
X216.4 Z-1.45 I2.5 J0.
X211.4 Z-1.475 I-2.5 J0.
X216.4 Z-1.5 I2.5 J0.
X211.4 I-2.5 J0. F600.
X216.4 I2.5 J0.
G1 Z1. F900.
G0 Y56.07
G1 Z0.1 F30.
G3 X211.4 Z0.075 I-2.5 J0. F900.
X216.4 Z0.05 I2.5 J0.
X211.4 Z0.025 I-2.5 J0.
X216.4 Z0. I2.5 J0.
X211.4 Z-0.025 I-2.5 J0.
X216.4 Z-0.05 I2.5 J0.
X211.4 Z-0.075 I-2.5 J0.
X216.4 Z-0.1 I2.5 J0.
X211.4 Z-0.125 I-2.5 J0.
X216.4 Z-0.15 I2.5 J0.
X211.4 Z-0.175 I-2.5 J0.
X216.4 Z-0.2 I2.5 J0.
X211.4 Z-0.225 I-2.5 J0.
X216.4 Z-0.25 I2.5 J0.
X211.4 Z-0.275 I-2.5 J0.
X216.4 Z-0.3 I2.5 J0.
X211.4 Z-0.325 I-2.5 J0.
X216.4 Z-0.35 I2.5 J0.
X211.4 Z-0.375 I-2.5 J0.
X216.4 Z-0.4 I2.5 J0.
X211.4 Z-0.425 I-2.5 J0.
X216.4 Z-0.45 I2.5 J0.
X211.4 Z-0.475 I-2.5 J0.
X216.4 Z-0.5 I2.5 J0.
X211.4 Z-0.525 I-2.5 J0.
X216.4 Z-0.55 I2.5 J0.
X211.4 Z-0.575 I-2.5 J0.
X216.4 Z-0.6 I2.5 J0.
X211.4 Z-0.625 I-2.5 J0.
X216.4 Z-0.65 I2.5 J0.
X211.4 Z-0.675 I-2.5 J0.
X216.4 Z-0.7 I2.5 J0.
X211.4 Z-0.725 I-2.5 J0.
X216.4 Z-0.75 I2.5 J0.
X211.4 Z-0.775 I-2.5 J0.
X216.4 Z-0.8 I2.5 J0.
X211.4 Z-0.825 I-2.5 J0.
X216.4 Z-0.85 I2.5 J0.
X211.4 Z-0.875 I-2.5 J0.
X216.4 Z-0.9 I2.5 J0.
X211.4 Z-0.925 I-2.5 J0.
X216.4 Z-0.95 I2.5 J0.
X211.4 Z-0.975 I-2.5 J0.
X216.4 Z-1. I2.5 J0.
X211.4 Z-1.025 I-2.5 J0.
X216.4 Z-1.05 I2.5 J0.
X211.4 Z-1.075 I-2.5 J0.
X216.4 Z-1.1 I2.5 J0.
X211.4 Z-1.125 I-2.5 J0.
X216.4 Z-1.15 I2.5 J0.
X211.4 Z-1.175 I-2.5 J0.
X216.4 Z-1.2 I2.5 J0.
X211.4 Z-1.225 I-2.5 J0.
X216.4 Z-1.25 I2.5 J0.
X211.4 Z-1.275 I-2.5 J0.
X216.4 Z-1.3 I2.5 J0.
X211.4 Z-1.325 I-2.5 J0.
X216.4 Z-1.35 I2.5 J0.
X211.4 Z-1.375 I-2.5 J0.
X216.4 Z-1.4 I2.5 J0.
X211.4 Z-1.425 I-2.5 J0.
X216.4 Z-1.45 I2.5 J0.
X211.4 Z-1.475 I-2.5 J0.
X216.4 Z-1.5 I2.5 J0.
X211.4 I-2.5 J0. F600.
X216.4 I2.5 J0.
G1 Z1. F900.
G0 Z1.5

(2D 2)
M8
G0 X7.5 Y128.6
Z1.5
Z1.
G1 Z0.1 F30.
G3 Y126.4 Z0.075 I0. J-1.1 F900.
Y128.6 Z0.05 I0. J1.1
Y126.4 Z0.025 I0. J-1.1
Y128.6 Z0. I0. J1.1
Y126.4 Z-0.025 I0. J-1.1
Y128.6 Z-0.05 I0. J1.1
Y126.4 Z-0.075 I0. J-1.1
Y128.6 Z-0.1 I0. J1.1
Y126.4 Z-0.125 I0. J-1.1
Y128.6 Z-0.15 I0. J1.1
Y126.4 Z-0.175 I0. J-1.1
Y128.6 Z-0.2 I0. J1.1
Y126.4 Z-0.225 I0. J-1.1
Y128.6 Z-0.25 I0. J1.1
Y126.4 Z-0.275 I0. J-1.1
Y128.6 Z-0.3 I0. J1.1
Y126.4 Z-0.325 I0. J-1.1
Y128.6 Z-0.35 I0. J1.1
Y126.4 Z-0.375 I0. J-1.1
Y128.6 Z-0.4 I0. J1.1
Y126.4 Z-0.425 I0. J-1.1
Y128.6 Z-0.45 I0. J1.1
Y126.4 Z-0.475 I0. J-1.1
Y128.6 Z-0.5 I0. J1.1
Y126.4 Z-0.525 I0. J-1.1
Y128.6 Z-0.55 I0. J1.1
Y126.4 Z-0.575 I0. J-1.1
Y128.6 Z-0.6 I0. J1.1
Y126.4 Z-0.625 I0. J-1.1
Y128.6 Z-0.65 I0. J1.1
Y126.4 Z-0.675 I0. J-1.1
Y128.6 Z-0.7 I0. J1.1
Y126.4 Z-0.725 I0. J-1.1
Y128.6 Z-0.75 I0. J1.1
Y126.4 Z-0.775 I0. J-1.1
Y128.6 Z-0.8 I0. J1.1
Y126.4 Z-0.825 I0. J-1.1
Y128.6 Z-0.85 I0. J1.1
Y126.4 Z-0.875 I0. J-1.1
Y128.6 Z-0.9 I0. J1.1
Y126.4 Z-0.925 I0. J-1.1
Y128.6 Z-0.95 I0. J1.1
Y126.4 Z-0.975 I0. J-1.1
Y128.6 Z-1. I0. J1.1
Y126.4 Z-1.025 I0. J-1.1
Y128.6 Z-1.05 I0. J1.1
Y126.4 Z-1.075 I0. J-1.1
Y128.6 Z-1.1 I0. J1.1
Y126.4 Z-1.125 I0. J-1.1
Y128.6 Z-1.15 I0. J1.1
Y126.4 Z-1.175 I0. J-1.1
Y128.6 Z-1.2 I0. J1.1
Y126.4 Z-1.225 I0. J-1.1
Y128.6 Z-1.25 I0. J1.1
Y126.4 Z-1.275 I0. J-1.1
Y128.6 Z-1.3 I0. J1.1
Y126.4 Z-1.325 I0. J-1.1
Y128.6 Z-1.35 I0. J1.1
Y126.4 Z-1.375 I0. J-1.1
Y128.6 Z-1.4 I0. J1.1
Y126.4 Z-1.425 I0. J-1.1
Y128.6 Z-1.45 I0. J1.1
Y126.4 Z-1.475 I0. J-1.1
Y128.6 Z-1.5 I0. J1.1
Y126.4 Z-1.525 I0. J-1.1
Y128.6 Z-1.55 I0. J1.1
Y126.4 Z-1.575 I0. J-1.1
Y128.6 Z-1.6 I0. J1.1
Y126.4 Z-1.625 I0. J-1.1
Y128.6 Z-1.65 I0. J1.1
Y126.4 Z-1.675 I0. J-1.1
Y128.6 Z-1.7 I0. J1.1
Y126.4 Z-1.725 I0. J-1.1
Y128.6 Z-1.75 I0. J1.1
Y126.4 Z-1.775 I0. J-1.1
Y128.6 Z-1.8 I0. J1.1
Y126.4 Z-1.825 I0. J-1.1
Y128.6 Z-1.85 I0. J1.1
Y126.4 Z-1.875 I0. J-1.1
Y128.6 Z-1.9 I0. J1.1
Y126.4 Z-1.925 I0. J-1.1
Y128.6 Z-1.95 I0. J1.1
Y126.4 Z-1.975 I0. J-1.1
Y128.6 Z-2. I0. J1.1
Y126.4 Z-2.025 I0. J-1.1
Y128.6 Z-2.05 I0. J1.1
Y126.4 Z-2.075 I0. J-1.1
Y128.6 Z-2.1 I0. J1.1
Y126.4 Z-2.125 I0. J-1.1
Y128.6 Z-2.15 I0. J1.1
Y126.4 Z-2.175 I0. J-1.1
Y128.6 Z-2.2 I0. J1.1
Y126.4 Z-2.225 I0. J-1.1
Y128.6 Z-2.25 I0. J1.1
Y126.4 Z-2.275 I0. J-1.1
Y128.6 Z-2.3 I0. J1.1
Y126.4 Z-2.325 I0. J-1.1
Y128.6 Z-2.35 I0. J1.1
Y126.4 Z-2.375 I0. J-1.1
Y128.6 Z-2.4 I0. J1.1
Y126.4 Z-2.425 I0. J-1.1
Y128.6 Z-2.45 I0. J1.1
Y126.4 Z-2.475 I0. J-1.1
Y128.6 Z-2.5 I0. J1.1
Y126.4 Z-2.525 I0. J-1.1
Y128.6 Z-2.55 I0. J1.1
Y126.4 Z-2.575 I0. J-1.1
Y128.6 Z-2.6 I0. J1.1
Y126.4 Z-2.625 I0. J-1.1
Y128.6 Z-2.65 I0. J1.1
Y126.4 Z-2.675 I0. J-1.1
Y128.6 Z-2.7 I0. J1.1
Y126.4 Z-2.725 I0. J-1.1
Y128.6 Z-2.75 I0. J1.1
Y126.4 Z-2.775 I0. J-1.1
Y128.6 Z-2.8 I0. J1.1
Y126.4 Z-2.825 I0. J-1.1
Y128.6 Z-2.85 I0. J1.1
Y126.4 Z-2.875 I0. J-1.1
Y128.6 Z-2.9 I0. J1.1
Y126.4 Z-2.925 I0. J-1.1
Y128.6 Z-2.95 I0. J1.1
Y126.4 Z-2.975 I0. J-1.1
Y128.6 Z-3. I0. J1.1
Y126.4 I0. J-1.1 F600.
Y128.6 I0. J1.1
G1 Z1. F900.
G0 X22.6 Y120.75
G1 Z0.1 F30.
G3 X21.4 Z0.075 I-0.6 J0. F900.
X22.6 Z0.05 I0.6 J0.
X21.4 Z0.025 I-0.6 J0.
X22.6 Z0. I0.6 J0.
X21.4 Z-0.025 I-0.6 J0.
X22.6 Z-0.05 I0.6 J0.
X21.4 Z-0.075 I-0.6 J0.
X22.6 Z-0.1 I0.6 J0.
X21.4 Z-0.125 I-0.6 J0.
X22.6 Z-0.15 I0.6 J0.
X21.4 Z-0.175 I-0.6 J0.
X22.6 Z-0.2 I0.6 J0.
X21.4 Z-0.225 I-0.6 J0.
X22.6 Z-0.25 I0.6 J0.
X21.4 Z-0.275 I-0.6 J0.
X22.6 Z-0.3 I0.6 J0.
X21.4 Z-0.325 I-0.6 J0.
X22.6 Z-0.35 I0.6 J0.
X21.4 Z-0.375 I-0.6 J0.
X22.6 Z-0.4 I0.6 J0.
X21.4 Z-0.425 I-0.6 J0.
X22.6 Z-0.45 I0.6 J0.
X21.4 Z-0.475 I-0.6 J0.
X22.6 Z-0.5 I0.6 J0.
X21.4 Z-0.525 I-0.6 J0.
X22.6 Z-0.55 I0.6 J0.
X21.4 Z-0.575 I-0.6 J0.
X22.6 Z-0.6 I0.6 J0.
X21.4 Z-0.625 I-0.6 J0.
X22.6 Z-0.65 I0.6 J0.
X21.4 Z-0.675 I-0.6 J0.
X22.6 Z-0.7 I0.6 J0.
X21.4 Z-0.725 I-0.6 J0.
X22.6 Z-0.75 I0.6 J0.
X21.4 Z-0.775 I-0.6 J0.
X22.6 Z-0.8 I0.6 J0.
X21.4 Z-0.825 I-0.6 J0.
X22.6 Z-0.85 I0.6 J0.
X21.4 Z-0.875 I-0.6 J0.
X22.6 Z-0.9 I0.6 J0.
X21.4 Z-0.925 I-0.6 J0.
X22.6 Z-0.95 I0.6 J0.
X21.4 Z-0.975 I-0.6 J0.
X22.6 Z-1. I0.6 J0.
X21.4 Z-1.025 I-0.6 J0.
X22.6 Z-1.05 I0.6 J0.
X21.4 Z-1.075 I-0.6 J0.
X22.6 Z-1.1 I0.6 J0.
X21.4 Z-1.125 I-0.6 J0.
X22.6 Z-1.15 I0.6 J0.
X21.4 Z-1.175 I-0.6 J0.
X22.6 Z-1.2 I0.6 J0.
X21.4 Z-1.225 I-0.6 J0.
X22.6 Z-1.25 I0.6 J0.
X21.4 Z-1.275 I-0.6 J0.
X22.6 Z-1.3 I0.6 J0.
X21.4 Z-1.325 I-0.6 J0.
X22.6 Z-1.35 I0.6 J0.
X21.4 Z-1.375 I-0.6 J0.
X22.6 Z-1.4 I0.6 J0.
X21.4 Z-1.425 I-0.6 J0.
X22.6 Z-1.45 I0.6 J0.
X21.4 Z-1.475 I-0.6 J0.
X22.6 Z-1.5 I0.6 J0.
X21.4 Z-1.525 I-0.6 J0.
X22.6 Z-1.55 I0.6 J0.
X21.4 Z-1.575 I-0.6 J0.
X22.6 Z-1.6 I0.6 J0.
X21.4 Z-1.625 I-0.6 J0.
X22.6 Z-1.65 I0.6 J0.
X21.4 Z-1.675 I-0.6 J0.
X22.6 Z-1.7 I0.6 J0.
X21.4 Z-1.725 I-0.6 J0.
X22.6 Z-1.75 I0.6 J0.
X21.4 Z-1.775 I-0.6 J0.
X22.6 Z-1.8 I0.6 J0.
X21.4 Z-1.825 I-0.6 J0.
X22.6 Z-1.85 I0.6 J0.
X21.4 Z-1.875 I-0.6 J0.
X22.6 Z-1.9 I0.6 J0.
X21.4 Z-1.925 I-0.6 J0.
X22.6 Z-1.95 I0.6 J0.
X21.4 Z-1.975 I-0.6 J0.
X22.6 Z-2. I0.6 J0.
X21.4 Z-2.025 I-0.6 J0.
X22.6 Z-2.05 I0.6 J0.
X21.4 Z-2.075 I-0.6 J0.
X22.6 Z-2.1 I0.6 J0.
X21.4 Z-2.125 I-0.6 J0.
X22.6 Z-2.15 I0.6 J0.
X21.4 Z-2.175 I-0.6 J0.
X22.6 Z-2.2 I0.6 J0.
X21.4 Z-2.225 I-0.6 J0.
X22.6 Z-2.25 I0.6 J0.
X21.4 Z-2.275 I-0.6 J0.
X22.6 Z-2.3 I0.6 J0.
X21.4 Z-2.325 I-0.6 J0.
X22.6 Z-2.35 I0.6 J0.
X21.4 Z-2.375 I-0.6 J0.
X22.6 Z-2.4 I0.6 J0.
X21.4 Z-2.425 I-0.6 J0.
X22.6 Z-2.45 I0.6 J0.
X21.4 Z-2.475 I-0.6 J0.
X22.6 Z-2.5 I0.6 J0.
X21.4 Z-2.525 I-0.6 J0.
X22.6 Z-2.55 I0.6 J0.
X21.4 Z-2.575 I-0.6 J0.
X22.6 Z-2.6 I0.6 J0.
X21.4 Z-2.625 I-0.6 J0.
X22.6 Z-2.65 I0.6 J0.
X21.4 Z-2.675 I-0.6 J0.
X22.6 Z-2.7 I0.6 J0.
X21.4 Z-2.725 I-0.6 J0.
X22.6 Z-2.75 I0.6 J0.
X21.4 Z-2.775 I-0.6 J0.
X22.6 Z-2.8 I0.6 J0.
X21.4 Z-2.825 I-0.6 J0.
X22.6 Z-2.85 I0.6 J0.
X21.4 Z-2.875 I-0.6 J0.
X22.6 Z-2.9 I0.6 J0.
X21.4 Z-2.925 I-0.6 J0.
X22.6 Z-2.95 I0.6 J0.
X21.4 Z-2.975 I-0.6 J0.
X22.6 Z-3. I0.6 J0.
X21.4 I-0.6 J0. F600.
X22.6 I0.6 J0.
G1 Z1. F900.
G0 X35. Y121.35
G1 Z0.1 F30.
G3 Y120.15 Z0.075 I0. J-0.6 F900.
Y121.35 Z0.05 I0. J0.6
Y120.15 Z0.025 I0. J-0.6
Y121.35 Z0. I0. J0.6
Y120.15 Z-0.025 I0. J-0.6
Y121.35 Z-0.05 I0. J0.6
Y120.15 Z-0.075 I0. J-0.6
Y121.35 Z-0.1 I0. J0.6
Y120.15 Z-0.125 I0. J-0.6
Y121.35 Z-0.15 I0. J0.6
Y120.15 Z-0.175 I0. J-0.6
Y121.35 Z-0.2 I0. J0.6
Y120.15 Z-0.225 I0. J-0.6
Y121.35 Z-0.25 I0. J0.6
Y120.15 Z-0.275 I0. J-0.6
Y121.35 Z-0.3 I0. J0.6
Y120.15 Z-0.325 I0. J-0.6
Y121.35 Z-0.35 I0. J0.6
Y120.15 Z-0.375 I0. J-0.6
Y121.35 Z-0.4 I0. J0.6
Y120.15 Z-0.425 I0. J-0.6
Y121.35 Z-0.45 I0. J0.6
Y120.15 Z-0.475 I0. J-0.6
Y121.35 Z-0.5 I0. J0.6
Y120.15 Z-0.525 I0. J-0.6
Y121.35 Z-0.55 I0. J0.6
Y120.15 Z-0.575 I0. J-0.6
Y121.35 Z-0.6 I0. J0.6
Y120.15 Z-0.625 I0. J-0.6
Y121.35 Z-0.65 I0. J0.6
Y120.15 Z-0.675 I0. J-0.6
Y121.35 Z-0.7 I0. J0.6
Y120.15 Z-0.725 I0. J-0.6
Y121.35 Z-0.75 I0. J0.6
Y120.15 Z-0.775 I0. J-0.6
Y121.35 Z-0.8 I0. J0.6
Y120.15 Z-0.825 I0. J-0.6
Y121.35 Z-0.85 I0. J0.6
Y120.15 Z-0.875 I0. J-0.6
Y121.35 Z-0.9 I0. J0.6
Y120.15 Z-0.925 I0. J-0.6
Y121.35 Z-0.95 I0. J0.6
Y120.15 Z-0.975 I0. J-0.6
Y121.35 Z-1. I0. J0.6
Y120.15 Z-1.025 I0. J-0.6
Y121.35 Z-1.05 I0. J0.6
Y120.15 Z-1.075 I0. J-0.6
Y121.35 Z-1.1 I0. J0.6
Y120.15 Z-1.125 I0. J-0.6
Y121.35 Z-1.15 I0. J0.6
Y120.15 Z-1.175 I0. J-0.6
Y121.35 Z-1.2 I0. J0.6
Y120.15 Z-1.225 I0. J-0.6
Y121.35 Z-1.25 I0. J0.6
Y120.15 Z-1.275 I0. J-0.6
Y121.35 Z-1.3 I0. J0.6
Y120.15 Z-1.325 I0. J-0.6
Y121.35 Z-1.35 I0. J0.6
Y120.15 Z-1.375 I0. J-0.6
Y121.35 Z-1.4 I0. J0.6
Y120.15 Z-1.425 I0. J-0.6
Y121.35 Z-1.45 I0. J0.6
Y120.15 Z-1.475 I0. J-0.6
Y121.35 Z-1.5 I0. J0.6
Y120.15 Z-1.525 I0. J-0.6
Y121.35 Z-1.55 I0. J0.6
Y120.15 Z-1.575 I0. J-0.6
Y121.35 Z-1.6 I0. J0.6
Y120.15 Z-1.625 I0. J-0.6
Y121.35 Z-1.65 I0. J0.6
Y120.15 Z-1.675 I0. J-0.6
Y121.35 Z-1.7 I0. J0.6
Y120.15 Z-1.725 I0. J-0.6
Y121.35 Z-1.75 I0. J0.6
Y120.15 Z-1.775 I0. J-0.6
Y121.35 Z-1.8 I0. J0.6
Y120.15 Z-1.825 I0. J-0.6
Y121.35 Z-1.85 I0. J0.6
Y120.15 Z-1.875 I0. J-0.6
Y121.35 Z-1.9 I0. J0.6
Y120.15 Z-1.925 I0. J-0.6
Y121.35 Z-1.95 I0. J0.6
Y120.15 Z-1.975 I0. J-0.6
Y121.35 Z-2. I0. J0.6
Y120.15 Z-2.025 I0. J-0.6
Y121.35 Z-2.05 I0. J0.6
Y120.15 Z-2.075 I0. J-0.6
Y121.35 Z-2.1 I0. J0.6
Y120.15 Z-2.125 I0. J-0.6
Y121.35 Z-2.15 I0. J0.6
Y120.15 Z-2.175 I0. J-0.6
Y121.35 Z-2.2 I0. J0.6
Y120.15 Z-2.225 I0. J-0.6
Y121.35 Z-2.25 I0. J0.6
Y120.15 Z-2.275 I0. J-0.6
Y121.35 Z-2.3 I0. J0.6
Y120.15 Z-2.325 I0. J-0.6
Y121.35 Z-2.35 I0. J0.6
Y120.15 Z-2.375 I0. J-0.6
Y121.35 Z-2.4 I0. J0.6
Y120.15 Z-2.425 I0. J-0.6
Y121.35 Z-2.45 I0. J0.6
Y120.15 Z-2.475 I0. J-0.6
Y121.35 Z-2.5 I0. J0.6
Y120.15 Z-2.525 I0. J-0.6
Y121.35 Z-2.55 I0. J0.6
Y120.15 Z-2.575 I0. J-0.6
Y121.35 Z-2.6 I0. J0.6
Y120.15 Z-2.625 I0. J-0.6
Y121.35 Z-2.65 I0. J0.6
Y120.15 Z-2.675 I0. J-0.6
Y121.35 Z-2.7 I0. J0.6
Y120.15 Z-2.725 I0. J-0.6
Y121.35 Z-2.75 I0. J0.6
Y120.15 Z-2.775 I0. J-0.6
Y121.35 Z-2.8 I0. J0.6
Y120.15 Z-2.825 I0. J-0.6
Y121.35 Z-2.85 I0. J0.6
Y120.15 Z-2.875 I0. J-0.6
Y121.35 Z-2.9 I0. J0.6
Y120.15 Z-2.925 I0. J-0.6
Y121.35 Z-2.95 I0. J0.6
Y120.15 Z-2.975 I0. J-0.6
Y121.35 Z-3. I0. J0.6
Y120.15 I0. J-0.6 F600.
Y121.35 I0. J0.6
G1 Z1. F900.
G0 X56.5 Y132.1
G1 Z0.1 F30.
G3 Y130.9 Z0.075 I0. J-0.6 F900.
Y132.1 Z0.05 I0. J0.6
Y130.9 Z0.025 I0. J-0.6
Y132.1 Z0. I0. J0.6
Y130.9 Z-0.025 I0. J-0.6
Y132.1 Z-0.05 I0. J0.6
Y130.9 Z-0.075 I0. J-0.6
Y132.1 Z-0.1 I0. J0.6
Y130.9 Z-0.125 I0. J-0.6
Y132.1 Z-0.15 I0. J0.6
Y130.9 Z-0.175 I0. J-0.6
Y132.1 Z-0.2 I0. J0.6
Y130.9 Z-0.225 I0. J-0.6
Y132.1 Z-0.25 I0. J0.6
Y130.9 Z-0.275 I0. J-0.6
Y132.1 Z-0.3 I0. J0.6
Y130.9 Z-0.325 I0. J-0.6
Y132.1 Z-0.35 I0. J0.6
Y130.9 Z-0.375 I0. J-0.6
Y132.1 Z-0.4 I0. J0.6
Y130.9 Z-0.425 I0. J-0.6
Y132.1 Z-0.45 I0. J0.6
Y130.9 Z-0.475 I0. J-0.6
Y132.1 Z-0.5 I0. J0.6
Y130.9 Z-0.525 I0. J-0.6
Y132.1 Z-0.55 I0. J0.6
Y130.9 Z-0.575 I0. J-0.6
Y132.1 Z-0.6 I0. J0.6
Y130.9 Z-0.625 I0. J-0.6
Y132.1 Z-0.65 I0. J0.6
Y130.9 Z-0.675 I0. J-0.6
Y132.1 Z-0.7 I0. J0.6
Y130.9 Z-0.725 I0. J-0.6
Y132.1 Z-0.75 I0. J0.6
Y130.9 Z-0.775 I0. J-0.6
Y132.1 Z-0.8 I0. J0.6
Y130.9 Z-0.825 I0. J-0.6
Y132.1 Z-0.85 I0. J0.6
Y130.9 Z-0.875 I0. J-0.6
Y132.1 Z-0.9 I0. J0.6
Y130.9 Z-0.925 I0. J-0.6
Y132.1 Z-0.95 I0. J0.6
Y130.9 Z-0.975 I0. J-0.6
Y132.1 Z-1. I0. J0.6
Y130.9 Z-1.025 I0. J-0.6
Y132.1 Z-1.05 I0. J0.6
Y130.9 Z-1.075 I0. J-0.6
Y132.1 Z-1.1 I0. J0.6
Y130.9 Z-1.125 I0. J-0.6
Y132.1 Z-1.15 I0. J0.6
Y130.9 Z-1.175 I0. J-0.6
Y132.1 Z-1.2 I0. J0.6
Y130.9 Z-1.225 I0. J-0.6
Y132.1 Z-1.25 I0. J0.6
Y130.9 Z-1.275 I0. J-0.6
Y132.1 Z-1.3 I0. J0.6
Y130.9 Z-1.325 I0. J-0.6
Y132.1 Z-1.35 I0. J0.6
Y130.9 Z-1.375 I0. J-0.6
Y132.1 Z-1.4 I0. J0.6
Y130.9 Z-1.425 I0. J-0.6
Y132.1 Z-1.45 I0. J0.6
Y130.9 Z-1.475 I0. J-0.6
Y132.1 Z-1.5 I0. J0.6
Y130.9 Z-1.525 I0. J-0.6
Y132.1 Z-1.55 I0. J0.6
Y130.9 Z-1.575 I0. J-0.6
Y132.1 Z-1.6 I0. J0.6
Y130.9 Z-1.625 I0. J-0.6
Y132.1 Z-1.65 I0. J0.6
Y130.9 Z-1.675 I0. J-0.6
Y132.1 Z-1.7 I0. J0.6
Y130.9 Z-1.725 I0. J-0.6
Y132.1 Z-1.75 I0. J0.6
Y130.9 Z-1.775 I0. J-0.6
Y132.1 Z-1.8 I0. J0.6
Y130.9 Z-1.825 I0. J-0.6
Y132.1 Z-1.85 I0. J0.6
Y130.9 Z-1.875 I0. J-0.6
Y132.1 Z-1.9 I0. J0.6
Y130.9 Z-1.925 I0. J-0.6
Y132.1 Z-1.95 I0. J0.6
Y130.9 Z-1.975 I0. J-0.6
Y132.1 Z-2. I0. J0.6
Y130.9 Z-2.025 I0. J-0.6
Y132.1 Z-2.05 I0. J0.6
Y130.9 Z-2.075 I0. J-0.6
Y132.1 Z-2.1 I0. J0.6
Y130.9 Z-2.125 I0. J-0.6
Y132.1 Z-2.15 I0. J0.6
Y130.9 Z-2.175 I0. J-0.6
Y132.1 Z-2.2 I0. J0.6
Y130.9 Z-2.225 I0. J-0.6
Y132.1 Z-2.25 I0. J0.6
Y130.9 Z-2.275 I0. J-0.6
Y132.1 Z-2.3 I0. J0.6
Y130.9 Z-2.325 I0. J-0.6
Y132.1 Z-2.35 I0. J0.6
Y130.9 Z-2.375 I0. J-0.6
Y132.1 Z-2.4 I0. J0.6
Y130.9 Z-2.425 I0. J-0.6
Y132.1 Z-2.45 I0. J0.6
Y130.9 Z-2.475 I0. J-0.6
Y132.1 Z-2.5 I0. J0.6
Y130.9 Z-2.525 I0. J-0.6
Y132.1 Z-2.55 I0. J0.6
Y130.9 Z-2.575 I0. J-0.6
Y132.1 Z-2.6 I0. J0.6
Y130.9 Z-2.625 I0. J-0.6
Y132.1 Z-2.65 I0. J0.6
Y130.9 Z-2.675 I0. J-0.6
Y132.1 Z-2.7 I0. J0.6
