(1001)
(T1  D=2. CR=0. - ZMIN=-1. - FLAT END MILL)
G90 G94 G91.1 G40 G49 G17
G21

(2D 1)
M5
M9
T1 M6
S10000 M3
G54
M8
G0 X131.357 Y11.291
G43 Z1.5 H1
Z1.
G1 Z0.1 F30.
G3 X131.536 Y11.314 Z0.092 I0.084 J0.055 F600.
Y11.377 Z0.09 I-0.095 J0.031
X131.346 Z0.081 I-0.095 J-0.031
Y11.314 Z0.079 I0.095 J-0.032
X131.536 Z0.07 I0.095 J0.032
Y11.377 Z0.068 I-0.095 J0.031
X131.346 Z0.059 I-0.095 J-0.031
Y11.314 Z0.057 I0.095 J-0.032
X131.536 Z0.048 I0.095 J0.032
Y11.377 Z0.046 I-0.095 J0.031
X131.346 Z0.037 I-0.095 J-0.031
Y11.314 Z0.035 I0.095 J-0.032
X131.536 Z0.026 I0.095 J0.032
Y11.377 Z0.024 I-0.095 J0.031
X131.346 Z0.015 I-0.095 J-0.031
Y11.314 Z0.013 I0.095 J-0.032
X131.536 Z0.004 I0.095 J0.032
Y11.377 Z0.002 I-0.095 J0.031
X131.346 Z-0.007 I-0.095 J-0.031
Y11.314 Z-0.009 I0.095 J-0.032
X131.536 Z-0.017 I0.095 J0.032
Y11.377 Z-0.02 I-0.095 J0.031
X131.346 Z-0.028 I-0.095 J-0.031
Y11.314 Z-0.031 I0.095 J-0.032
X131.536 Z-0.039 I0.095 J0.032
Y11.377 Z-0.042 I-0.095 J0.031
X131.346 Z-0.05 I-0.095 J-0.031
Y11.314 Z-0.053 I0.095 J-0.032
X131.536 Z-0.061 I0.095 J0.032
Y11.377 Z-0.064 I-0.095 J0.031
X131.346 Z-0.072 I-0.095 J-0.031
Y11.314 Z-0.075 I0.095 J-0.032
X131.536 Z-0.083 I0.095 J0.032
Y11.377 Z-0.086 I-0.095 J0.031
X131.346 Z-0.094 I-0.095 J-0.031
Y11.314 Z-0.096 I0.095 J-0.032
X131.536 Z-0.105 I0.095 J0.032
Y11.377 Z-0.107 I-0.095 J0.031
X131.346 Z-0.116 I-0.095 J-0.031
Y11.314 Z-0.118 I0.095 J-0.032
X131.536 Z-0.127 I0.095 J0.032
Y11.377 Z-0.129 I-0.095 J0.031
X131.346 Z-0.138 I-0.095 J-0.031
Y11.314 Z-0.14 I0.095 J-0.032
X131.536 Z-0.149 I0.095 J0.032
Y11.377 Z-0.151 I-0.095 J0.031
X131.346 Z-0.16 I-0.095 J-0.031
Y11.314 Z-0.162 I0.095 J-0.032
X131.536 Z-0.171 I0.095 J0.032
Y11.377 Z-0.173 I-0.095 J0.031
X131.346 Z-0.182 I-0.095 J-0.031
Y11.314 Z-0.184 I0.095 J-0.032
X131.536 Z-0.193 I0.095 J0.032
Y11.377 Z-0.195 I-0.095 J0.031
X131.346 Z-0.204 I-0.095 J-0.031
Y11.314 Z-0.206 I0.095 J-0.032
X131.536 Z-0.215 I0.095 J0.032
Y11.377 Z-0.217 I-0.095 J0.031
X131.346 Z-0.226 I-0.095 J-0.031
Y11.314 Z-0.228 I0.095 J-0.032
X131.536 Z-0.237 I0.095 J0.032
Y11.377 Z-0.239 I-0.095 J0.031
X131.346 Z-0.248 I-0.095 J-0.031
Y11.314 Z-0.25 I0.095 J-0.032
X131.536 Z-0.259 I0.095 J0.032
Y11.377 Z-0.261 I-0.095 J0.031
X131.346 Z-0.27 I-0.095 J-0.031
Y11.314 Z-0.272 I0.095 J-0.032
X131.536 Z-0.281 I0.095 J0.032
Y11.377 Z-0.283 I-0.095 J0.031
X131.346 Z-0.292 I-0.095 J-0.031
Y11.314 Z-0.294 I0.095 J-0.032
X131.536 Z-0.303 I0.095 J0.032
Y11.377 Z-0.305 I-0.095 J0.031
X131.346 Z-0.314 I-0.095 J-0.031
Y11.314 Z-0.316 I0.095 J-0.032
X131.536 Z-0.325 I0.095 J0.032
Y11.377 Z-0.327 I-0.095 J0.031
X131.346 Z-0.335 I-0.095 J-0.031
Y11.314 Z-0.338 I0.095 J-0.032
X131.536 Z-0.346 I0.095 J0.032
Y11.377 Z-0.349 I-0.095 J0.031
X131.346 Z-0.357 I-0.095 J-0.031
Y11.314 Z-0.36 I0.095 J-0.032
X131.536 Z-0.368 I0.095 J0.032
Y11.377 Z-0.371 I-0.095 J0.031
X131.346 Z-0.379 I-0.095 J-0.031
Y11.314 Z-0.382 I0.095 J-0.032
X131.536 Z-0.39 I0.095 J0.032
Y11.377 Z-0.393 I-0.095 J0.031
X131.346 Z-0.401 I-0.095 J-0.031
Y11.314 Z-0.404 I0.095 J-0.032
X131.536 Z-0.412 I0.095 J0.032
Y11.377 Z-0.414 I-0.095 J0.031
X131.346 Z-0.423 I-0.095 J-0.031
Y11.314 Z-0.425 I0.095 J-0.032
X131.536 Z-0.434 I0.095 J0.032
Y11.377 Z-0.436 I-0.095 J0.031
X131.346 Z-0.445 I-0.095 J-0.031
Y11.314 Z-0.447 I0.095 J-0.032
X131.536 Z-0.456 I0.095 J0.032
Y11.377 Z-0.458 I-0.095 J0.031
X131.346 Z-0.467 I-0.095 J-0.031
Y11.314 Z-0.469 I0.095 J-0.032
X131.536 Z-0.478 I0.095 J0.032
Y11.377 Z-0.48 I-0.095 J0.031
X131.346 Z-0.489 I-0.095 J-0.031
Y11.314 Z-0.491 I0.095 J-0.032
X131.536 Z-0.5 I0.095 J0.032
Y11.377 Z-0.502 I-0.095 J0.031
X131.346 Z-0.511 I-0.095 J-0.031
Y11.314 Z-0.513 I0.095 J-0.032
X131.536 Z-0.522 I0.095 J0.032
Y11.377 Z-0.524 I-0.095 J0.031
X131.346 Z-0.533 I-0.095 J-0.031
Y11.314 Z-0.535 I0.095 J-0.032
X131.536 Z-0.544 I0.095 J0.032
Y11.377 Z-0.546 I-0.095 J0.031
X131.346 Z-0.555 I-0.095 J-0.031
Y11.314 Z-0.557 I0.095 J-0.032
X131.536 Z-0.566 I0.095 J0.032
Y11.377 Z-0.568 I-0.095 J0.031
X131.346 Z-0.577 I-0.095 J-0.031
Y11.314 Z-0.579 I0.095 J-0.032
X131.536 Z-0.588 I0.095 J0.032
Y11.377 Z-0.59 I-0.095 J0.031
X131.346 Z-0.599 I-0.095 J-0.031
Y11.314 Z-0.601 I0.095 J-0.032
X131.536 Z-0.61 I0.095 J0.032
Y11.377 Z-0.612 I-0.095 J0.031
X131.346 Z-0.621 I-0.095 J-0.031
Y11.314 Z-0.623 I0.095 J-0.032
X131.536 Z-0.632 I0.095 J0.032
Y11.377 Z-0.634 I-0.095 J0.031
X131.346 Z-0.643 I-0.095 J-0.031
Y11.314 Z-0.645 I0.095 J-0.032
X131.536 Z-0.653 I0.095 J0.032
Y11.377 Z-0.656 I-0.095 J0.031
X131.346 Z-0.664 I-0.095 J-0.031
Y11.314 Z-0.667 I0.095 J-0.032
X131.536 Z-0.675 I0.095 J0.032
Y11.377 Z-0.678 I-0.095 J0.031
X131.346 Z-0.686 I-0.095 J-0.031
Y11.314 Z-0.689 I0.095 J-0.032
X131.536 Z-0.697 I0.095 J0.032
Y11.377 Z-0.7 I-0.095 J0.031
X131.346 Z-0.708 I-0.095 J-0.031
Y11.314 Z-0.711 I0.095 J-0.032
X131.536 Z-0.719 I0.095 J0.032
Y11.377 Z-0.721 I-0.095 J0.031
X131.346 Z-0.73 I-0.095 J-0.031
Y11.314 Z-0.732 I0.095 J-0.032
X131.536 Z-0.741 I0.095 J0.032
Y11.377 Z-0.743 I-0.095 J0.031
X131.346 Z-0.752 I-0.095 J-0.031
Y11.314 Z-0.754 I0.095 J-0.032
X131.536 Z-0.763 I0.095 J0.032
Y11.377 Z-0.765 I-0.095 J0.031
X131.346 Z-0.774 I-0.095 J-0.031
Y11.314 Z-0.776 I0.095 J-0.032
X131.536 Z-0.785 I0.095 J0.032
Y11.377 Z-0.787 I-0.095 J0.031
X131.346 Z-0.796 I-0.095 J-0.031
Y11.314 Z-0.798 I0.095 J-0.032
X131.536 Z-0.807 I0.095 J0.032
Y11.377 Z-0.809 I-0.095 J0.031
X131.346 Z-0.818 I-0.095 J-0.031
Y11.314 Z-0.82 I0.095 J-0.032
X131.536 Z-0.829 I0.095 J0.032
Y11.377 Z-0.831 I-0.095 J0.031
X131.346 Z-0.84 I-0.095 J-0.031
Y11.314 Z-0.842 I0.095 J-0.032
X131.536 Z-0.851 I0.095 J0.032
Y11.377 Z-0.853 I-0.095 J0.031
X131.346 Z-0.862 I-0.095 J-0.031
Y11.314 Z-0.864 I0.095 J-0.032
X131.536 Z-0.873 I0.095 J0.032
Y11.377 Z-0.875 I-0.095 J0.031
X131.346 Z-0.884 I-0.095 J-0.031
Y11.314 Z-0.886 I0.095 J-0.032
X131.536 Z-0.895 I0.095 J0.032
Y11.377 Z-0.897 I-0.095 J0.031
X131.346 Z-0.906 I-0.095 J-0.031
Y11.314 Z-0.908 I0.095 J-0.032
X131.536 Z-0.917 I0.095 J0.032
Y11.377 Z-0.919 I-0.095 J0.031
X131.346 Z-0.928 I-0.095 J-0.031
Y11.314 Z-0.93 I0.095 J-0.032
X131.536 Z-0.939 I0.095 J0.032
Y11.377 Z-0.941 I-0.095 J0.031
X131.346 Z-0.95 I-0.095 J-0.031
Y11.314 Z-0.952 I0.095 J-0.032
X131.536 Z-0.961 I0.095 J0.032
Y11.377 Z-0.963 I-0.095 J0.031
X131.346 Z-0.971 I-0.095 J-0.031
Y11.314 Z-0.974 I0.095 J-0.032
X131.536 Z-0.982 I0.095 J0.032
Y11.377 Z-0.985 I-0.095 J0.031
X131.346 Z-0.993 I-0.095 J-0.031
Y11.314 Z-0.996 I0.095 J-0.032
X131.441 Y11.245 Z-1. I0.095 J0.032
X131.536 Y11.314 I0. J0.1
Y11.377 I-0.095 J0.031
X131.346 I-0.095 J-0.031
Y11.314 I0.095 J-0.032
X131.441 Y11.245 I0.095 J0.032
G1 Z1.
G0 X132.691 Y5.
G1 Z0.1 F30.
G3 X130.191 Z0.075 I-1.25 J0. F600.
X132.691 Z0.05 I1.25 J0.
X130.191 Z0.025 I-1.25 J0.
X132.691 Z0. I1.25 J0.
X130.191 Z-0.025 I-1.25 J0.
X132.691 Z-0.05 I1.25 J0.
X130.191 Z-0.075 I-1.25 J0.
X132.691 Z-0.1 I1.25 J0.
X130.191 Z-0.125 I-1.25 J0.
X132.691 Z-0.15 I1.25 J0.
X130.191 Z-0.175 I-1.25 J0.
X132.691 Z-0.2 I1.25 J0.
X130.191 Z-0.225 I-1.25 J0.
X132.691 Z-0.25 I1.25 J0.
X130.191 Z-0.275 I-1.25 J0.
X132.691 Z-0.3 I1.25 J0.
X130.191 Z-0.325 I-1.25 J0.
X132.691 Z-0.35 I1.25 J0.
X130.191 Z-0.375 I-1.25 J0.
X132.691 Z-0.4 I1.25 J0.
X130.191 Z-0.425 I-1.25 J0.
X132.691 Z-0.45 I1.25 J0.
X130.191 Z-0.475 I-1.25 J0.
X132.691 Z-0.5 I1.25 J0.
X130.191 Z-0.525 I-1.25 J0.
X132.691 Z-0.55 I1.25 J0.
X130.191 Z-0.575 I-1.25 J0.
X132.691 Z-0.6 I1.25 J0.
X130.191 Z-0.625 I-1.25 J0.
X132.691 Z-0.65 I1.25 J0.
X130.191 Z-0.675 I-1.25 J0.
X132.691 Z-0.7 I1.25 J0.
X130.191 Z-0.725 I-1.25 J0.
X132.691 Z-0.75 I1.25 J0.
X130.191 Z-0.775 I-1.25 J0.
X132.691 Z-0.8 I1.25 J0.
X130.191 Z-0.825 I-1.25 J0.
X132.691 Z-0.85 I1.25 J0.
X130.191 Z-0.875 I-1.25 J0.
X132.691 Z-0.9 I1.25 J0.
X130.191 Z-0.925 I-1.25 J0.
X132.691 Z-0.95 I1.25 J0.
X130.191 Z-0.975 I-1.25 J0.
X132.691 Z-1. I1.25 J0.
X130.191 I-1.25 J0.
X132.691 I1.25 J0.
G1 Z1.
G0 X113.191
G1 Z0.1 F30.
G3 X110.691 Z0.075 I-1.25 J0. F600.
X113.191 Z0.05 I1.25 J0.
X110.691 Z0.025 I-1.25 J0.
X113.191 Z0. I1.25 J0.
X110.691 Z-0.025 I-1.25 J0.
X113.191 Z-0.05 I1.25 J0.
X110.691 Z-0.075 I-1.25 J0.
X113.191 Z-0.1 I1.25 J0.
X110.691 Z-0.125 I-1.25 J0.
X113.191 Z-0.15 I1.25 J0.
X110.691 Z-0.175 I-1.25 J0.
X113.191 Z-0.2 I1.25 J0.
X110.691 Z-0.225 I-1.25 J0.
X113.191 Z-0.25 I1.25 J0.
X110.691 Z-0.275 I-1.25 J0.
X113.191 Z-0.3 I1.25 J0.
X110.691 Z-0.325 I-1.25 J0.
X113.191 Z-0.35 I1.25 J0.
X110.691 Z-0.375 I-1.25 J0.
X113.191 Z-0.4 I1.25 J0.
X110.691 Z-0.425 I-1.25 J0.
X113.191 Z-0.45 I1.25 J0.
X110.691 Z-0.475 I-1.25 J0.
X113.191 Z-0.5 I1.25 J0.
X110.691 Z-0.525 I-1.25 J0.
X113.191 Z-0.55 I1.25 J0.
X110.691 Z-0.575 I-1.25 J0.
X113.191 Z-0.6 I1.25 J0.
X110.691 Z-0.625 I-1.25 J0.
X113.191 Z-0.65 I1.25 J0.
X110.691 Z-0.675 I-1.25 J0.
X113.191 Z-0.7 I1.25 J0.
X110.691 Z-0.725 I-1.25 J0.
X113.191 Z-0.75 I1.25 J0.
X110.691 Z-0.775 I-1.25 J0.
X113.191 Z-0.8 I1.25 J0.
X110.691 Z-0.825 I-1.25 J0.
X113.191 Z-0.85 I1.25 J0.
X110.691 Z-0.875 I-1.25 J0.
X113.191 Z-0.9 I1.25 J0.
X110.691 Z-0.925 I-1.25 J0.
X113.191 Z-0.95 I1.25 J0.
X110.691 Z-0.975 I-1.25 J0.
X113.191 Z-1. I1.25 J0.
X110.691 I-1.25 J0.
X113.191 I1.25 J0.
G1 Z1.
G0 X45.691
G1 Z0.1 F30.
G3 X43.191 Z0.075 I-1.25 J0. F600.
X45.691 Z0.05 I1.25 J0.
X43.191 Z0.025 I-1.25 J0.
X45.691 Z0. I1.25 J0.
X43.191 Z-0.025 I-1.25 J0.
X45.691 Z-0.05 I1.25 J0.
X43.191 Z-0.075 I-1.25 J0.
X45.691 Z-0.1 I1.25 J0.
X43.191 Z-0.125 I-1.25 J0.
X45.691 Z-0.15 I1.25 J0.
X43.191 Z-0.175 I-1.25 J0.
X45.691 Z-0.2 I1.25 J0.
X43.191 Z-0.225 I-1.25 J0.
X45.691 Z-0.25 I1.25 J0.
X43.191 Z-0.275 I-1.25 J0.
X45.691 Z-0.3 I1.25 J0.
X43.191 Z-0.325 I-1.25 J0.
X45.691 Z-0.35 I1.25 J0.
X43.191 Z-0.375 I-1.25 J0.
X45.691 Z-0.4 I1.25 J0.
X43.191 Z-0.425 I-1.25 J0.
X45.691 Z-0.45 I1.25 J0.
X43.191 Z-0.475 I-1.25 J0.
X45.691 Z-0.5 I1.25 J0.
X43.191 Z-0.525 I-1.25 J0.
X45.691 Z-0.55 I1.25 J0.
X43.191 Z-0.575 I-1.25 J0.
X45.691 Z-0.6 I1.25 J0.
X43.191 Z-0.625 I-1.25 J0.
X45.691 Z-0.65 I1.25 J0.
X43.191 Z-0.675 I-1.25 J0.
X45.691 Z-0.7 I1.25 J0.
X43.191 Z-0.725 I-1.25 J0.
X45.691 Z-0.75 I1.25 J0.
X43.191 Z-0.775 I-1.25 J0.
X45.691 Z-0.8 I1.25 J0.
X43.191 Z-0.825 I-1.25 J0.
X45.691 Z-0.85 I1.25 J0.
X43.191 Z-0.875 I-1.25 J0.
X45.691 Z-0.9 I1.25 J0.
X43.191 Z-0.925 I-1.25 J0.
X45.691 Z-0.95 I1.25 J0.
X43.191 Z-0.975 I-1.25 J0.
X45.691 Z-1. I1.25 J0.
X43.191 I-1.25 J0.
X45.691 I1.25 J0.
G1 Z1.
G0 X23.691
G1 Z0.1 F30.
G3 X26.191 Z0.075 I1.25 J0. F600.
X23.691 Z0.05 I-1.25 J0.
X26.191 Z0.025 I1.25 J0.
X23.691 Z0. I-1.25 J0.
X26.191 Z-0.025 I1.25 J0.
X23.691 Z-0.05 I-1.25 J0.
X26.191 Z-0.075 I1.25 J0.
X23.691 Z-0.1 I-1.25 J0.
X26.191 Z-0.125 I1.25 J0.
X23.691 Z-0.15 I-1.25 J0.
X26.191 Z-0.175 I1.25 J0.
X23.691 Z-0.2 I-1.25 J0.
X26.191 Z-0.225 I1.25 J0.
X23.691 Z-0.25 I-1.25 J0.
X26.191 Z-0.275 I1.25 J0.
X23.691 Z-0.3 I-1.25 J0.
X26.191 Z-0.325 I1.25 J0.
X23.691 Z-0.35 I-1.25 J0.
X26.191 Z-0.375 I1.25 J0.
X23.691 Z-0.4 I-1.25 J0.
X26.191 Z-0.425 I1.25 J0.
X23.691 Z-0.45 I-1.25 J0.
X26.191 Z-0.475 I1.25 J0.
X23.691 Z-0.5 I-1.25 J0.
X26.191 Z-0.525 I1.25 J0.
X23.691 Z-0.55 I-1.25 J0.
X26.191 Z-0.575 I1.25 J0.
X23.691 Z-0.6 I-1.25 J0.
X26.191 Z-0.625 I1.25 J0.
X23.691 Z-0.65 I-1.25 J0.
X26.191 Z-0.675 I1.25 J0.
X23.691 Z-0.7 I-1.25 J0.
X26.191 Z-0.725 I1.25 J0.
X23.691 Z-0.75 I-1.25 J0.
X26.191 Z-0.775 I1.25 J0.
X23.691 Z-0.8 I-1.25 J0.
X26.191 Z-0.825 I1.25 J0.
X23.691 Z-0.85 I-1.25 J0.
X26.191 Z-0.875 I1.25 J0.
X23.691 Z-0.9 I-1.25 J0.
X26.191 Z-0.925 I1.25 J0.
X23.691 Z-0.95 I-1.25 J0.
X26.191 Z-0.975 I1.25 J0.
X23.691 Z-1. I-1.25 J0.
X26.191 I1.25 J0.
X23.691 I-1.25 J0.
G1 Z1.
G0 X25.027 Y11.296
G1 Z0.1 F30.
G3 X25.036 Y11.314 Z0.099 I-0.087 J0.05 F600.
Y11.377 Z0.097 I-0.095 J0.031
X24.846 Z0.088 I-0.095 J-0.031
Y11.314 Z0.086 I0.095 J-0.032
X25.036 Z0.077 I0.095 J0.032
Y11.377 Z0.075 I-0.095 J0.031
X24.846 Z0.066 I-0.095 J-0.031
Y11.314 Z0.064 I0.095 J-0.032
X25.036 Z0.055 I0.095 J0.032
Y11.377 Z0.053 I-0.095 J0.031
X24.846 Z0.044 I-0.095 J-0.031
Y11.314 Z0.042 I0.095 J-0.032
X25.036 Z0.033 I0.095 J0.032
Y11.377 Z0.031 I-0.095 J0.031
X24.846 Z0.023 I-0.095 J-0.031
Y11.314 Z0.02 I0.095 J-0.032
X25.036 Z0.012 I0.095 J0.032
Y11.377 Z0.009 I-0.095 J0.031
X24.846 Z0.001 I-0.095 J-0.031
Y11.314 Z-0.002 I0.095 J-0.032
X25.036 Z-0.01 I0.095 J0.032
Y11.377 Z-0.013 I-0.095 J0.031
X24.846 Z-0.021 I-0.095 J-0.031
Y11.314 Z-0.024 I0.095 J-0.032
X25.036 Z-0.032 I0.095 J0.032
Y11.377 Z-0.035 I-0.095 J0.031
X24.846 Z-0.043 I-0.095 J-0.031
Y11.314 Z-0.046 I0.095 J-0.032
X25.036 Z-0.054 I0.095 J0.032
Y11.377 Z-0.057 I-0.095 J0.031
X24.846 Z-0.065 I-0.095 J-0.031
Y11.314 Z-0.068 I0.095 J-0.032
X25.036 Z-0.076 I0.095 J0.032
Y11.377 Z-0.078 I-0.095 J0.031
X24.846 Z-0.087 I-0.095 J-0.031
Y11.314 Z-0.089 I0.095 J-0.032
X25.036 Z-0.098 I0.095 J0.032
Y11.377 Z-0.1 I-0.095 J0.031
X24.846 Z-0.109 I-0.095 J-0.031
Y11.314 Z-0.111 I0.095 J-0.032
X25.036 Z-0.12 I0.095 J0.032
Y11.377 Z-0.122 I-0.095 J0.031
X24.846 Z-0.131 I-0.095 J-0.031
Y11.314 Z-0.133 I0.095 J-0.032
X25.036 Z-0.142 I0.095 J0.032
Y11.377 Z-0.144 I-0.095 J0.031
X24.846 Z-0.153 I-0.095 J-0.031
Y11.314 Z-0.155 I0.095 J-0.032
X25.036 Z-0.164 I0.095 J0.032
Y11.377 Z-0.166 I-0.095 J0.031
X24.846 Z-0.175 I-0.095 J-0.031
Y11.314 Z-0.177 I0.095 J-0.032
X25.036 Z-0.186 I0.095 J0.032
Y11.377 Z-0.188 I-0.095 J0.031
X24.846 Z-0.197 I-0.095 J-0.031
Y11.314 Z-0.199 I0.095 J-0.032
X25.036 Z-0.208 I0.095 J0.032
Y11.377 Z-0.21 I-0.095 J0.031
X24.846 Z-0.219 I-0.095 J-0.031
Y11.314 Z-0.221 I0.095 J-0.032
X25.036 Z-0.23 I0.095 J0.032
Y11.377 Z-0.232 I-0.095 J0.031
X24.846 Z-0.241 I-0.095 J-0.031
Y11.314 Z-0.243 I0.095 J-0.032
X25.036 Z-0.252 I0.095 J0.032
Y11.377 Z-0.254 I-0.095 J0.031
X24.846 Z-0.263 I-0.095 J-0.031
Y11.314 Z-0.265 I0.095 J-0.032
X25.036 Z-0.274 I0.095 J0.032
Y11.377 Z-0.276 I-0.095 J0.031
X24.846 Z-0.285 I-0.095 J-0.031
Y11.314 Z-0.287 I0.095 J-0.032
X25.036 Z-0.296 I0.095 J0.032
Y11.377 Z-0.298 I-0.095 J0.031
X24.846 Z-0.307 I-0.095 J-0.031
Y11.314 Z-0.309 I0.095 J-0.032
X25.036 Z-0.318 I0.095 J0.032
Y11.377 Z-0.32 I-0.095 J0.031
X24.846 Z-0.329 I-0.095 J-0.031
Y11.314 Z-0.331 I0.095 J-0.032
X25.036 Z-0.34 I0.095 J0.032
Y11.377 Z-0.342 I-0.095 J0.031
X24.846 Z-0.35 I-0.095 J-0.031
Y11.314 Z-0.353 I0.095 J-0.032
X25.036 Z-0.361 I0.095 J0.032
Y11.377 Z-0.364 I-0.095 J0.031
X24.846 Z-0.372 I-0.095 J-0.031
Y11.314 Z-0.375 I0.095 J-0.032
X25.036 Z-0.383 I0.095 J0.032
Y11.377 Z-0.386 I-0.095 J0.031
X24.846 Z-0.394 I-0.095 J-0.031
Y11.314 Z-0.397 I0.095 J-0.032
X25.036 Z-0.405 I0.095 J0.032
Y11.377 Z-0.408 I-0.095 J0.031
X24.846 Z-0.416 I-0.095 J-0.031
Y11.314 Z-0.419 I0.095 J-0.032
X25.036 Z-0.427 I0.095 J0.032
Y11.377 Z-0.43 I-0.095 J0.031
X24.846 Z-0.438 I-0.095 J-0.031
Y11.314 Z-0.441 I0.095 J-0.032
X25.036 Z-0.449 I0.095 J0.032
Y11.377 Z-0.451 I-0.095 J0.031
X24.846 Z-0.46 I-0.095 J-0.031
Y11.314 Z-0.462 I0.095 J-0.032
X25.036 Z-0.471 I0.095 J0.032
Y11.377 Z-0.473 I-0.095 J0.031
X24.846 Z-0.482 I-0.095 J-0.031
Y11.314 Z-0.484 I0.095 J-0.032
X25.036 Z-0.493 I0.095 J0.032
Y11.377 Z-0.495 I-0.095 J0.031
X24.846 Z-0.504 I-0.095 J-0.031
Y11.314 Z-0.506 I0.095 J-0.032
X25.036 Z-0.515 I0.095 J0.032
Y11.377 Z-0.517 I-0.095 J0.031
X24.846 Z-0.526 I-0.095 J-0.031
Y11.314 Z-0.528 I0.095 J-0.032
X25.036 Z-0.537 I0.095 J0.032
Y11.377 Z-0.539 I-0.095 J0.031
X24.846 Z-0.548 I-0.095 J-0.031
Y11.314 Z-0.55 I0.095 J-0.032
X25.036 Z-0.559 I0.095 J0.032
Y11.377 Z-0.561 I-0.095 J0.031
X24.846 Z-0.57 I-0.095 J-0.031
Y11.314 Z-0.572 I0.095 J-0.032
X25.036 Z-0.581 I0.095 J0.032
Y11.377 Z-0.583 I-0.095 J0.031
X24.846 Z-0.592 I-0.095 J-0.031
Y11.314 Z-0.594 I0.095 J-0.032
X25.036 Z-0.603 I0.095 J0.032
Y11.377 Z-0.605 I-0.095 J0.031
X24.846 Z-0.614 I-0.095 J-0.031
Y11.314 Z-0.616 I0.095 J-0.032
X25.036 Z-0.625 I0.095 J0.032
Y11.377 Z-0.627 I-0.095 J0.031
X24.846 Z-0.636 I-0.095 J-0.031
Y11.314 Z-0.638 I0.095 J-0.032
X25.036 Z-0.647 I0.095 J0.032
Y11.377 Z-0.649 I-0.095 J0.031
X24.846 Z-0.658 I-0.095 J-0.031
Y11.314 Z-0.66 I0.095 J-0.032
X25.036 Z-0.669 I0.095 J0.032
Y11.377 Z-0.671 I-0.095 J0.031
X24.846 Z-0.68 I-0.095 J-0.031
Y11.314 Z-0.682 I0.095 J-0.032
X25.036 Z-0.691 I0.095 J0.032
Y11.377 Z-0.693 I-0.095 J0.031
X24.846 Z-0.702 I-0.095 J-0.031
Y11.314 Z-0.704 I0.095 J-0.032
X25.036 Z-0.713 I0.095 J0.032
Y11.377 Z-0.715 I-0.095 J0.031
X24.846 Z-0.723 I-0.095 J-0.031
Y11.314 Z-0.726 I0.095 J-0.032
X25.036 Z-0.734 I0.095 J0.032
Y11.377 Z-0.737 I-0.095 J0.031
X24.846 Z-0.745 I-0.095 J-0.031
Y11.314 Z-0.748 I0.095 J-0.032
X25.036 Z-0.756 I0.095 J0.032
Y11.377 Z-0.759 I-0.095 J0.031
X24.846 Z-0.767 I-0.095 J-0.031
Y11.314 Z-0.77 I0.095 J-0.032
X25.036 Z-0.778 I0.095 J0.032
Y11.377 Z-0.781 I-0.095 J0.031
X24.846 Z-0.789 I-0.095 J-0.031
Y11.314 Z-0.792 I0.095 J-0.032
X25.036 Z-0.8 I0.095 J0.032
Y11.377 Z-0.803 I-0.095 J0.031
X24.846 Z-0.811 I-0.095 J-0.031
Y11.314 Z-0.814 I0.095 J-0.032
X25.036 Z-0.822 I0.095 J0.032
Y11.377 Z-0.824 I-0.095 J0.031
X24.846 Z-0.833 I-0.095 J-0.031
Y11.314 Z-0.835 I0.095 J-0.032
X25.036 Z-0.844 I0.095 J0.032
Y11.377 Z-0.846 I-0.095 J0.031
X24.846 Z-0.855 I-0.095 J-0.031
Y11.314 Z-0.857 I0.095 J-0.032
X25.036 Z-0.866 I0.095 J0.032
Y11.377 Z-0.868 I-0.095 J0.031
X24.846 Z-0.877 I-0.095 J-0.031
Y11.314 Z-0.879 I0.095 J-0.032
X25.036 Z-0.888 I0.095 J0.032
Y11.377 Z-0.89 I-0.095 J0.031
X24.846 Z-0.899 I-0.095 J-0.031
Y11.314 Z-0.901 I0.095 J-0.032
X25.036 Z-0.91 I0.095 J0.032
Y11.377 Z-0.912 I-0.095 J0.031
X24.846 Z-0.921 I-0.095 J-0.031
Y11.314 Z-0.923 I0.095 J-0.032
X25.036 Z-0.932 I0.095 J0.032
Y11.377 Z-0.934 I-0.095 J0.031
X24.846 Z-0.943 I-0.095 J-0.031
Y11.314 Z-0.945 I0.095 J-0.032
X25.036 Z-0.954 I0.095 J0.032
Y11.377 Z-0.956 I-0.095 J0.031
X24.846 Z-0.965 I-0.095 J-0.031
Y11.314 Z-0.967 I0.095 J-0.032
X25.036 Z-0.976 I0.095 J0.032
Y11.377 Z-0.978 I-0.095 J0.031
X24.846 Z-0.987 I-0.095 J-0.031
Y11.314 Z-0.989 I0.095 J-0.032
X25.036 Z-0.998 I0.095 J0.032
Y11.377 Z-1. I-0.095 J0.031
X24.846 I-0.095 J-0.031
Y11.314 I0.095 J-0.032
X25.036 I0.095 J0.032
Y11.377 I-0.095 J0.031
G1 Z1.
G0 X11.296 Y19.604
G1 Z0.1 F30.
G3 X11.314 Y19.596 Z0.099 I0.05 J0.087 F600.
X11.377 Z0.097 I0.031 J0.095
Y19.786 Z0.088 I-0.031 J0.095
X11.314 Z0.086 I-0.032 J-0.095
Y19.596 Z0.077 I0.032 J-0.095
X11.377 Z0.075 I0.031 J0.095
Y19.786 Z0.066 I-0.031 J0.095
X11.314 Z0.064 I-0.032 J-0.095
Y19.596 Z0.055 I0.032 J-0.095
X11.377 Z0.053 I0.031 J0.095
Y19.786 Z0.044 I-0.031 J0.095
X11.314 Z0.042 I-0.032 J-0.095
Y19.596 Z0.033 I0.032 J-0.095
X11.377 Z0.031 I0.031 J0.095
Y19.786 Z0.023 I-0.031 J0.095
X11.314 Z0.02 I-0.032 J-0.095
Y19.596 Z0.012 I0.032 J-0.095
X11.377 Z0.009 I0.031 J0.095
Y19.786 Z0.001 I-0.031 J0.095
X11.314 Z-0.002 I-0.032 J-0.095
Y19.596 Z-0.01 I0.032 J-0.095
X11.377 Z-0.013 I0.031 J0.095
Y19.786 Z-0.021 I-0.031 J0.095
X11.314 Z-0.024 I-0.032 J-0.095
Y19.596 Z-0.032 I0.032 J-0.095
X11.377 Z-0.035 I0.031 J0.095
Y19.786 Z-0.043 I-0.031 J0.095
X11.314 Z-0.046 I-0.032 J-0.095
Y19.596 Z-0.054 I0.032 J-0.095
X11.377 Z-0.057 I0.031 J0.095
Y19.786 Z-0.065 I-0.031 J0.095
X11.314 Z-0.068 I-0.032 J-0.095
Y19.596 Z-0.076 I0.032 J-0.095
X11.377 Z-0.078 I0.031 J0.095
Y19.786 Z-0.087 I-0.031 J0.095
X11.314 Z-0.089 I-0.032 J-0.095
Y19.596 Z-0.098 I0.032 J-0.095
X11.377 Z-0.1 I0.031 J0.095
Y19.786 Z-0.109 I-0.031 J0.095
X11.314 Z-0.111 I-0.032 J-0.095
Y19.596 Z-0.12 I0.032 J-0.095
X11.377 Z-0.122 I0.031 J0.095
Y19.786 Z-0.131 I-0.031 J0.095
X11.314 Z-0.133 I-0.032 J-0.095
Y19.596 Z-0.142 I0.032 J-0.095
X11.377 Z-0.144 I0.031 J0.095
Y19.786 Z-0.153 I-0.031 J0.095
X11.314 Z-0.155 I-0.032 J-0.095
Y19.596 Z-0.164 I0.032 J-0.095
X11.377 Z-0.166 I0.031 J0.095
Y19.786 Z-0.175 I-0.031 J0.095
X11.314 Z-0.177 I-0.032 J-0.095
Y19.596 Z-0.186 I0.032 J-0.095
X11.377 Z-0.188 I0.031 J0.095
Y19.786 Z-0.197 I-0.031 J0.095
X11.314 Z-0.199 I-0.032 J-0.095
Y19.596 Z-0.208 I0.032 J-0.095
X11.377 Z-0.21 I0.031 J0.095
Y19.786 Z-0.219 I-0.031 J0.095
X11.314 Z-0.221 I-0.032 J-0.095
Y19.596 Z-0.23 I0.032 J-0.095
X11.377 Z-0.232 I0.031 J0.095
Y19.786 Z-0.241 I-0.031 J0.095
X11.314 Z-0.243 I-0.032 J-0.095
Y19.596 Z-0.252 I0.032 J-0.095
X11.377 Z-0.254 I0.031 J0.095
Y19.786 Z-0.263 I-0.031 J0.095
X11.314 Z-0.265 I-0.032 J-0.095
Y19.596 Z-0.274 I0.032 J-0.095
X11.377 Z-0.276 I0.031 J0.095
Y19.786 Z-0.285 I-0.031 J0.095
X11.314 Z-0.287 I-0.032 J-0.095
Y19.596 Z-0.296 I0.032 J-0.095
X11.377 Z-0.298 I0.031 J0.095
Y19.786 Z-0.307 I-0.031 J0.095
X11.314 Z-0.309 I-0.032 J-0.095
Y19.596 Z-0.318 I0.032 J-0.095
X11.377 Z-0.32 I0.031 J0.095
Y19.786 Z-0.329 I-0.031 J0.095
X11.314 Z-0.331 I-0.032 J-0.095
Y19.596 Z-0.34 I0.032 J-0.095
X11.377 Z-0.342 I0.031 J0.095
Y19.786 Z-0.35 I-0.031 J0.095
X11.314 Z-0.353 I-0.032 J-0.095
Y19.596 Z-0.361 I0.032 J-0.095
X11.377 Z-0.364 I0.031 J0.095
Y19.786 Z-0.372 I-0.031 J0.095
X11.314 Z-0.375 I-0.032 J-0.095
Y19.596 Z-0.383 I0.032 J-0.095
X11.377 Z-0.386 I0.031 J0.095
Y19.786 Z-0.394 I-0.031 J0.095
X11.314 Z-0.397 I-0.032 J-0.095
Y19.596 Z-0.405 I0.032 J-0.095
X11.377 Z-0.408 I0.031 J0.095
Y19.786 Z-0.416 I-0.031 J0.095
X11.314 Z-0.419 I-0.032 J-0.095
Y19.596 Z-0.427 I0.032 J-0.095
X11.377 Z-0.43 I0.031 J0.095
Y19.786 Z-0.438 I-0.031 J0.095
X11.314 Z-0.441 I-0.032 J-0.095
Y19.596 Z-0.449 I0.032 J-0.095
X11.377 Z-0.451 I0.031 J0.095
Y19.786 Z-0.46 I-0.031 J0.095
X11.314 Z-0.462 I-0.032 J-0.095
Y19.596 Z-0.471 I0.032 J-0.095
X11.377 Z-0.473 I0.031 J0.095
Y19.786 Z-0.482 I-0.031 J0.095
X11.314 Z-0.484 I-0.032 J-0.095
Y19.596 Z-0.493 I0.032 J-0.095
X11.377 Z-0.495 I0.031 J0.095
Y19.786 Z-0.504 I-0.031 J0.095
X11.314 Z-0.506 I-0.032 J-0.095
Y19.596 Z-0.515 I0.032 J-0.095
X11.377 Z-0.517 I0.031 J0.095
Y19.786 Z-0.526 I-0.031 J0.095
X11.314 Z-0.528 I-0.032 J-0.095
Y19.596 Z-0.537 I0.032 J-0.095
X11.377 Z-0.539 I0.031 J0.095
Y19.786 Z-0.548 I-0.031 J0.095
X11.314 Z-0.55 I-0.032 J-0.095
Y19.596 Z-0.559 I0.032 J-0.095
X11.377 Z-0.561 I0.031 J0.095
Y19.786 Z-0.57 I-0.031 J0.095
X11.314 Z-0.572 I-0.032 J-0.095
Y19.596 Z-0.581 I0.032 J-0.095
X11.377 Z-0.583 I0.031 J0.095
Y19.786 Z-0.592 I-0.031 J0.095
X11.314 Z-0.594 I-0.032 J-0.095
Y19.596 Z-0.603 I0.032 J-0.095
X11.377 Z-0.605 I0.031 J0.095
Y19.786 Z-0.614 I-0.031 J0.095
X11.314 Z-0.616 I-0.032 J-0.095
Y19.596 Z-0.625 I0.032 J-0.095
X11.377 Z-0.627 I0.031 J0.095
Y19.786 Z-0.636 I-0.031 J0.095
X11.314 Z-0.638 I-0.032 J-0.095
Y19.596 Z-0.647 I0.032 J-0.095
X11.377 Z-0.649 I0.031 J0.095
Y19.786 Z-0.658 I-0.031 J0.095
X11.314 Z-0.66 I-0.032 J-0.095
Y19.596 Z-0.669 I0.032 J-0.095
X11.377 Z-0.671 I0.031 J0.095
Y19.786 Z-0.68 I-0.031 J0.095
X11.314 Z-0.682 I-0.032 J-0.095
Y19.596 Z-0.691 I0.032 J-0.095
X11.377 Z-0.693 I0.031 J0.095
Y19.786 Z-0.702 I-0.031 J0.095
X11.314 Z-0.704 I-0.032 J-0.095
Y19.596 Z-0.713 I0.032 J-0.095
X11.377 Z-0.715 I0.031 J0.095
Y19.786 Z-0.723 I-0.031 J0.095
X11.314 Z-0.726 I-0.032 J-0.095
Y19.596 Z-0.734 I0.032 J-0.095
X11.377 Z-0.737 I0.031 J0.095
Y19.786 Z-0.745 I-0.031 J0.095
X11.314 Z-0.748 I-0.032 J-0.095
Y19.596 Z-0.756 I0.032 J-0.095
X11.377 Z-0.759 I0.031 J0.095
Y19.786 Z-0.767 I-0.031 J0.095
X11.314 Z-0.77 I-0.032 J-0.095
Y19.596 Z-0.778 I0.032 J-0.095
X11.377 Z-0.781 I0.031 J0.095
Y19.786 Z-0.789 I-0.031 J0.095
X11.314 Z-0.792 I-0.032 J-0.095
Y19.596 Z-0.8 I0.032 J-0.095
X11.377 Z-0.803 I0.031 J0.095
Y19.786 Z-0.811 I-0.031 J0.095
X11.314 Z-0.814 I-0.032 J-0.095
Y19.596 Z-0.822 I0.032 J-0.095
X11.377 Z-0.824 I0.031 J0.095
Y19.786 Z-0.833 I-0.031 J0.095
X11.314 Z-0.835 I-0.032 J-0.095
Y19.596 Z-0.844 I0.032 J-0.095
X11.377 Z-0.846 I0.031 J0.095
Y19.786 Z-0.855 I-0.031 J0.095
X11.314 Z-0.857 I-0.032 J-0.095
Y19.596 Z-0.866 I0.032 J-0.095
X11.377 Z-0.868 I0.031 J0.095
Y19.786 Z-0.877 I-0.031 J0.095
X11.314 Z-0.879 I-0.032 J-0.095
Y19.596 Z-0.888 I0.032 J-0.095
X11.377 Z-0.89 I0.031 J0.095
Y19.786 Z-0.899 I-0.031 J0.095
X11.314 Z-0.901 I-0.032 J-0.095
Y19.596 Z-0.91 I0.032 J-0.095
X11.377 Z-0.912 I0.031 J0.095
Y19.786 Z-0.921 I-0.031 J0.095
X11.314 Z-0.923 I-0.032 J-0.095
Y19.596 Z-0.932 I0.032 J-0.095
X11.377 Z-0.934 I0.031 J0.095
Y19.786 Z-0.943 I-0.031 J0.095
X11.314 Z-0.945 I-0.032 J-0.095
Y19.596 Z-0.954 I0.032 J-0.095
X11.377 Z-0.956 I0.031 J0.095
Y19.786 Z-0.965 I-0.031 J0.095
X11.314 Z-0.967 I-0.032 J-0.095
Y19.596 Z-0.976 I0.032 J-0.095
X11.377 Z-0.978 I0.031 J0.095
Y19.786 Z-0.987 I-0.031 J0.095
X11.314 Z-0.989 I-0.032 J-0.095
Y19.596 Z-0.998 I0.032 J-0.095
X11.377 Z-1. I0.031 J0.095
Y19.786 I-0.031 J0.095
X11.314 I-0.032 J-0.095
Y19.596 I0.032 J-0.095
X11.377 I0.031 J0.095
G1 Z1.
G0 X5. Y20.941
G1 Z0.1 F30.
G3 Y18.441 Z0.075 I0. J-1.25 F600.
Y20.941 Z0.05 I0. J1.25
Y18.441 Z0.025 I0. J-1.25
Y20.941 Z0. I0. J1.25
Y18.441 Z-0.025 I0. J-1.25
Y20.941 Z-0.05 I0. J1.25
Y18.441 Z-0.075 I0. J-1.25
Y20.941 Z-0.1 I0. J1.25
Y18.441 Z-0.125 I0. J-1.25
Y20.941 Z-0.15 I0. J1.25
Y18.441 Z-0.175 I0. J-1.25
Y20.941 Z-0.2 I0. J1.25
Y18.441 Z-0.225 I0. J-1.25
Y20.941 Z-0.25 I0. J1.25
Y18.441 Z-0.275 I0. J-1.25
Y20.941 Z-0.3 I0. J1.25
Y18.441 Z-0.325 I0. J-1.25
Y20.941 Z-0.35 I0. J1.25
Y18.441 Z-0.375 I0. J-1.25
Y20.941 Z-0.4 I0. J1.25
Y18.441 Z-0.425 I0. J-1.25
Y20.941 Z-0.45 I0. J1.25
Y18.441 Z-0.475 I0. J-1.25
Y20.941 Z-0.5 I0. J1.25
Y18.441 Z-0.525 I0. J-1.25
Y20.941 Z-0.55 I0. J1.25
Y18.441 Z-0.575 I0. J-1.25
Y20.941 Z-0.6 I0. J1.25
Y18.441 Z-0.625 I0. J-1.25
Y20.941 Z-0.65 I0. J1.25
Y18.441 Z-0.675 I0. J-1.25
Y20.941 Z-0.7 I0. J1.25
Y18.441 Z-0.725 I0. J-1.25
Y20.941 Z-0.75 I0. J1.25
Y18.441 Z-0.775 I0. J-1.25
Y20.941 Z-0.8 I0. J1.25
Y18.441 Z-0.825 I0. J-1.25
Y20.941 Z-0.85 I0. J1.25
Y18.441 Z-0.875 I0. J-1.25
Y20.941 Z-0.9 I0. J1.25
Y18.441 Z-0.925 I0. J-1.25
Y20.941 Z-0.95 I0. J1.25
Y18.441 Z-0.975 I0. J-1.25
Y20.941 Z-1. I0. J1.25
Y18.441 I0. J-1.25
Y20.941 I0. J1.25
G1 Z1.
G0 Y42.941
G1 Z0.1 F30.
G3 Y40.441 Z0.075 I0. J-1.25 F600.
Y42.941 Z0.05 I0. J1.25
Y40.441 Z0.025 I0. J-1.25
Y42.941 Z0. I0. J1.25
Y40.441 Z-0.025 I0. J-1.25
Y42.941 Z-0.05 I0. J1.25
Y40.441 Z-0.075 I0. J-1.25
Y42.941 Z-0.1 I0. J1.25
Y40.441 Z-0.125 I0. J-1.25
Y42.941 Z-0.15 I0. J1.25
Y40.441 Z-0.175 I0. J-1.25
Y42.941 Z-0.2 I0. J1.25
Y40.441 Z-0.225 I0. J-1.25
Y42.941 Z-0.25 I0. J1.25
Y40.441 Z-0.275 I0. J-1.25
Y42.941 Z-0.3 I0. J1.25
Y40.441 Z-0.325 I0. J-1.25
Y42.941 Z-0.35 I0. J1.25
Y40.441 Z-0.375 I0. J-1.25
Y42.941 Z-0.4 I0. J1.25
Y40.441 Z-0.425 I0. J-1.25
Y42.941 Z-0.45 I0. J1.25
Y40.441 Z-0.475 I0. J-1.25
Y42.941 Z-0.5 I0. J1.25
Y40.441 Z-0.525 I0. J-1.25
Y42.941 Z-0.55 I0. J1.25
Y40.441 Z-0.575 I0. J-1.25
Y42.941 Z-0.6 I0. J1.25
Y40.441 Z-0.625 I0. J-1.25
Y42.941 Z-0.65 I0. J1.25
Y40.441 Z-0.675 I0. J-1.25
Y42.941 Z-0.7 I0. J1.25
Y40.441 Z-0.725 I0. J-1.25
Y42.941 Z-0.75 I0. J1.25
Y40.441 Z-0.775 I0. J-1.25
Y42.941 Z-0.8 I0. J1.25
Y40.441 Z-0.825 I0. J-1.25
Y42.941 Z-0.85 I0. J1.25
Y40.441 Z-0.875 I0. J-1.25
Y42.941 Z-0.9 I0. J1.25
Y40.441 Z-0.925 I0. J-1.25
Y42.941 Z-0.95 I0. J1.25
Y40.441 Z-0.975 I0. J-1.25
Y42.941 Z-1. I0. J1.25
Y40.441 I0. J-1.25
Y42.941 I0. J1.25
G1 Z1.
G0 X11.295 Y41.605
G1 Z0.1 F30.
G3 X11.314 Y41.596 Z0.099 I0.051 J0.086 F600.
X11.377 Z0.097 I0.031 J0.095
Y41.786 Z0.088 I-0.031 J0.095
X11.314 Z0.086 I-0.032 J-0.095
Y41.596 Z0.077 I0.032 J-0.095
X11.377 Z0.075 I0.031 J0.095
Y41.786 Z0.066 I-0.031 J0.095
X11.314 Z0.064 I-0.032 J-0.095
Y41.596 Z0.055 I0.032 J-0.095
X11.377 Z0.053 I0.031 J0.095
Y41.786 Z0.044 I-0.031 J0.095
X11.314 Z0.042 I-0.032 J-0.095
Y41.596 Z0.033 I0.032 J-0.095
X11.377 Z0.031 I0.031 J0.095
Y41.786 Z0.022 I-0.031 J0.095
X11.314 Z0.02 I-0.032 J-0.095
Y41.596 Z0.011 I0.032 J-0.095
X11.377 Z0.009 I0.031 J0.095
Y41.786 Z0.001 I-0.031 J0.095
X11.314 Z-0.002 I-0.032 J-0.095
Y41.596 Z-0.01 I0.032 J-0.095
X11.377 Z-0.013 I0.031 J0.095
Y41.786 Z-0.021 I-0.031 J0.095
X11.314 Z-0.024 I-0.032 J-0.095
Y41.596 Z-0.032 I0.032 J-0.095
X11.377 Z-0.035 I0.031 J0.095
Y41.786 Z-0.043 I-0.031 J0.095
X11.314 Z-0.046 I-0.032 J-0.095
Y41.596 Z-0.054 I0.032 J-0.095
X11.377 Z-0.057 I0.031 J0.095
Y41.786 Z-0.065 I-0.031 J0.095
X11.314 Z-0.068 I-0.032 J-0.095
Y41.596 Z-0.076 I0.032 J-0.095
X11.377 Z-0.079 I0.031 J0.095
Y41.786 Z-0.087 I-0.031 J0.095
X11.314 Z-0.089 I-0.032 J-0.095
Y41.596 Z-0.098 I0.032 J-0.095
X11.377 Z-0.1 I0.031 J0.095
Y41.786 Z-0.109 I-0.031 J0.095
X11.314 Z-0.111 I-0.032 J-0.095
Y41.596 Z-0.12 I0.032 J-0.095
X11.377 Z-0.122 I0.031 J0.095
Y41.786 Z-0.131 I-0.031 J0.095
X11.314 Z-0.133 I-0.032 J-0.095
Y41.596 Z-0.142 I0.032 J-0.095
X11.377 Z-0.144 I0.031 J0.095
Y41.786 Z-0.153 I-0.031 J0.095
X11.314 Z-0.155 I-0.032 J-0.095
Y41.596 Z-0.164 I0.032 J-0.095
X11.377 Z-0.166 I0.031 J0.095
Y41.786 Z-0.175 I-0.031 J0.095
X11.314 Z-0.177 I-0.032 J-0.095
Y41.596 Z-0.186 I0.032 J-0.095
X11.377 Z-0.188 I0.031 J0.095
Y41.786 Z-0.197 I-0.031 J0.095
X11.314 Z-0.199 I-0.032 J-0.095
Y41.596 Z-0.208 I0.032 J-0.095
X11.377 Z-0.21 I0.031 J0.095
Y41.786 Z-0.219 I-0.031 J0.095
X11.314 Z-0.221 I-0.032 J-0.095
Y41.596 Z-0.23 I0.032 J-0.095
X11.377 Z-0.232 I0.031 J0.095
Y41.786 Z-0.241 I-0.031 J0.095
X11.314 Z-0.243 I-0.032 J-0.095
Y41.596 Z-0.252 I0.032 J-0.095
X11.377 Z-0.254 I0.031 J0.095
Y41.786 Z-0.263 I-0.031 J0.095
X11.314 Z-0.265 I-0.032 J-0.095
Y41.596 Z-0.274 I0.032 J-0.095
X11.377 Z-0.276 I0.031 J0.095
Y41.786 Z-0.285 I-0.031 J0.095
X11.314 Z-0.287 I-0.032 J-0.095
Y41.596 Z-0.296 I0.032 J-0.095
X11.377 Z-0.298 I0.031 J0.095
Y41.786 Z-0.307 I-0.031 J0.095
X11.314 Z-0.309 I-0.032 J-0.095
Y41.596 Z-0.318 I0.032 J-0.095
X11.377 Z-0.32 I0.031 J0.095
Y41.786 Z-0.329 I-0.031 J0.095
X11.314 Z-0.331 I-0.032 J-0.095
Y41.596 Z-0.34 I0.032 J-0.095
X11.377 Z-0.342 I0.031 J0.095
Y41.786 Z-0.351 I-0.031 J0.095
X11.314 Z-0.353 I-0.032 J-0.095
Y41.596 Z-0.361 I0.032 J-0.095
X11.377 Z-0.364 I0.031 J0.095
Y41.786 Z-0.372 I-0.031 J0.095
X11.314 Z-0.375 I-0.032 J-0.095
Y41.596 Z-0.383 I0.032 J-0.095
X11.377 Z-0.386 I0.031 J0.095
Y41.786 Z-0.394 I-0.031 J0.095
X11.314 Z-0.397 I-0.032 J-0.095
Y41.596 Z-0.405 I0.032 J-0.095
X11.377 Z-0.408 I0.031 J0.095
Y41.786 Z-0.416 I-0.031 J0.095
X11.314 Z-0.419 I-0.032 J-0.095
Y41.596 Z-0.427 I0.032 J-0.095
X11.377 Z-0.43 I0.031 J0.095
Y41.786 Z-0.438 I-0.031 J0.095
X11.314 Z-0.441 I-0.032 J-0.095
Y41.596 Z-0.449 I0.032 J-0.095
X11.377 Z-0.451 I0.031 J0.095
Y41.786 Z-0.46 I-0.031 J0.095
X11.314 Z-0.462 I-0.032 J-0.095
Y41.596 Z-0.471 I0.032 J-0.095
X11.377 Z-0.473 I0.031 J0.095
Y41.786 Z-0.482 I-0.031 J0.095
X11.314 Z-0.484 I-0.032 J-0.095
Y41.596 Z-0.493 I0.032 J-0.095
X11.377 Z-0.495 I0.031 J0.095
Y41.786 Z-0.504 I-0.031 J0.095
X11.314 Z-0.506 I-0.032 J-0.095
Y41.596 Z-0.515 I0.032 J-0.095
X11.377 Z-0.517 I0.031 J0.095
Y41.786 Z-0.526 I-0.031 J0.095
X11.314 Z-0.528 I-0.032 J-0.095
Y41.596 Z-0.537 I0.032 J-0.095
X11.377 Z-0.539 I0.031 J0.095
Y41.786 Z-0.548 I-0.031 J0.095
X11.314 Z-0.55 I-0.032 J-0.095
Y41.596 Z-0.559 I0.032 J-0.095
X11.377 Z-0.561 I0.031 J0.095
Y41.786 Z-0.57 I-0.031 J0.095
X11.314 Z-0.572 I-0.032 J-0.095
Y41.596 Z-0.581 I0.032 J-0.095
X11.377 Z-0.583 I0.031 J0.095
Y41.786 Z-0.592 I-0.031 J0.095
X11.314 Z-0.594 I-0.032 J-0.095
Y41.596 Z-0.603 I0.032 J-0.095
X11.377 Z-0.605 I0.031 J0.095
Y41.786 Z-0.614 I-0.031 J0.095
X11.314 Z-0.616 I-0.032 J-0.095
Y41.596 Z-0.625 I0.032 J-0.095
X11.377 Z-0.627 I0.031 J0.095
Y41.786 Z-0.636 I-0.031 J0.095
X11.314 Z-0.638 I-0.032 J-0.095
Y41.596 Z-0.647 I0.032 J-0.095
X11.377 Z-0.649 I0.031 J0.095
Y41.786 Z-0.658 I-0.031 J0.095
X11.314 Z-0.66 I-0.032 J-0.095
Y41.596 Z-0.669 I0.032 J-0.095
X11.377 Z-0.671 I0.031 J0.095
Y41.786 Z-0.68 I-0.031 J0.095
X11.314 Z-0.682 I-0.032 J-0.095
Y41.596 Z-0.691 I0.032 J-0.095
X11.377 Z-0.693 I0.031 J0.095
Y41.786 Z-0.702 I-0.031 J0.095
X11.314 Z-0.704 I-0.032 J-0.095
Y41.596 Z-0.713 I0.032 J-0.095
X11.377 Z-0.715 I0.031 J0.095
Y41.786 Z-0.724 I-0.031 J0.095
X11.314 Z-0.726 I-0.032 J-0.095
Y41.596 Z-0.734 I0.032 J-0.095
X11.377 Z-0.737 I0.031 J0.095
Y41.786 Z-0.745 I-0.031 J0.095
X11.314 Z-0.748 I-0.032 J-0.095
Y41.596 Z-0.756 I0.032 J-0.095
X11.377 Z-0.759 I0.031 J0.095
Y41.786 Z-0.767 I-0.031 J0.095
X11.314 Z-0.77 I-0.032 J-0.095
Y41.596 Z-0.778 I0.032 J-0.095
X11.377 Z-0.781 I0.031 J0.095
Y41.786 Z-0.789 I-0.031 J0.095
X11.314 Z-0.792 I-0.032 J-0.095
Y41.596 Z-0.8 I0.032 J-0.095
X11.377 Z-0.803 I0.031 J0.095
Y41.786 Z-0.811 I-0.031 J0.095
X11.314 Z-0.814 I-0.032 J-0.095
Y41.596 Z-0.822 I0.032 J-0.095
X11.377 Z-0.824 I0.031 J0.095
Y41.786 Z-0.833 I-0.031 J0.095
X11.314 Z-0.835 I-0.032 J-0.095
Y41.596 Z-0.844 I0.032 J-0.095
X11.377 Z-0.846 I0.031 J0.095
Y41.786 Z-0.855 I-0.031 J0.095
X11.314 Z-0.857 I-0.032 J-0.095
Y41.596 Z-0.866 I0.032 J-0.095
X11.377 Z-0.868 I0.031 J0.095
Y41.786 Z-0.877 I-0.031 J0.095
X11.314 Z-0.879 I-0.032 J-0.095
Y41.596 Z-0.888 I0.032 J-0.095
X11.377 Z-0.89 I0.031 J0.095
Y41.786 Z-0.899 I-0.031 J0.095
X11.314 Z-0.901 I-0.032 J-0.095
Y41.596 Z-0.91 I0.032 J-0.095
X11.377 Z-0.912 I0.031 J0.095
Y41.786 Z-0.921 I-0.031 J0.095
X11.314 Z-0.923 I-0.032 J-0.095
Y41.596 Z-0.932 I0.032 J-0.095
X11.377 Z-0.934 I0.031 J0.095
Y41.786 Z-0.943 I-0.031 J0.095
X11.314 Z-0.945 I-0.032 J-0.095
Y41.596 Z-0.954 I0.032 J-0.095
X11.377 Z-0.956 I0.031 J0.095
Y41.786 Z-0.965 I-0.031 J0.095
X11.314 Z-0.967 I-0.032 J-0.095
Y41.596 Z-0.976 I0.032 J-0.095
X11.377 Z-0.978 I0.031 J0.095
Y41.786 Z-0.987 I-0.031 J0.095
X11.314 Z-0.989 I-0.032 J-0.095
Y41.596 Z-0.998 I0.032 J-0.095
X11.377 Z-1. I0.031 J0.095
Y41.786 I-0.031 J0.095
X11.314 I-0.032 J-0.095
Y41.596 I0.032 J-0.095
X11.377 I0.031 J0.095
G1 Z1.
G0 X24.841 Y50.042
G1 Z0.1 F30.
G3 X24.846 Y50.005 Z0.099 I0.1 J-0.006 F600.
X25.036 Z0.09 I0.095 J0.032
Y50.068 Z0.088 I-0.095 J0.031
X24.846 Z0.079 I-0.095 J-0.031
Y50.005 Z0.077 I0.095 J-0.032
X25.036 Z0.068 I0.095 J0.032
Y50.068 Z0.066 I-0.095 J0.031
X24.846 Z0.057 I-0.095 J-0.031
Y50.005 Z0.055 I0.095 J-0.032
X25.036 Z0.046 I0.095 J0.032
Y50.068 Z0.044 I-0.095 J0.031
X24.846 Z0.035 I-0.095 J-0.031
Y50.005 Z0.033 I0.095 J-0.032
X25.036 Z0.024 I0.095 J0.032
Y50.068 Z0.022 I-0.095 J0.031
X24.846 Z0.013 I-0.095 J-0.031
Y50.005 Z0.011 I0.095 J-0.032
X25.036 Z0.002 I0.095 J0.032
Y50.068 Z0. I-0.095 J0.031
X24.846 Z-0.009 I-0.095 J-0.031
Y50.005 Z-0.011 I0.095 J-0.032
X25.036 Z-0.02 I0.095 J0.032
Y50.068 Z-0.022 I-0.095 J0.031
X24.846 Z-0.031 I-0.095 J-0.031
Y50.005 Z-0.033 I0.095 J-0.032
X25.036 Z-0.042 I0.095 J0.032
Y50.068 Z-0.044 I-0.095 J0.031
X24.846 Z-0.053 I-0.095 J-0.031
Y50.005 Z-0.055 I0.095 J-0.032
X25.036 Z-0.064 I0.095 J0.032
Y50.068 Z-0.066 I-0.095 J0.031
X24.846 Z-0.075 I-0.095 J-0.031
Y50.005 Z-0.077 I0.095 J-0.032
X25.036 Z-0.086 I0.095 J0.032
Y50.068 Z-0.088 I-0.095 J0.031
X24.846 Z-0.097 I-0.095 J-0.031
Y50.005 Z-0.099 I0.095 J-0.032
X25.036 Z-0.108 I0.095 J0.032
Y50.068 Z-0.11 I-0.095 J0.031
X24.846 Z-0.118 I-0.095 J-0.031
Y50.005 Z-0.121 I0.095 J-0.032
X25.036 Z-0.129 I0.095 J0.032
Y50.068 Z-0.132 I-0.095 J0.031
X24.846 Z-0.14 I-0.095 J-0.031
Y50.005 Z-0.143 I0.095 J-0.032
X25.036 Z-0.151 I0.095 J0.032
Y50.068 Z-0.154 I-0.095 J0.031
X24.846 Z-0.162 I-0.095 J-0.031
Y50.005 Z-0.165 I0.095 J-0.032
X25.036 Z-0.173 I0.095 J0.032
Y50.068 Z-0.176 I-0.095 J0.031
X24.846 Z-0.184 I-0.095 J-0.031
Y50.005 Z-0.187 I0.095 J-0.032
X25.036 Z-0.195 I0.095 J0.032
Y50.068 Z-0.198 I-0.095 J0.031
X24.846 Z-0.206 I-0.095 J-0.031
Y50.005 Z-0.208 I0.095 J-0.032
X25.036 Z-0.217 I0.095 J0.032
Y50.068 Z-0.219 I-0.095 J0.031
X24.846 Z-0.228 I-0.095 J-0.031
Y50.005 Z-0.23 I0.095 J-0.032
X25.036 Z-0.239 I0.095 J0.032
Y50.068 Z-0.241 I-0.095 J0.031
X24.846 Z-0.25 I-0.095 J-0.031
Y50.005 Z-0.252 I0.095 J-0.032
X25.036 Z-0.261 I0.095 J0.032
Y50.068 Z-0.263 I-0.095 J0.031
X24.846 Z-0.272 I-0.095 J-0.031
Y50.005 Z-0.274 I0.095 J-0.032
X25.036 Z-0.283 I0.095 J0.032
Y50.068 Z-0.285 I-0.095 J0.031
X24.846 Z-0.294 I-0.095 J-0.031
Y50.005 Z-0.296 I0.095 J-0.032
X25.036 Z-0.305 I0.095 J0.032
Y50.068 Z-0.307 I-0.095 J0.031
X24.846 Z-0.316 I-0.095 J-0.031
Y50.005 Z-0.318 I0.095 J-0.032
X25.036 Z-0.327 I0.095 J0.032
Y50.068 Z-0.329 I-0.095 J0.031
X24.846 Z-0.338 I-0.095 J-0.031
Y50.005 Z-0.34 I0.095 J-0.032
X25.036 Z-0.349 I0.095 J0.032
Y50.068 Z-0.351 I-0.095 J0.031
X24.846 Z-0.36 I-0.095 J-0.031
Y50.005 Z-0.362 I0.095 J-0.032
X25.036 Z-0.371 I0.095 J0.032
Y50.068 Z-0.373 I-0.095 J0.031
X24.846 Z-0.382 I-0.095 J-0.031
Y50.005 Z-0.384 I0.095 J-0.032
X25.036 Z-0.393 I0.095 J0.032
Y50.068 Z-0.395 I-0.095 J0.031
X24.846 Z-0.404 I-0.095 J-0.031
Y50.005 Z-0.406 I0.095 J-0.032
X25.036 Z-0.415 I0.095 J0.032
Y50.068 Z-0.417 I-0.095 J0.031
X24.846 Z-0.426 I-0.095 J-0.031
Y50.005 Z-0.428 I0.095 J-0.032
X25.036 Z-0.437 I0.095 J0.032
Y50.068 Z-0.439 I-0.095 J0.031
X24.846 Z-0.448 I-0.095 J-0.031
Y50.005 Z-0.45 I0.095 J-0.032
X25.036 Z-0.459 I0.095 J0.032
Y50.068 Z-0.461 I-0.095 J0.031
X24.846 Z-0.47 I-0.095 J-0.031
Y50.005 Z-0.472 I0.095 J-0.032
X25.036 Z-0.481 I0.095 J0.032
Y50.068 Z-0.483 I-0.095 J0.031
X24.846 Z-0.491 I-0.095 J-0.031
Y50.005 Z-0.494 I0.095 J-0.032
X25.036 Z-0.502 I0.095 J0.032
Y50.068 Z-0.505 I-0.095 J0.031
X24.846 Z-0.513 I-0.095 J-0.031
Y50.005 Z-0.516 I0.095 J-0.032
X25.036 Z-0.524 I0.095 J0.032
Y50.068 Z-0.527 I-0.095 J0.031
X24.846 Z-0.535 I-0.095 J-0.031
Y50.005 Z-0.538 I0.095 J-0.032
X25.036 Z-0.546 I0.095 J0.032
Y50.068 Z-0.549 I-0.095 J0.031
X24.846 Z-0.557 I-0.095 J-0.031
Y50.005 Z-0.56 I0.095 J-0.032
X25.036 Z-0.568 I0.095 J0.032
Y50.068 Z-0.571 I-0.095 J0.031
X24.846 Z-0.579 I-0.095 J-0.031
Y50.005 Z-0.581 I0.095 J-0.032
X25.036 Z-0.59 I0.095 J0.032
Y50.068 Z-0.592 I-0.095 J0.031
X24.846 Z-0.601 I-0.095 J-0.031
Y50.005 Z-0.603 I0.095 J-0.032
X25.036 Z-0.612 I0.095 J0.032
Y50.068 Z-0.614 I-0.095 J0.031
X24.846 Z-0.623 I-0.095 J-0.031
Y50.005 Z-0.625 I0.095 J-0.032
X25.036 Z-0.634 I0.095 J0.032
Y50.068 Z-0.636 I-0.095 J0.031
X24.846 Z-0.645 I-0.095 J-0.031
Y50.005 Z-0.647 I0.095 J-0.032
X25.036 Z-0.656 I0.095 J0.032
Y50.068 Z-0.658 I-0.095 J0.031
X24.846 Z-0.667 I-0.095 J-0.031
Y50.005 Z-0.669 I0.095 J-0.032
X25.036 Z-0.678 I0.095 J0.032
Y50.068 Z-0.68 I-0.095 J0.031
X24.846 Z-0.689 I-0.095 J-0.031
Y50.005 Z-0.691 I0.095 J-0.032
X25.036 Z-0.7 I0.095 J0.032
Y50.068 Z-0.702 I-0.095 J0.031
X24.846 Z-0.711 I-0.095 J-0.031
Y50.005 Z-0.713 I0.095 J-0.032
X25.036 Z-0.722 I0.095 J0.032
Y50.068 Z-0.724 I-0.095 J0.031
X24.846 Z-0.733 I-0.095 J-0.031
Y50.005 Z-0.735 I0.095 J-0.032
X25.036 Z-0.744 I0.095 J0.032
Y50.068 Z-0.746 I-0.095 J0.031
X24.846 Z-0.755 I-0.095 J-0.031
Y50.005 Z-0.757 I0.095 J-0.032
X25.036 Z-0.766 I0.095 J0.032
Y50.068 Z-0.768 I-0.095 J0.031
X24.846 Z-0.777 I-0.095 J-0.031
Y50.005 Z-0.779 I0.095 J-0.032
X25.036 Z-0.788 I0.095 J0.032
Y50.068 Z-0.79 I-0.095 J0.031
X24.846 Z-0.799 I-0.095 J-0.031
Y50.005 Z-0.801 I0.095 J-0.032
X25.036 Z-0.81 I0.095 J0.032
Y50.068 Z-0.812 I-0.095 J0.031
X24.846 Z-0.821 I-0.095 J-0.031
Y50.005 Z-0.823 I0.095 J-0.032
X25.036 Z-0.832 I0.095 J0.032
Y50.068 Z-0.834 I-0.095 J0.031
X24.846 Z-0.843 I-0.095 J-0.031
Y50.005 Z-0.845 I0.095 J-0.032
X25.036 Z-0.854 I0.095 J0.032
Y50.068 Z-0.856 I-0.095 J0.031
X24.846 Z-0.864 I-0.095 J-0.031
Y50.005 Z-0.867 I0.095 J-0.032
X25.036 Z-0.875 I0.095 J0.032
Y50.068 Z-0.878 I-0.095 J0.031
X24.846 Z-0.886 I-0.095 J-0.031
Y50.005 Z-0.889 I0.095 J-0.032
X25.036 Z-0.897 I0.095 J0.032
Y50.068 Z-0.9 I-0.095 J0.031
X24.846 Z-0.908 I-0.095 J-0.031
Y50.005 Z-0.911 I0.095 J-0.032
X25.036 Z-0.919 I0.095 J0.032
Y50.068 Z-0.922 I-0.095 J0.031
X24.846 Z-0.93 I-0.095 J-0.031
Y50.005 Z-0.933 I0.095 J-0.032
X25.036 Z-0.941 I0.095 J0.032
Y50.068 Z-0.944 I-0.095 J0.031
X24.846 Z-0.952 I-0.095 J-0.031
Y50.005 Z-0.954 I0.095 J-0.032
X25.036 Z-0.963 I0.095 J0.032
Y50.068 Z-0.965 I-0.095 J0.031
X24.846 Z-0.974 I-0.095 J-0.031
Y50.005 Z-0.976 I0.095 J-0.032
X25.036 Z-0.985 I0.095 J0.032
Y50.068 Z-0.987 I-0.095 J0.031
X24.846 Z-0.996 I-0.095 J-0.031
Y50.005 Z-0.998 I0.095 J-0.032
X24.87 Y49.965 Z-1. I0.095 J0.032
X25.036 Y50.005 I0.071 J0.071
Y50.068 I-0.095 J0.031
X24.846 I-0.095 J-0.031
Y50.005 I0.095 J-0.032
X24.87 Y49.965 I0.095 J0.032
G1 Z1.
G0 X23.691 Y56.381
G1 Z0.1 F30.
G3 X26.191 Z0.075 I1.25 J0. F600.
X23.691 Z0.05 I-1.25 J0.
X26.191 Z0.025 I1.25 J0.
X23.691 Z0. I-1.25 J0.
X26.191 Z-0.025 I1.25 J0.
X23.691 Z-0.05 I-1.25 J0.
X26.191 Z-0.075 I1.25 J0.
X23.691 Z-0.1 I-1.25 J0.
X26.191 Z-0.125 I1.25 J0.
X23.691 Z-0.15 I-1.25 J0.
X26.191 Z-0.175 I1.25 J0.
X23.691 Z-0.2 I-1.25 J0.
X26.191 Z-0.225 I1.25 J0.
X23.691 Z-0.25 I-1.25 J0.
X26.191 Z-0.275 I1.25 J0.
X23.691 Z-0.3 I-1.25 J0.
X26.191 Z-0.325 I1.25 J0.
X23.691 Z-0.35 I-1.25 J0.
X26.191 Z-0.375 I1.25 J0.
X23.691 Z-0.4 I-1.25 J0.
X26.191 Z-0.425 I1.25 J0.
X23.691 Z-0.45 I-1.25 J0.
X26.191 Z-0.475 I1.25 J0.
X23.691 Z-0.5 I-1.25 J0.
X26.191 Z-0.525 I1.25 J0.
X23.691 Z-0.55 I-1.25 J0.
X26.191 Z-0.575 I1.25 J0.
X23.691 Z-0.6 I-1.25 J0.
X26.191 Z-0.625 I1.25 J0.
X23.691 Z-0.65 I-1.25 J0.
X26.191 Z-0.675 I1.25 J0.
X23.691 Z-0.7 I-1.25 J0.
X26.191 Z-0.725 I1.25 J0.
X23.691 Z-0.75 I-1.25 J0.
X26.191 Z-0.775 I1.25 J0.
X23.691 Z-0.8 I-1.25 J0.
X26.191 Z-0.825 I1.25 J0.
X23.691 Z-0.85 I-1.25 J0.
X26.191 Z-0.875 I1.25 J0.
X23.691 Z-0.9 I-1.25 J0.
X26.191 Z-0.925 I1.25 J0.
X23.691 Z-0.95 I-1.25 J0.
X26.191 Z-0.975 I1.25 J0.
X23.691 Z-1. I-1.25 J0.
X26.191 I1.25 J0.
X23.691 I-1.25 J0.
G1 Z1.
G0 X45.691
G1 Z0.1 F30.
G3 X43.191 Z0.075 I-1.25 J0. F600.
X45.691 Z0.05 I1.25 J0.
X43.191 Z0.025 I-1.25 J0.
X45.691 Z0. I1.25 J0.
X43.191 Z-0.025 I-1.25 J0.
X45.691 Z-0.05 I1.25 J0.
X43.191 Z-0.075 I-1.25 J0.
X45.691 Z-0.1 I1.25 J0.
X43.191 Z-0.125 I-1.25 J0.
X45.691 Z-0.15 I1.25 J0.
X43.191 Z-0.175 I-1.25 J0.
X45.691 Z-0.2 I1.25 J0.
X43.191 Z-0.225 I-1.25 J0.
X45.691 Z-0.25 I1.25 J0.
X43.191 Z-0.275 I-1.25 J0.
X45.691 Z-0.3 I1.25 J0.
X43.191 Z-0.325 I-1.25 J0.
X45.691 Z-0.35 I1.25 J0.
X43.191 Z-0.375 I-1.25 J0.
X45.691 Z-0.4 I1.25 J0.
X43.191 Z-0.425 I-1.25 J0.
X45.691 Z-0.45 I1.25 J0.
X43.191 Z-0.475 I-1.25 J0.
X45.691 Z-0.5 I1.25 J0.
X43.191 Z-0.525 I-1.25 J0.
X45.691 Z-0.55 I1.25 J0.
X43.191 Z-0.575 I-1.25 J0.
X45.691 Z-0.6 I1.25 J0.
X43.191 Z-0.625 I-1.25 J0.
X45.691 Z-0.65 I1.25 J0.
X43.191 Z-0.675 I-1.25 J0.
X45.691 Z-0.7 I1.25 J0.
X43.191 Z-0.725 I-1.25 J0.
X45.691 Z-0.75 I1.25 J0.
X43.191 Z-0.775 I-1.25 J0.
X45.691 Z-0.8 I1.25 J0.
X43.191 Z-0.825 I-1.25 J0.
X45.691 Z-0.85 I1.25 J0.
X43.191 Z-0.875 I-1.25 J0.
X45.691 Z-0.9 I1.25 J0.
X43.191 Z-0.925 I-1.25 J0.
X45.691 Z-0.95 I1.25 J0.
X43.191 Z-0.975 I-1.25 J0.
X45.691 Z-1. I1.25 J0.
X43.191 I-1.25 J0.
X45.691 I1.25 J0.
G1 Z1.
G0 X111.941 Y57.631
G1 Z0.1 F30.
G3 Y55.131 Z0.075 I0. J-1.25 F600.
Y57.631 Z0.05 I0. J1.25
Y55.131 Z0.025 I0. J-1.25
Y57.631 Z0. I0. J1.25
Y55.131 Z-0.025 I0. J-1.25
Y57.631 Z-0.05 I0. J1.25
Y55.131 Z-0.075 I0. J-1.25
Y57.631 Z-0.1 I0. J1.25
Y55.131 Z-0.125 I0. J-1.25
Y57.631 Z-0.15 I0. J1.25
Y55.131 Z-0.175 I0. J-1.25
Y57.631 Z-0.2 I0. J1.25
Y55.131 Z-0.225 I0. J-1.25
Y57.631 Z-0.25 I0. J1.25
Y55.131 Z-0.275 I0. J-1.25
Y57.631 Z-0.3 I0. J1.25
Y55.131 Z-0.325 I0. J-1.25
Y57.631 Z-0.35 I0. J1.25
Y55.131 Z-0.375 I0. J-1.25
Y57.631 Z-0.4 I0. J1.25
Y55.131 Z-0.425 I0. J-1.25
Y57.631 Z-0.45 I0. J1.25
Y55.131 Z-0.475 I0. J-1.25
Y57.631 Z-0.5 I0. J1.25
Y55.131 Z-0.525 I0. J-1.25
Y57.631 Z-0.55 I0. J1.25
Y55.131 Z-0.575 I0. J-1.25
Y57.631 Z-0.6 I0. J1.25
Y55.131 Z-0.625 I0. J-1.25
Y57.631 Z-0.65 I0. J1.25
Y55.131 Z-0.675 I0. J-1.25
Y57.631 Z-0.7 I0. J1.25
Y55.131 Z-0.725 I0. J-1.25
Y57.631 Z-0.75 I0. J1.25
Y55.131 Z-0.775 I0. J-1.25
Y57.631 Z-0.8 I0. J1.25
Y55.131 Z-0.825 I0. J-1.25
Y57.631 Z-0.85 I0. J1.25
Y55.131 Z-0.875 I0. J-1.25
Y57.631 Z-0.9 I0. J1.25
Y55.131 Z-0.925 I0. J-1.25
Y57.631 Z-0.95 I0. J1.25
Y55.131 Z-0.975 I0. J-1.25
Y57.631 Z-1. I0. J1.25
Y55.131 I0. J-1.25
Y57.631 I0. J1.25
G1 Z1.
G0 X130.191 Y56.381
G1 Z0.1 F30.
G3 X132.691 Z0.075 I1.25 J0. F600.
X130.191 Z0.05 I-1.25 J0.
X132.691 Z0.025 I1.25 J0.
X130.191 Z0. I-1.25 J0.
X132.691 Z-0.025 I1.25 J0.
X130.191 Z-0.05 I-1.25 J0.
X132.691 Z-0.075 I1.25 J0.
X130.191 Z-0.1 I-1.25 J0.
X132.691 Z-0.125 I1.25 J0.
X130.191 Z-0.15 I-1.25 J0.
X132.691 Z-0.175 I1.25 J0.
X130.191 Z-0.2 I-1.25 J0.
X132.691 Z-0.225 I1.25 J0.
X130.191 Z-0.25 I-1.25 J0.
X132.691 Z-0.275 I1.25 J0.
X130.191 Z-0.3 I-1.25 J0.
X132.691 Z-0.325 I1.25 J0.
X130.191 Z-0.35 I-1.25 J0.
X132.691 Z-0.375 I1.25 J0.
X130.191 Z-0.4 I-1.25 J0.
X132.691 Z-0.425 I1.25 J0.
X130.191 Z-0.45 I-1.25 J0.
X132.691 Z-0.475 I1.25 J0.
X130.191 Z-0.5 I-1.25 J0.
X132.691 Z-0.525 I1.25 J0.
X130.191 Z-0.55 I-1.25 J0.
X132.691 Z-0.575 I1.25 J0.
X130.191 Z-0.6 I-1.25 J0.
X132.691 Z-0.625 I1.25 J0.
X130.191 Z-0.65 I-1.25 J0.
X132.691 Z-0.675 I1.25 J0.
X130.191 Z-0.7 I-1.25 J0.
X132.691 Z-0.725 I1.25 J0.
X130.191 Z-0.75 I-1.25 J0.
X132.691 Z-0.775 I1.25 J0.
X130.191 Z-0.8 I-1.25 J0.
X132.691 Z-0.825 I1.25 J0.
X130.191 Z-0.85 I-1.25 J0.
X132.691 Z-0.875 I1.25 J0.
X130.191 Z-0.9 I-1.25 J0.
X132.691 Z-0.925 I1.25 J0.
X130.191 Z-0.95 I-1.25 J0.
X132.691 Z-0.975 I1.25 J0.
X130.191 Z-1. I-1.25 J0.
X132.691 I1.25 J0.
X130.191 I-1.25 J0.
G1 Z1.
G0 X131.357 Y49.983
G1 Z0.1 F30.
G3 X131.536 Y50.005 Z0.092 I0.084 J0.053 F600.
Y50.068 Z0.09 I-0.095 J0.031
X131.346 Z0.081 I-0.095 J-0.031
Y50.005 Z0.079 I0.095 J-0.032
X131.536 Z0.07 I0.095 J0.032
Y50.068 Z0.068 I-0.095 J0.031
X131.346 Z0.059 I-0.095 J-0.031
Y50.005 Z0.057 I0.095 J-0.032
X131.536 Z0.048 I0.095 J0.032
Y50.068 Z0.046 I-0.095 J0.031
X131.346 Z0.037 I-0.095 J-0.031
Y50.005 Z0.035 I0.095 J-0.032
X131.536 Z0.026 I0.095 J0.032
Y50.068 Z0.024 I-0.095 J0.031
X131.346 Z0.015 I-0.095 J-0.031
Y50.005 Z0.013 I0.095 J-0.032
X131.536 Z0.004 I0.095 J0.032
Y50.068 Z0.002 I-0.095 J0.031
X131.346 Z-0.007 I-0.095 J-0.031
Y50.005 Z-0.009 I0.095 J-0.032
X131.536 Z-0.018 I0.095 J0.032
Y50.068 Z-0.02 I-0.095 J0.031
X131.346 Z-0.028 I-0.095 J-0.031
Y50.005 Z-0.031 I0.095 J-0.032
X131.536 Z-0.039 I0.095 J0.032
Y50.068 Z-0.042 I-0.095 J0.031
X131.346 Z-0.05 I-0.095 J-0.031
Y50.005 Z-0.053 I0.095 J-0.032
X131.536 Z-0.061 I0.095 J0.032
Y50.068 Z-0.064 I-0.095 J0.031
X131.346 Z-0.072 I-0.095 J-0.031
Y50.005 Z-0.075 I0.095 J-0.032
X131.536 Z-0.083 I0.095 J0.032
Y50.068 Z-0.086 I-0.095 J0.031
X131.346 Z-0.094 I-0.095 J-0.031
Y50.005 Z-0.097 I0.095 J-0.032
X131.536 Z-0.105 I0.095 J0.032
Y50.068 Z-0.107 I-0.095 J0.031
X131.346 Z-0.116 I-0.095 J-0.031
Y50.005 Z-0.118 I0.095 J-0.032
X131.536 Z-0.127 I0.095 J0.032
Y50.068 Z-0.129 I-0.095 J0.031
X131.346 Z-0.138 I-0.095 J-0.031
Y50.005 Z-0.14 I0.095 J-0.032
X131.536 Z-0.149 I0.095 J0.032
Y50.068 Z-0.151 I-0.095 J0.031
X131.346 Z-0.16 I-0.095 J-0.031
Y50.005 Z-0.162 I0.095 J-0.032
X131.536 Z-0.171 I0.095 J0.032
Y50.068 Z-0.173 I-0.095 J0.031
X131.346 Z-0.182 I-0.095 J-0.031
Y50.005 Z-0.184 I0.095 J-0.032
X131.536 Z-0.193 I0.095 J0.032
Y50.068 Z-0.195 I-0.095 J0.031
X131.346 Z-0.204 I-0.095 J-0.031
Y50.005 Z-0.206 I0.095 J-0.032
X131.536 Z-0.215 I0.095 J0.032
Y50.068 Z-0.217 I-0.095 J0.031
X131.346 Z-0.226 I-0.095 J-0.031
Y50.005 Z-0.228 I0.095 J-0.032
X131.536 Z-0.237 I0.095 J0.032
Y50.068 Z-0.239 I-0.095 J0.031
X131.346 Z-0.248 I-0.095 J-0.031
Y50.005 Z-0.25 I0.095 J-0.032
X131.536 Z-0.259 I0.095 J0.032
Y50.068 Z-0.261 I-0.095 J0.031
X131.346 Z-0.27 I-0.095 J-0.031
Y50.005 Z-0.272 I0.095 J-0.032
X131.536 Z-0.281 I0.095 J0.032
Y50.068 Z-0.283 I-0.095 J0.031
X131.346 Z-0.292 I-0.095 J-0.031
Y50.005 Z-0.294 I0.095 J-0.032
X131.536 Z-0.303 I0.095 J0.032
Y50.068 Z-0.305 I-0.095 J0.031
X131.346 Z-0.314 I-0.095 J-0.031
Y50.005 Z-0.316 I0.095 J-0.032
X131.536 Z-0.325 I0.095 J0.032
Y50.068 Z-0.327 I-0.095 J0.031
X131.346 Z-0.336 I-0.095 J-0.031
Y50.005 Z-0.338 I0.095 J-0.032
X131.536 Z-0.346 I0.095 J0.032
Y50.068 Z-0.349 I-0.095 J0.031
X131.346 Z-0.357 I-0.095 J-0.031
Y50.005 Z-0.36 I0.095 J-0.032
X131.536 Z-0.368 I0.095 J0.032
Y50.068 Z-0.371 I-0.095 J0.031
X131.346 Z-0.379 I-0.095 J-0.031
Y50.005 Z-0.382 I0.095 J-0.032
X131.536 Z-0.39 I0.095 J0.032
Y50.068 Z-0.393 I-0.095 J0.031
X131.346 Z-0.401 I-0.095 J-0.031
Y50.005 Z-0.404 I0.095 J-0.032
X131.536 Z-0.412 I0.095 J0.032
Y50.068 Z-0.414 I-0.095 J0.031
X131.346 Z-0.423 I-0.095 J-0.031
Y50.005 Z-0.425 I0.095 J-0.032
X131.536 Z-0.434 I0.095 J0.032
Y50.068 Z-0.436 I-0.095 J0.031
X131.346 Z-0.445 I-0.095 J-0.031
Y50.005 Z-0.447 I0.095 J-0.032
X131.536 Z-0.456 I0.095 J0.032
Y50.068 Z-0.458 I-0.095 J0.031
X131.346 Z-0.467 I-0.095 J-0.031
Y50.005 Z-0.469 I0.095 J-0.032
X131.536 Z-0.478 I0.095 J0.032
Y50.068 Z-0.48 I-0.095 J0.031
X131.346 Z-0.489 I-0.095 J-0.031
Y50.005 Z-0.491 I0.095 J-0.032
X131.536 Z-0.5 I0.095 J0.032
Y50.068 Z-0.502 I-0.095 J0.031
X131.346 Z-0.511 I-0.095 J-0.031
Y50.005 Z-0.513 I0.095 J-0.032
X131.536 Z-0.522 I0.095 J0.032
Y50.068 Z-0.524 I-0.095 J0.031
X131.346 Z-0.533 I-0.095 J-0.031
Y50.005 Z-0.535 I0.095 J-0.032
X131.536 Z-0.544 I0.095 J0.032
Y50.068 Z-0.546 I-0.095 J0.031
X131.346 Z-0.555 I-0.095 J-0.031
Y50.005 Z-0.557 I0.095 J-0.032
X131.536 Z-0.566 I0.095 J0.032
Y50.068 Z-0.568 I-0.095 J0.031
X131.346 Z-0.577 I-0.095 J-0.031
Y50.005 Z-0.579 I0.095 J-0.032
X131.536 Z-0.588 I0.095 J0.032
Y50.068 Z-0.59 I-0.095 J0.031
X131.346 Z-0.599 I-0.095 J-0.031
Y50.005 Z-0.601 I0.095 J-0.032
X131.536 Z-0.61 I0.095 J0.032
Y50.068 Z-0.612 I-0.095 J0.031
X131.346 Z-0.621 I-0.095 J-0.031
Y50.005 Z-0.623 I0.095 J-0.032
X131.536 Z-0.632 I0.095 J0.032
Y50.068 Z-0.634 I-0.095 J0.031
X131.346 Z-0.643 I-0.095 J-0.031
Y50.005 Z-0.645 I0.095 J-0.032
X131.536 Z-0.653 I0.095 J0.032
Y50.068 Z-0.656 I-0.095 J0.031
X131.346 Z-0.664 I-0.095 J-0.031
Y50.005 Z-0.667 I0.095 J-0.032
X131.536 Z-0.675 I0.095 J0.032
Y50.068 Z-0.678 I-0.095 J0.031
X131.346 Z-0.686 I-0.095 J-0.031
Y50.005 Z-0.689 I0.095 J-0.032
X131.536 Z-0.697 I0.095 J0.032
Y50.068 Z-0.7 I-0.095 J0.031
X131.346 Z-0.708 I-0.095 J-0.031
Y50.005 Z-0.711 I0.095 J-0.032
X131.536 Z-0.719 I0.095 J0.032
Y50.068 Z-0.722 I-0.095 J0.031
X131.346 Z-0.73 I-0.095 J-0.031
Y50.005 Z-0.732 I0.095 J-0.032
X131.536 Z-0.741 I0.095 J0.032
Y50.068 Z-0.743 I-0.095 J0.031
X131.346 Z-0.752 I-0.095 J-0.031
Y50.005 Z-0.754 I0.095 J-0.032
X131.536 Z-0.763 I0.095 J0.032
Y50.068 Z-0.765 I-0.095 J0.031
X131.346 Z-0.774 I-0.095 J-0.031
Y50.005 Z-0.776 I0.095 J-0.032
X131.536 Z-0.785 I0.095 J0.032
Y50.068 Z-0.787 I-0.095 J0.031
X131.346 Z-0.796 I-0.095 J-0.031
Y50.005 Z-0.798 I0.095 J-0.032
X131.536 Z-0.807 I0.095 J0.032
Y50.068 Z-0.809 I-0.095 J0.031
X131.346 Z-0.818 I-0.095 J-0.031
Y50.005 Z-0.82 I0.095 J-0.032
X131.536 Z-0.829 I0.095 J0.032
Y50.068 Z-0.831 I-0.095 J0.031
X131.346 Z-0.84 I-0.095 J-0.031
Y50.005 Z-0.842 I0.095 J-0.032
X131.536 Z-0.851 I0.095 J0.032
Y50.068 Z-0.853 I-0.095 J0.031
X131.346 Z-0.862 I-0.095 J-0.031
Y50.005 Z-0.864 I0.095 J-0.032
X131.536 Z-0.873 I0.095 J0.032
Y50.068 Z-0.875 I-0.095 J0.031
X131.346 Z-0.884 I-0.095 J-0.031
Y50.005 Z-0.886 I0.095 J-0.032
X131.536 Z-0.895 I0.095 J0.032
Y50.068 Z-0.897 I-0.095 J0.031
X131.346 Z-0.906 I-0.095 J-0.031
Y50.005 Z-0.908 I0.095 J-0.032
X131.536 Z-0.917 I0.095 J0.032
Y50.068 Z-0.919 I-0.095 J0.031
X131.346 Z-0.928 I-0.095 J-0.031
Y50.005 Z-0.93 I0.095 J-0.032
X131.536 Z-0.939 I0.095 J0.032
Y50.068 Z-0.941 I-0.095 J0.031
X131.346 Z-0.95 I-0.095 J-0.031
Y50.005 Z-0.952 I0.095 J-0.032
X131.536 Z-0.961 I0.095 J0.032
Y50.068 Z-0.963 I-0.095 J0.031
X131.346 Z-0.971 I-0.095 J-0.031
Y50.005 Z-0.974 I0.095 J-0.032
X131.536 Z-0.982 I0.095 J0.032
Y50.068 Z-0.985 I-0.095 J0.031
X131.346 Z-0.993 I-0.095 J-0.031
Y50.005 Z-0.996 I0.095 J-0.032
X131.441 Y49.936 Z-1. I0.095 J0.032
X131.536 Y50.005 I0. J0.1
Y50.068 I-0.095 J0.031
X131.346 I-0.095 J-0.031
Y50.005 I0.095 J-0.032
X131.441 Y49.936 I0.095 J0.032
G1 Z1.
G0 X145.129 Y41.728
G1 Z0.1 F30.
G3 X145.067 Y41.786 Z0.097 I-0.093 J-0.037 F600.
X145.036 Y41.791 Z0.096 I-0.031 J-0.095
X145.005 Y41.786 Z0.095 I0. J-0.1
Y41.596 Z0.086 I0.031 J-0.095
X145.067 Z0.084 I0.031 J0.095
Y41.786 Z0.075 I-0.031 J0.095
X145.036 Y41.791 Z0.074 I-0.031 J-0.095
X145.005 Y41.786 Z0.073 I0. J-0.1
Y41.596 Z0.064 I0.031 J-0.095
X145.067 Z0.062 I0.031 J0.095
Y41.786 Z0.053 I-0.031 J0.095
X145.036 Y41.791 Z0.052 I-0.031 J-0.095
X145.005 Y41.786 Z0.051 I0. J-0.1
Y41.596 Z0.042 I0.031 J-0.095
X145.067 Z0.04 I0.031 J0.095
Y41.786 Z0.031 I-0.031 J0.095
X145.036 Y41.791 Z0.03 I-0.031 J-0.095
X145.005 Y41.786 Z0.029 I0. J-0.1
Y41.596 Z0.02 I0.031 J-0.095
X145.067 Z0.018 I0.031 J0.095
Y41.786 Z0.009 I-0.031 J0.095
X145.036 Y41.791 Z0.008 I-0.031 J-0.095
X145.005 Y41.786 Z0.007 I0. J-0.1
Y41.596 Z-0.002 I0.031 J-0.095
X145.067 Z-0.004 I0.031 J0.095
Y41.786 Z-0.013 I-0.031 J0.095
X145.036 Y41.791 Z-0.014 I-0.031 J-0.095
X145.005 Y41.786 Z-0.015 I0. J-0.1
Y41.596 Z-0.024 I0.031 J-0.095
X145.067 Z-0.026 I0.031 J0.095
Y41.786 Z-0.035 I-0.031 J0.095
X145.036 Y41.791 Z-0.036 I-0.031 J-0.095
X145.005 Y41.786 Z-0.037 I0. J-0.1
Y41.596 Z-0.045 I0.031 J-0.095
X145.067 Z-0.048 I0.031 J0.095
Y41.786 Z-0.056 I-0.031 J0.095
X145.036 Y41.791 Z-0.058 I-0.031 J-0.095
X145.005 Y41.786 Z-0.059 I0. J-0.1
Y41.596 Z-0.067 I0.031 J-0.095
X145.067 Z-0.07 I0.031 J0.095
Y41.786 Z-0.078 I-0.031 J0.095
X145.036 Y41.791 Z-0.079 I-0.031 J-0.095
X145.005 Y41.786 Z-0.081 I0. J-0.1
Y41.596 Z-0.089 I0.031 J-0.095
X145.067 Z-0.092 I0.031 J0.095
Y41.786 Z-0.1 I-0.031 J0.095
X145.036 Y41.791 Z-0.101 I-0.031 J-0.095
X145.005 Y41.786 Z-0.103 I0. J-0.1
Y41.596 Z-0.111 I0.031 J-0.095
X145.067 Z-0.113 I0.031 J0.095
Y41.786 Z-0.122 I-0.031 J0.095
X145.036 Y41.791 Z-0.123 I-0.031 J-0.095
X145.005 Y41.786 Z-0.124 I0. J-0.1
Y41.596 Z-0.133 I0.031 J-0.095
X145.067 Z-0.135 I0.031 J0.095
Y41.786 Z-0.144 I-0.031 J0.095
X145.036 Y41.791 Z-0.145 I-0.031 J-0.095
X145.005 Y41.786 Z-0.146 I0. J-0.1
Y41.596 Z-0.155 I0.031 J-0.095
X145.067 Z-0.157 I0.031 J0.095
Y41.786 Z-0.166 I-0.031 J0.095
X145.036 Y41.791 Z-0.167 I-0.031 J-0.095
X145.005 Y41.786 Z-0.168 I0. J-0.1
Y41.596 Z-0.177 I0.031 J-0.095
X145.067 Z-0.179 I0.031 J0.095
Y41.786 Z-0.188 I-0.031 J0.095
X145.036 Y41.791 Z-0.189 I-0.031 J-0.095
X145.005 Y41.786 Z-0.19 I0. J-0.1
Y41.596 Z-0.199 I0.031 J-0.095
X145.067 Z-0.201 I0.031 J0.095
Y41.786 Z-0.21 I-0.031 J0.095
X145.036 Y41.791 Z-0.211 I-0.031 J-0.095
X145.005 Y41.786 Z-0.212 I0. J-0.1
Y41.596 Z-0.221 I0.031 J-0.095
X145.067 Z-0.223 I0.031 J0.095
Y41.786 Z-0.232 I-0.031 J0.095
X145.036 Y41.791 Z-0.233 I-0.031 J-0.095
X145.005 Y41.786 Z-0.234 I0. J-0.1
Y41.596 Z-0.243 I0.031 J-0.095
X145.067 Z-0.245 I0.031 J0.095
Y41.786 Z-0.254 I-0.031 J0.095
X145.036 Y41.791 Z-0.255 I-0.031 J-0.095
X145.005 Y41.786 Z-0.256 I0. J-0.1
Y41.596 Z-0.265 I0.031 J-0.095
X145.067 Z-0.267 I0.031 J0.095
Y41.786 Z-0.276 I-0.031 J0.095
X145.036 Y41.791 Z-0.277 I-0.031 J-0.095
X145.005 Y41.786 Z-0.278 I0. J-0.1
Y41.596 Z-0.287 I0.031 J-0.095
X145.067 Z-0.289 I0.031 J0.095
Y41.786 Z-0.298 I-0.031 J0.095
X145.036 Y41.791 Z-0.299 I-0.031 J-0.095
X145.005 Y41.786 Z-0.3 I0. J-0.1
Y41.596 Z-0.308 I0.031 J-0.095
X145.067 Z-0.311 I0.031 J0.095
Y41.786 Z-0.319 I-0.031 J0.095
X145.036 Y41.791 Z-0.321 I-0.031 J-0.095
X145.005 Y41.786 Z-0.322 I0. J-0.1
Y41.596 Z-0.33 I0.031 J-0.095
X145.067 Z-0.333 I0.031 J0.095
Y41.786 Z-0.341 I-0.031 J0.095
X145.036 Y41.791 Z-0.342 I-0.031 J-0.095
X145.005 Y41.786 Z-0.344 I0. J-0.1
Y41.596 Z-0.352 I0.031 J-0.095
X145.067 Z-0.355 I0.031 J0.095
Y41.786 Z-0.363 I-0.031 J0.095
X145.036 Y41.791 Z-0.364 I-0.031 J-0.095
X145.005 Y41.786 Z-0.366 I0. J-0.1
Y41.596 Z-0.374 I0.031 J-0.095
X145.067 Z-0.376 I0.031 J0.095
Y41.786 Z-0.385 I-0.031 J0.095
X145.036 Y41.791 Z-0.386 I-0.031 J-0.095
X145.005 Y41.786 Z-0.387 I0. J-0.1
Y41.596 Z-0.396 I0.031 J-0.095
X145.067 Z-0.398 I0.031 J0.095
Y41.786 Z-0.407 I-0.031 J0.095
X145.036 Y41.791 Z-0.408 I-0.031 J-0.095
X145.005 Y41.786 Z-0.409 I0. J-0.1
Y41.596 Z-0.418 I0.031 J-0.095
X145.067 Z-0.42 I0.031 J0.095
Y41.786 Z-0.429 I-0.031 J0.095
X145.036 Y41.791 Z-0.43 I-0.031 J-0.095
X145.005 Y41.786 Z-0.431 I0. J-0.1
Y41.596 Z-0.44 I0.031 J-0.095
X145.067 Z-0.442 I0.031 J0.095
Y41.786 Z-0.451 I-0.031 J0.095
X145.036 Y41.791 Z-0.452 I-0.031 J-0.095
X145.005 Y41.786 Z-0.453 I0. J-0.1
Y41.596 Z-0.462 I0.031 J-0.095
X145.067 Z-0.464 I0.031 J0.095
Y41.786 Z-0.473 I-0.031 J0.095
X145.036 Y41.791 Z-0.474 I-0.031 J-0.095
X145.005 Y41.786 Z-0.475 I0. J-0.1
Y41.596 Z-0.484 I0.031 J-0.095
X145.067 Z-0.486 I0.031 J0.095
Y41.786 Z-0.495 I-0.031 J0.095
X145.036 Y41.791 Z-0.496 I-0.031 J-0.095
X145.005 Y41.786 Z-0.497 I0. J-0.1
Y41.596 Z-0.506 I0.031 J-0.095
X145.067 Z-0.508 I0.031 J0.095
Y41.786 Z-0.517 I-0.031 J0.095
X145.036 Y41.791 Z-0.518 I-0.031 J-0.095
X145.005 Y41.786 Z-0.519 I0. J-0.1
Y41.596 Z-0.528 I0.031 J-0.095
X145.067 Z-0.53 I0.031 J0.095
Y41.786 Z-0.539 I-0.031 J0.095
X145.036 Y41.791 Z-0.54 I-0.031 J-0.095
X145.005 Y41.786 Z-0.541 I0. J-0.1
Y41.596 Z-0.55 I0.031 J-0.095
X145.067 Z-0.552 I0.031 J0.095
Y41.786 Z-0.561 I-0.031 J0.095
X145.036 Y41.791 Z-0.562 I-0.031 J-0.095
X145.005 Y41.786 Z-0.563 I0. J-0.1
Y41.596 Z-0.572 I0.031 J-0.095
X145.067 Z-0.574 I0.031 J0.095
Y41.786 Z-0.582 I-0.031 J0.095
X145.036 Y41.791 Z-0.584 I-0.031 J-0.095
X145.005 Y41.786 Z-0.585 I0. J-0.1
Y41.596 Z-0.593 I0.031 J-0.095
X145.067 Z-0.596 I0.031 J0.095
Y41.786 Z-0.604 I-0.031 J0.095
X145.036 Y41.791 Z-0.605 I-0.031 J-0.095
X145.005 Y41.786 Z-0.607 I0. J-0.1
Y41.596 Z-0.615 I0.031 J-0.095
X145.067 Z-0.618 I0.031 J0.095
Y41.786 Z-0.626 I-0.031 J0.095
X145.036 Y41.791 Z-0.627 I-0.031 J-0.095
X145.005 Y41.786 Z-0.629 I0. J-0.1
Y41.596 Z-0.637 I0.031 J-0.095
X145.067 Z-0.639 I0.031 J0.095
Y41.786 Z-0.648 I-0.031 J0.095
X145.036 Y41.791 Z-0.649 I-0.031 J-0.095
X145.005 Y41.786 Z-0.65 I0. J-0.1
Y41.596 Z-0.659 I0.031 J-0.095
X145.067 Z-0.661 I0.031 J0.095
Y41.786 Z-0.67 I-0.031 J0.095
X145.036 Y41.791 Z-0.671 I-0.031 J-0.095
X145.005 Y41.786 Z-0.672 I0. J-0.1
Y41.596 Z-0.681 I0.031 J-0.095
X145.067 Z-0.683 I0.031 J0.095
Y41.786 Z-0.692 I-0.031 J0.095
X145.036 Y41.791 Z-0.693 I-0.031 J-0.095
X145.005 Y41.786 Z-0.694 I0. J-0.1
Y41.596 Z-0.703 I0.031 J-0.095
X145.067 Z-0.705 I0.031 J0.095
Y41.786 Z-0.714 I-0.031 J0.095
X145.036 Y41.791 Z-0.715 I-0.031 J-0.095
X145.005 Y41.786 Z-0.716 I0. J-0.1
Y41.596 Z-0.725 I0.031 J-0.095
X145.067 Z-0.727 I0.031 J0.095
Y41.786 Z-0.736 I-0.031 J0.095
X145.036 Y41.791 Z-0.737 I-0.031 J-0.095
X145.005 Y41.786 Z-0.738 I0. J-0.1
Y41.596 Z-0.747 I0.031 J-0.095
X145.067 Z-0.749 I0.031 J0.095
Y41.786 Z-0.758 I-0.031 J0.095
X145.036 Y41.791 Z-0.759 I-0.031 J-0.095
X145.005 Y41.786 Z-0.76 I0. J-0.1
Y41.596 Z-0.769 I0.031 J-0.095
X145.067 Z-0.771 I0.031 J0.095
Y41.786 Z-0.78 I-0.031 J0.095
X145.036 Y41.791 Z-0.781 I-0.031 J-0.095
X145.005 Y41.786 Z-0.782 I0. J-0.1
Y41.596 Z-0.791 I0.031 J-0.095
X145.067 Z-0.793 I0.031 J0.095
Y41.786 Z-0.802 I-0.031 J0.095
X145.036 Y41.791 Z-0.803 I-0.031 J-0.095
X145.005 Y41.786 Z-0.804 I0. J-0.1
Y41.596 Z-0.813 I0.031 J-0.095
X145.067 Z-0.815 I0.031 J0.095
Y41.786 Z-0.824 I-0.031 J0.095
X145.036 Y41.791 Z-0.825 I-0.031 J-0.095
X145.005 Y41.786 Z-0.826 I0. J-0.1
Y41.596 Z-0.835 I0.031 J-0.095
X145.067 Z-0.837 I0.031 J0.095
Y41.786 Z-0.845 I-0.031 J0.095
X145.036 Y41.791 Z-0.847 I-0.031 J-0.095
X145.005 Y41.786 Z-0.848 I0. J-0.1
Y41.596 Z-0.856 I0.031 J-0.095
X145.067 Z-0.859 I0.031 J0.095
Y41.786 Z-0.867 I-0.031 J0.095
X145.036 Y41.791 Z-0.868 I-0.031 J-0.095
X145.005 Y41.786 Z-0.87 I0. J-0.1
Y41.596 Z-0.878 I0.031 J-0.095
X145.067 Z-0.881 I0.031 J0.095
Y41.786 Z-0.889 I-0.031 J0.095
X145.036 Y41.791 Z-0.89 I-0.031 J-0.095
X145.005 Y41.786 Z-0.892 I0. J-0.1
Y41.596 Z-0.9 I0.031 J-0.095
X145.067 Z-0.902 I0.031 J0.095
Y41.786 Z-0.911 I-0.031 J0.095
X145.036 Y41.791 Z-0.912 I-0.031 J-0.095
X145.005 Y41.786 Z-0.913 I0. J-0.1
Y41.596 Z-0.922 I0.031 J-0.095
X145.067 Z-0.924 I0.031 J0.095
Y41.786 Z-0.933 I-0.031 J0.095
X145.036 Y41.791 Z-0.934 I-0.031 J-0.095
X145.005 Y41.786 Z-0.935 I0. J-0.1
Y41.596 Z-0.944 I0.031 J-0.095
X145.067 Z-0.946 I0.031 J0.095
Y41.786 Z-0.955 I-0.031 J0.095
X145.036 Y41.791 Z-0.956 I-0.031 J-0.095
X145.005 Y41.786 Z-0.957 I0. J-0.1
Y41.596 Z-0.966 I0.031 J-0.095
X145.067 Z-0.968 I0.031 J0.095
Y41.786 Z-0.977 I-0.031 J0.095
X145.036 Y41.791 Z-0.978 I-0.031 J-0.095
X145.005 Y41.786 Z-0.979 I0. J-0.1
Y41.596 Z-0.988 I0.031 J-0.095
X145.067 Z-0.99 I0.031 J0.095
Y41.786 Z-0.999 I-0.031 J0.095
X145.036 Y41.791 Z-1. I-0.031 J-0.095
X145.005 Y41.786 I0. J-0.1
Y41.596 I0.031 J-0.095
X145.067 I0.031 J0.095
Y41.786 I-0.031 J0.095
X145.036 Y41.791 I-0.031 J-0.095
G1 Z1.
G0 X150.131 Y41.691
G1 Z0.1 F30.
G3 X152.631 Z0.075 I1.25 J0. F600.
X150.131 Z0.05 I-1.25 J0.
X152.631 Z0.025 I1.25 J0.
X150.131 Z0. I-1.25 J0.
X152.631 Z-0.025 I1.25 J0.
X150.131 Z-0.05 I-1.25 J0.
X152.631 Z-0.075 I1.25 J0.
X150.131 Z-0.1 I-1.25 J0.
X152.631 Z-0.125 I1.25 J0.
X150.131 Z-0.15 I-1.25 J0.
X152.631 Z-0.175 I1.25 J0.
X150.131 Z-0.2 I-1.25 J0.
X152.631 Z-0.225 I1.25 J0.
X150.131 Z-0.25 I-1.25 J0.
X152.631 Z-0.275 I1.25 J0.
X150.131 Z-0.3 I-1.25 J0.
X152.631 Z-0.325 I1.25 J0.
X150.131 Z-0.35 I-1.25 J0.
X152.631 Z-0.375 I1.25 J0.
X150.131 Z-0.4 I-1.25 J0.
X152.631 Z-0.425 I1.25 J0.
X150.131 Z-0.45 I-1.25 J0.
X152.631 Z-0.475 I1.25 J0.
X150.131 Z-0.5 I-1.25 J0.
X152.631 Z-0.525 I1.25 J0.
X150.131 Z-0.55 I-1.25 J0.
X152.631 Z-0.575 I1.25 J0.
X150.131 Z-0.6 I-1.25 J0.
X152.631 Z-0.625 I1.25 J0.
X150.131 Z-0.65 I-1.25 J0.
X152.631 Z-0.675 I1.25 J0.
X150.131 Z-0.7 I-1.25 J0.
X152.631 Z-0.725 I1.25 J0.
X150.131 Z-0.75 I-1.25 J0.
X152.631 Z-0.775 I1.25 J0.
X150.131 Z-0.8 I-1.25 J0.
X152.631 Z-0.825 I1.25 J0.
X150.131 Z-0.85 I-1.25 J0.
X152.631 Z-0.875 I1.25 J0.
X150.131 Z-0.9 I-1.25 J0.
X152.631 Z-0.925 I1.25 J0.
X150.131 Z-0.95 I-1.25 J0.
X152.631 Z-0.975 I1.25 J0.
X150.131 Z-1. I-1.25 J0.
X152.631 I1.25 J0.
X150.131 I-1.25 J0.
G1 Z1.
G0 X152.631 Y19.691
G1 Z0.1 F30.
G3 X150.131 Z0.075 I-1.25 J0. F600.
X152.631 Z0.05 I1.25 J0.
X150.131 Z0.025 I-1.25 J0.
X152.631 Z0. I1.25 J0.
X150.131 Z-0.025 I-1.25 J0.
X152.631 Z-0.05 I1.25 J0.
X150.131 Z-0.075 I-1.25 J0.
X152.631 Z-0.1 I1.25 J0.
X150.131 Z-0.125 I-1.25 J0.
X152.631 Z-0.15 I1.25 J0.
X150.131 Z-0.175 I-1.25 J0.
X152.631 Z-0.2 I1.25 J0.
X150.131 Z-0.225 I-1.25 J0.
X152.631 Z-0.25 I1.25 J0.
X150.131 Z-0.275 I-1.25 J0.
X152.631 Z-0.3 I1.25 J0.
X150.131 Z-0.325 I-1.25 J0.
X152.631 Z-0.35 I1.25 J0.
X150.131 Z-0.375 I-1.25 J0.
X152.631 Z-0.4 I1.25 J0.
X150.131 Z-0.425 I-1.25 J0.
X152.631 Z-0.45 I1.25 J0.
X150.131 Z-0.475 I-1.25 J0.
X152.631 Z-0.5 I1.25 J0.
X150.131 Z-0.525 I-1.25 J0.
X152.631 Z-0.55 I1.25 J0.
X150.131 Z-0.575 I-1.25 J0.
X152.631 Z-0.6 I1.25 J0.
X150.131 Z-0.625 I-1.25 J0.
X152.631 Z-0.65 I1.25 J0.
X150.131 Z-0.675 I-1.25 J0.
X152.631 Z-0.7 I1.25 J0.
X150.131 Z-0.725 I-1.25 J0.
X152.631 Z-0.75 I1.25 J0.
X150.131 Z-0.775 I-1.25 J0.
X152.631 Z-0.8 I1.25 J0.
X150.131 Z-0.825 I-1.25 J0.
X152.631 Z-0.85 I1.25 J0.
X150.131 Z-0.875 I-1.25 J0.
X152.631 Z-0.9 I1.25 J0.
X150.131 Z-0.925 I-1.25 J0.
X152.631 Z-0.95 I1.25 J0.
X150.131 Z-0.975 I-1.25 J0.
X152.631 Z-1. I1.25 J0.
X150.131 I-1.25 J0.
X152.631 I1.25 J0.
G1 Z1.
G0 X145.129 Y19.728
G1 Z0.1 F30.
G3 X145.067 Y19.786 Z0.097 I-0.093 J-0.037 F600.
X145.005 Z0.095 I-0.031 J-0.095
Y19.596 Z0.086 I0.031 J-0.095
X145.067 Z0.084 I0.031 J0.095
Y19.786 Z0.075 I-0.031 J0.095
X145.005 Z0.073 I-0.031 J-0.095
Y19.596 Z0.064 I0.031 J-0.095
X145.067 Z0.062 I0.031 J0.095
Y19.786 Z0.053 I-0.031 J0.095
X145.005 Z0.051 I-0.031 J-0.095
Y19.596 Z0.042 I0.031 J-0.095
X145.067 Z0.04 I0.031 J0.095
Y19.786 Z0.031 I-0.031 J0.095
X145.005 Z0.029 I-0.031 J-0.095
Y19.596 Z0.02 I0.031 J-0.095
X145.067 Z0.018 I0.031 J0.095
Y19.786 Z0.009 I-0.031 J0.095
X145.005 Z0.007 I-0.031 J-0.095
Y19.596 Z-0.002 I0.031 J-0.095
X145.067 Z-0.004 I0.031 J0.095
Y19.786 Z-0.013 I-0.031 J0.095
X145.005 Z-0.015 I-0.031 J-0.095
Y19.596 Z-0.024 I0.031 J-0.095
X145.067 Z-0.026 I0.031 J0.095
Y19.786 Z-0.035 I-0.031 J0.095
X145.005 Z-0.037 I-0.031 J-0.095
Y19.596 Z-0.045 I0.031 J-0.095
X145.067 Z-0.048 I0.031 J0.095
Y19.786 Z-0.056 I-0.031 J0.095
X145.005 Z-0.059 I-0.031 J-0.095
Y19.596 Z-0.067 I0.031 J-0.095
X145.067 Z-0.07 I0.031 J0.095
Y19.786 Z-0.078 I-0.031 J0.095
X145.005 Z-0.081 I-0.031 J-0.095
Y19.596 Z-0.089 I0.031 J-0.095
X145.067 Z-0.092 I0.031 J0.095
Y19.786 Z-0.1 I-0.031 J0.095
X145.005 Z-0.103 I-0.031 J-0.095
Y19.596 Z-0.111 I0.031 J-0.095
X145.067 Z-0.113 I0.031 J0.095
Y19.786 Z-0.122 I-0.031 J0.095
X145.005 Z-0.124 I-0.031 J-0.095
Y19.596 Z-0.133 I0.031 J-0.095
X145.067 Z-0.135 I0.031 J0.095
Y19.786 Z-0.144 I-0.031 J0.095
X145.005 Z-0.146 I-0.031 J-0.095
Y19.596 Z-0.155 I0.031 J-0.095
X145.067 Z-0.157 I0.031 J0.095
Y19.786 Z-0.166 I-0.031 J0.095
X145.005 Z-0.168 I-0.031 J-0.095
Y19.596 Z-0.177 I0.031 J-0.095
X145.067 Z-0.179 I0.031 J0.095
Y19.786 Z-0.188 I-0.031 J0.095
X145.005 Z-0.19 I-0.031 J-0.095
Y19.596 Z-0.199 I0.031 J-0.095
X145.067 Z-0.201 I0.031 J0.095
Y19.786 Z-0.21 I-0.031 J0.095
X145.005 Z-0.212 I-0.031 J-0.095
Y19.596 Z-0.221 I0.031 J-0.095
X145.067 Z-0.223 I0.031 J0.095
Y19.786 Z-0.232 I-0.031 J0.095
X145.005 Z-0.234 I-0.031 J-0.095
Y19.596 Z-0.243 I0.031 J-0.095
X145.067 Z-0.245 I0.031 J0.095
Y19.786 Z-0.254 I-0.031 J0.095
X145.005 Z-0.256 I-0.031 J-0.095
Y19.596 Z-0.265 I0.031 J-0.095
X145.067 Z-0.267 I0.031 J0.095
Y19.786 Z-0.276 I-0.031 J0.095
X145.005 Z-0.278 I-0.031 J-0.095
Y19.596 Z-0.287 I0.031 J-0.095
X145.067 Z-0.289 I0.031 J0.095
Y19.786 Z-0.298 I-0.031 J0.095
X145.005 Z-0.3 I-0.031 J-0.095
Y19.596 Z-0.308 I0.031 J-0.095
X145.067 Z-0.311 I0.031 J0.095
Y19.786 Z-0.319 I-0.031 J0.095
X145.005 Z-0.322 I-0.031 J-0.095
Y19.596 Z-0.33 I0.031 J-0.095
X145.067 Z-0.333 I0.031 J0.095
Y19.786 Z-0.341 I-0.031 J0.095
X145.005 Z-0.344 I-0.031 J-0.095
Y19.596 Z-0.352 I0.031 J-0.095
X145.067 Z-0.355 I0.031 J0.095
Y19.786 Z-0.363 I-0.031 J0.095
X145.005 Z-0.366 I-0.031 J-0.095
Y19.596 Z-0.374 I0.031 J-0.095
X145.067 Z-0.376 I0.031 J0.095
Y19.786 Z-0.385 I-0.031 J0.095
X145.005 Z-0.387 I-0.031 J-0.095
Y19.596 Z-0.396 I0.031 J-0.095
X145.067 Z-0.398 I0.031 J0.095
Y19.786 Z-0.407 I-0.031 J0.095
X145.005 Z-0.409 I-0.031 J-0.095
Y19.596 Z-0.418 I0.031 J-0.095
X145.067 Z-0.42 I0.031 J0.095
Y19.786 Z-0.429 I-0.031 J0.095
X145.005 Z-0.431 I-0.031 J-0.095
Y19.596 Z-0.44 I0.031 J-0.095
X145.067 Z-0.442 I0.031 J0.095
Y19.786 Z-0.451 I-0.031 J0.095
X145.005 Z-0.453 I-0.031 J-0.095
Y19.596 Z-0.462 I0.031 J-0.095
X145.067 Z-0.464 I0.031 J0.095
Y19.786 Z-0.473 I-0.031 J0.095
X145.005 Z-0.475 I-0.031 J-0.095
Y19.596 Z-0.484 I0.031 J-0.095
X145.067 Z-0.486 I0.031 J0.095
Y19.786 Z-0.495 I-0.031 J0.095
X145.005 Z-0.497 I-0.031 J-0.095
Y19.596 Z-0.506 I0.031 J-0.095
X145.067 Z-0.508 I0.031 J0.095
Y19.786 Z-0.517 I-0.031 J0.095
X145.005 Z-0.519 I-0.031 J-0.095
Y19.596 Z-0.528 I0.031 J-0.095
X145.067 Z-0.53 I0.031 J0.095
Y19.786 Z-0.539 I-0.031 J0.095
X145.005 Z-0.541 I-0.031 J-0.095
Y19.596 Z-0.55 I0.031 J-0.095
X145.067 Z-0.552 I0.031 J0.095
Y19.786 Z-0.561 I-0.031 J0.095
X145.005 Z-0.563 I-0.031 J-0.095
Y19.596 Z-0.572 I0.031 J-0.095
X145.067 Z-0.574 I0.031 J0.095
Y19.786 Z-0.582 I-0.031 J0.095
X145.005 Z-0.585 I-0.031 J-0.095
Y19.596 Z-0.593 I0.031 J-0.095
X145.067 Z-0.596 I0.031 J0.095
Y19.786 Z-0.604 I-0.031 J0.095
X145.005 Z-0.607 I-0.031 J-0.095
Y19.596 Z-0.615 I0.031 J-0.095
X145.067 Z-0.618 I0.031 J0.095
Y19.786 Z-0.626 I-0.031 J0.095
X145.005 Z-0.629 I-0.031 J-0.095
Y19.596 Z-0.637 I0.031 J-0.095
X145.067 Z-0.639 I0.031 J0.095
Y19.786 Z-0.648 I-0.031 J0.095
X145.005 Z-0.65 I-0.031 J-0.095
Y19.596 Z-0.659 I0.031 J-0.095
X145.067 Z-0.661 I0.031 J0.095
Y19.786 Z-0.67 I-0.031 J0.095
X145.005 Z-0.672 I-0.031 J-0.095
Y19.596 Z-0.681 I0.031 J-0.095
X145.067 Z-0.683 I0.031 J0.095
Y19.786 Z-0.692 I-0.031 J0.095
X145.005 Z-0.694 I-0.031 J-0.095
Y19.596 Z-0.703 I0.031 J-0.095
X145.067 Z-0.705 I0.031 J0.095
Y19.786 Z-0.714 I-0.031 J0.095
X145.005 Z-0.716 I-0.031 J-0.095
Y19.596 Z-0.725 I0.031 J-0.095
X145.067 Z-0.727 I0.031 J0.095
Y19.786 Z-0.736 I-0.031 J0.095
X145.005 Z-0.738 I-0.031 J-0.095
Y19.596 Z-0.747 I0.031 J-0.095
X145.067 Z-0.749 I0.031 J0.095
Y19.786 Z-0.758 I-0.031 J0.095
X145.005 Z-0.76 I-0.031 J-0.095
Y19.596 Z-0.769 I0.031 J-0.095
X145.067 Z-0.771 I0.031 J0.095
Y19.786 Z-0.78 I-0.031 J0.095
X145.005 Z-0.782 I-0.031 J-0.095
Y19.596 Z-0.791 I0.031 J-0.095
X145.067 Z-0.793 I0.031 J0.095
Y19.786 Z-0.802 I-0.031 J0.095
X145.005 Z-0.804 I-0.031 J-0.095
Y19.596 Z-0.813 I0.031 J-0.095
X145.067 Z-0.815 I0.031 J0.095
Y19.786 Z-0.824 I-0.031 J0.095
X145.005 Z-0.826 I-0.031 J-0.095
Y19.596 Z-0.835 I0.031 J-0.095
X145.067 Z-0.837 I0.031 J0.095
Y19.786 Z-0.845 I-0.031 J0.095
X145.005 Z-0.848 I-0.031 J-0.095
Y19.596 Z-0.856 I0.031 J-0.095
X145.067 Z-0.859 I0.031 J0.095
Y19.786 Z-0.867 I-0.031 J0.095
X145.005 Z-0.87 I-0.031 J-0.095
Y19.596 Z-0.878 I0.031 J-0.095
X145.067 Z-0.881 I0.031 J0.095
Y19.786 Z-0.889 I-0.031 J0.095
X145.005 Z-0.892 I-0.031 J-0.095
Y19.596 Z-0.9 I0.031 J-0.095
X145.067 Z-0.902 I0.031 J0.095
Y19.786 Z-0.911 I-0.031 J0.095
X145.005 Z-0.913 I-0.031 J-0.095
Y19.596 Z-0.922 I0.031 J-0.095
X145.067 Z-0.924 I0.031 J0.095
Y19.786 Z-0.933 I-0.031 J0.095
X145.005 Z-0.935 I-0.031 J-0.095
Y19.596 Z-0.944 I0.031 J-0.095
X145.067 Z-0.946 I0.031 J0.095
Y19.786 Z-0.955 I-0.031 J0.095
X145.005 Z-0.957 I-0.031 J-0.095
Y19.596 Z-0.966 I0.031 J-0.095
X145.067 Z-0.968 I0.031 J0.095
Y19.786 Z-0.977 I-0.031 J0.095
X145.005 Z-0.979 I-0.031 J-0.095
Y19.596 Z-0.988 I0.031 J-0.095
X145.067 Z-0.99 I0.031 J0.095
Y19.786 Z-0.999 I-0.031 J0.095
X145.036 Y19.791 Z-1. I-0.031 J-0.095
X145.005 Y19.786 I0. J-0.1
Y19.596 I0.031 J-0.095
X145.067 I0.031 J0.095
Y19.786 I-0.031 J0.095
X145.036 Y19.791 I-0.031 J-0.095
G1 Z1.
G0 X105.691 Y31.291
G1 Z0.1 F30.
G3 Y30.091 Z0.075 I0. J-0.6 F600.
Y31.291 Z0.05 I0. J0.6
Y30.091 Z0.025 I0. J-0.6
Y31.291 Z0. I0. J0.6
Y30.091 Z-0.025 I0. J-0.6
Y31.291 Z-0.05 I0. J0.6
Y30.091 Z-0.075 I0. J-0.6
Y31.291 Z-0.1 I0. J0.6
Y30.091 Z-0.125 I0. J-0.6
Y31.291 Z-0.15 I0. J0.6
Y30.091 Z-0.175 I0. J-0.6
Y31.291 Z-0.2 I0. J0.6
Y30.091 Z-0.225 I0. J-0.6
Y31.291 Z-0.25 I0. J0.6
Y30.091 Z-0.275 I0. J-0.6
Y31.291 Z-0.3 I0. J0.6
Y30.091 Z-0.325 I0. J-0.6
Y31.291 Z-0.35 I0. J0.6
Y30.091 Z-0.375 I0. J-0.6
Y31.291 Z-0.4 I0. J0.6
Y30.091 Z-0.425 I0. J-0.6
Y31.291 Z-0.45 I0. J0.6
Y30.091 Z-0.475 I0. J-0.6
Y31.291 Z-0.5 I0. J0.6
Y30.091 Z-0.525 I0. J-0.6
Y31.291 Z-0.55 I0. J0.6
Y30.091 Z-0.575 I0. J-0.6
Y31.291 Z-0.6 I0. J0.6
Y30.091 Z-0.625 I0. J-0.6
Y31.291 Z-0.65 I0. J0.6
Y30.091 Z-0.675 I0. J-0.6
Y31.291 Z-0.7 I0. J0.6
Y30.091 Z-0.725 I0. J-0.6
Y31.291 Z-0.75 I0. J0.6
Y30.091 Z-0.775 I0. J-0.6
Y31.291 Z-0.8 I0. J0.6
Y30.091 Z-0.825 I0. J-0.6
Y31.291 Z-0.85 I0. J0.6
Y30.091 Z-0.875 I0. J-0.6
Y31.291 Z-0.9 I0. J0.6
Y30.091 Z-0.925 I0. J-0.6
Y31.291 Z-0.95 I0. J0.6
Y30.091 Z-0.975 I0. J-0.6
Y31.291 Z-1. I0. J0.6
Y30.091 I0. J-0.6
Y31.291 I0. J0.6
G1 Z1.
G0 X61.441 Y37.191
G1 Z0.1 F30.
X55.708 Z0.098 F600.
G2 X55.001 Y37.484 Z0.097 I0. J1.
G3 X54.648 Y37.13 I-0.177 J-0.177
G2 X54.941 Y36.423 I-0.707 J-0.707
G1 Y24.958 Z0.092
G2 X54.648 Y24.251 I-1. J0.
G3 X55.001 Y23.898 Z0.091 I0.177 J-0.177
G2 X55.708 Y24.191 I0.707 J-0.707
G1 X100.673 Z0.073
G2 X101.38 Y23.898 Z0.072 I0. J-1.
G3 X101.734 Y24.251 I0.177 J0.177
G2 X101.441 Y24.958 I0.707 J0.707
G1 Y36.423 Z0.067
G2 X101.734 Y37.13 I1. J0.
G3 X101.38 Y37.484 Z0.066 I-0.177 J0.177
G2 X100.673 Y37.191 I-0.707 J0.707
G1 X55.708 Z0.048
G2 X55.001 Y37.484 Z0.047 I0. J1.
G3 X54.648 Y37.13 I-0.177 J-0.177
G2 X54.941 Y36.423 I-0.707 J-0.707
G1 Y24.958 Z0.042
G2 X54.648 Y24.251 I-1. J0.
G3 X55.001 Y23.898 Z0.041 I0.177 J-0.177
G2 X55.708 Y24.191 I0.707 J-0.707
G1 X100.673 Z0.023
G2 X101.38 Y23.898 Z0.022 I0. J-1.
G3 X101.734 Y24.251 I0.177 J0.177
G2 X101.441 Y24.958 I0.707 J0.707
G1 Y36.423 Z0.017
G2 X101.734 Y37.13 I1. J0.
G3 X101.38 Y37.484 Z0.016 I-0.177 J0.177
G2 X100.673 Y37.191 I-0.707 J0.707
G1 X55.708 Z-0.002
G2 X55.001 Y37.484 Z-0.003 I0. J1.
G3 X54.648 Y37.13 I-0.177 J-0.177
G2 X54.941 Y36.423 I-0.707 J-0.707
G1 Y24.958 Z-0.008
G2 X54.648 Y24.251 I-1. J0.
G3 X55.001 Y23.898 Z-0.009 I0.177 J-0.177
G2 X55.708 Y24.191 I0.707 J-0.707
G1 X100.673 Z-0.027
G2 X101.38 Y23.898 Z-0.028 I0. J-1.
G3 X101.734 Y24.251 I0.177 J0.177
G2 X101.441 Y24.958 I0.707 J0.707
G1 Y36.423 Z-0.033
G2 X101.734 Y37.13 I1. J0.
G3 X101.38 Y37.484 Z-0.034 I-0.177 J0.177
G2 X100.673 Y37.191 I-0.707 J0.707
G1 X55.708 Z-0.052
G2 X55.001 Y37.484 Z-0.053 I0. J1.
G3 X54.648 Y37.13 I-0.177 J-0.177
G2 X54.941 Y36.423 I-0.707 J-0.707
G1 Y24.958 Z-0.058
G2 X54.648 Y24.251 I-1. J0.
G3 X55.001 Y23.898 Z-0.059 I0.177 J-0.177
G2 X55.708 Y24.191 I0.707 J-0.707
G1 X100.673 Z-0.077
G2 X101.38 Y23.898 Z-0.078 I0. J-1.
G3 X101.734 Y24.251 I0.177 J0.177
G2 X101.441 Y24.958 I0.707 J0.707
G1 Y36.423 Z-0.083
G2 X101.734 Y37.13 I1. J0.
G3 X101.38 Y37.484 Z-0.084 I-0.177 J0.177
G2 X100.673 Y37.191 I-0.707 J0.707
G1 X55.708 Z-0.102
G2 X55.001 Y37.484 Z-0.103 I0. J1.
G3 X54.648 Y37.13 I-0.177 J-0.177
G2 X54.941 Y36.423 I-0.707 J-0.707
G1 Y24.958 Z-0.108
G2 X54.648 Y24.251 I-1. J0.
G3 X55.001 Y23.898 Z-0.109 I0.177 J-0.177
G2 X55.708 Y24.191 I0.707 J-0.707
G1 X100.673 Z-0.127
G2 X101.38 Y23.898 Z-0.128 I0. J-1.
G3 X101.734 Y24.251 I0.177 J0.177
G2 X101.441 Y24.958 I0.707 J0.707
G1 Y36.423 Z-0.133
G2 X101.734 Y37.13 I1. J0.
G3 X101.38 Y37.484 Z-0.134 I-0.177 J0.177
G2 X100.673 Y37.191 I-0.707 J0.707
G1 X55.708 Z-0.152
G2 X55.001 Y37.484 Z-0.153 I0. J1.
G3 X54.648 Y37.13 I-0.177 J-0.177
G2 X54.941 Y36.423 I-0.707 J-0.707
G1 Y24.958 Z-0.158
G2 X54.648 Y24.251 I-1. J0.
G3 X55.001 Y23.898 Z-0.159 I0.177 J-0.177
G2 X55.708 Y24.191 I0.707 J-0.707
G1 X100.673 Z-0.177
G2 X101.38 Y23.898 Z-0.178 I0. J-1.
G3 X101.734 Y24.251 I0.177 J0.177
G2 X101.441 Y24.958 I0.707 J0.707
G1 Y36.423 Z-0.183
G2 X101.734 Y37.13 I1. J0.
G3 X101.38 Y37.484 Z-0.184 I-0.177 J0.177
G2 X100.673 Y37.191 I-0.707 J0.707
G1 X55.708 Z-0.202
G2 X55.001 Y37.484 Z-0.203 I0. J1.
G3 X54.648 Y37.13 I-0.177 J-0.177
G2 X54.941 Y36.423 I-0.707 J-0.707
G1 Y24.958 Z-0.208
G2 X54.648 Y24.251 I-1. J0.
G3 X55.001 Y23.898 Z-0.209 I0.177 J-0.177
G2 X55.708 Y24.191 I0.707 J-0.707
G1 X100.673 Z-0.227
G2 X101.38 Y23.898 Z-0.228 I0. J-1.
G3 X101.734 Y24.251 I0.177 J0.177
G2 X101.441 Y24.958 I0.707 J0.707
G1 Y36.423 Z-0.233
G2 X101.734 Y37.13 I1. J0.
G3 X101.38 Y37.484 Z-0.234 I-0.177 J0.177
G2 X100.673 Y37.191 I-0.707 J0.707
G1 X55.708 Z-0.252
G2 X55.001 Y37.484 Z-0.253 I0. J1.
G3 X54.648 Y37.13 I-0.177 J-0.177
G2 X54.941 Y36.423 I-0.707 J-0.707
G1 Y24.958 Z-0.258
G2 X54.648 Y24.251 I-1. J0.
G3 X55.001 Y23.898 Z-0.259 I0.177 J-0.177
G2 X55.708 Y24.191 I0.707 J-0.707
G1 X100.673 Z-0.277
G2 X101.38 Y23.898 Z-0.278 I0. J-1.
G3 X101.734 Y24.251 I0.177 J0.177
G2 X101.441 Y24.958 I0.707 J0.707
G1 Y36.423 Z-0.283
G2 X101.734 Y37.13 I1. J0.
G3 X101.38 Y37.484 Z-0.284 I-0.177 J0.177
G2 X100.673 Y37.191 I-0.707 J0.707
G1 X55.708 Z-0.302
G2 X55.001 Y37.484 Z-0.303 I0. J1.
G3 X54.648 Y37.13 I-0.177 J-0.177
G2 X54.941 Y36.423 I-0.707 J-0.707
G1 Y24.958 Z-0.308
G2 X54.648 Y24.251 I-1. J0.
G3 X55.001 Y23.898 Z-0.309 I0.177 J-0.177
G2 X55.708 Y24.191 I0.707 J-0.707
G1 X100.673 Z-0.327
G2 X101.38 Y23.898 Z-0.328 I0. J-1.
G3 X101.734 Y24.251 I0.177 J0.177
G2 X101.441 Y24.958 I0.707 J0.707
G1 Y36.423 Z-0.333
G2 X101.734 Y37.13 I1. J0.
G3 X101.38 Y37.484 Z-0.334 I-0.177 J0.177
G2 X100.673 Y37.191 I-0.707 J0.707
G1 X55.708 Z-0.352
G2 X55.001 Y37.484 Z-0.353 I0. J1.
G3 X54.648 Y37.13 I-0.177 J-0.177
G2 X54.941 Y36.423 I-0.707 J-0.707
G1 Y24.958 Z-0.358
G2 X54.648 Y24.251 I-1. J0.
G3 X55.001 Y23.898 Z-0.359 I0.177 J-0.177
G2 X55.708 Y24.191 I0.707 J-0.707
G1 X100.673 Z-0.377
G2 X101.38 Y23.898 Z-0.378 I0. J-1.
G3 X101.734 Y24.251 I0.177 J0.177
G2 X101.441 Y24.958 I0.707 J0.707
G1 Y36.423 Z-0.383
G2 X101.734 Y37.13 I1. J0.
G3 X101.38 Y37.484 Z-0.384 I-0.177 J0.177
G2 X100.673 Y37.191 I-0.707 J0.707
G1 X55.708 Z-0.402
G2 X55.001 Y37.484 Z-0.403 I0. J1.
G3 X54.648 Y37.13 I-0.177 J-0.177
G2 X54.941 Y36.423 I-0.707 J-0.707
G1 Y24.958 Z-0.408
G2 X54.648 Y24.251 I-1. J0.
G3 X55.001 Y23.898 Z-0.409 I0.177 J-0.177
G2 X55.708 Y24.191 I0.707 J-0.707
G1 X100.673 Z-0.427
G2 X101.38 Y23.898 Z-0.428 I0. J-1.
G3 X101.734 Y24.251 I0.177 J0.177
G2 X101.441 Y24.958 I0.707 J0.707
G1 Y36.423 Z-0.433
G2 X101.734 Y37.13 I1. J0.
G3 X101.38 Y37.484 Z-0.434 I-0.177 J0.177
G2 X100.673 Y37.191 I-0.707 J0.707
G1 X55.708 Z-0.452
G2 X55.001 Y37.484 Z-0.453 I0. J1.
G3 X54.648 Y37.13 I-0.177 J-0.177
G2 X54.941 Y36.423 I-0.707 J-0.707
G1 Y24.958 Z-0.458
G2 X54.648 Y24.251 I-1. J0.
G3 X55.001 Y23.898 Z-0.459 I0.177 J-0.177
G2 X55.708 Y24.191 I0.707 J-0.707
G1 X100.673 Z-0.477
G2 X101.38 Y23.898 Z-0.478 I0. J-1.
G3 X101.734 Y24.251 I0.177 J0.177
G2 X101.441 Y24.958 I0.707 J0.707
G1 Y36.423 Z-0.483
G2 X101.734 Y37.13 I1. J0.
G3 X101.38 Y37.484 Z-0.484 I-0.177 J0.177
G2 X100.673 Y37.191 I-0.707 J0.707
G1 X55.708 Z-0.502
G2 X55.001 Y37.484 Z-0.503 I0. J1.
G3 X54.648 Y37.13 I-0.177 J-0.177
G2 X54.941 Y36.423 I-0.707 J-0.707
G1 Y24.958 Z-0.508
G2 X54.648 Y24.251 I-1. J0.
G3 X55.001 Y23.898 Z-0.509 I0.177 J-0.177
G2 X55.708 Y24.191 I0.707 J-0.707
G1 X100.673 Z-0.527
G2 X101.38 Y23.898 Z-0.528 I0. J-1.
G3 X101.734 Y24.251 I0.177 J0.177
G2 X101.441 Y24.958 I0.707 J0.707
G1 Y36.423 Z-0.533
G2 X101.734 Y37.13 I1. J0.
G3 X101.38 Y37.484 Z-0.534 I-0.177 J0.177
G2 X100.673 Y37.191 I-0.707 J0.707
G1 X55.708 Z-0.552
G2 X55.001 Y37.484 Z-0.553 I0. J1.
G3 X54.648 Y37.13 I-0.177 J-0.177
G2 X54.941 Y36.423 I-0.707 J-0.707
G1 Y24.958 Z-0.558
G2 X54.648 Y24.251 I-1. J0.
G3 X55.001 Y23.898 Z-0.559 I0.177 J-0.177
G2 X55.708 Y24.191 I0.707 J-0.707
G1 X100.673 Z-0.577
G2 X101.38 Y23.898 Z-0.578 I0. J-1.
G3 X101.734 Y24.251 I0.177 J0.177
G2 X101.441 Y24.958 I0.707 J0.707
G1 Y36.423 Z-0.583
G2 X101.734 Y37.13 I1. J0.
G3 X101.38 Y37.484 Z-0.584 I-0.177 J0.177
G2 X100.673 Y37.191 I-0.707 J0.707
G1 X55.708 Z-0.602
G2 X55.001 Y37.484 Z-0.603 I0. J1.
G3 X54.648 Y37.13 I-0.177 J-0.177
G2 X54.941 Y36.423 I-0.707 J-0.707
G1 Y24.958 Z-0.608
G2 X54.648 Y24.251 I-1. J0.
G3 X55.001 Y23.898 Z-0.609 I0.177 J-0.177
G2 X55.708 Y24.191 I0.707 J-0.707
G1 X100.673 Z-0.627
G2 X101.38 Y23.898 Z-0.628 I0. J-1.
G3 X101.734 Y24.251 I0.177 J0.177
G2 X101.441 Y24.958 I0.707 J0.707
G1 Y36.423 Z-0.633
G2 X101.734 Y37.13 I1. J0.
G3 X101.38 Y37.484 Z-0.634 I-0.177 J0.177
G2 X100.673 Y37.191 I-0.707 J0.707
G1 X55.708 Z-0.652
G2 X55.001 Y37.484 Z-0.653 I0. J1.
G3 X54.648 Y37.13 I-0.177 J-0.177
G2 X54.941 Y36.423 I-0.707 J-0.707
G1 Y24.958 Z-0.658
G2 X54.648 Y24.251 I-1. J0.
G3 X55.001 Y23.898 Z-0.659 I0.177 J-0.177
G2 X55.708 Y24.191 I0.707 J-0.707
G1 X100.673 Z-0.677
G2 X101.38 Y23.898 Z-0.678 I0. J-1.
G3 X101.734 Y24.251 I0.177 J0.177
G2 X101.441 Y24.958 I0.707 J0.707
G1 Y36.423 Z-0.683
G2 X101.734 Y37.13 I1. J0.
G3 X101.38 Y37.484 Z-0.684 I-0.177 J0.177
G2 X100.673 Y37.191 I-0.707 J0.707
G1 X55.708 Z-0.702
G2 X55.001 Y37.484 Z-0.703 I0. J1.
G3 X54.648 Y37.13 I-0.177 J-0.177
G2 X54.941 Y36.423 I-0.707 J-0.707
G1 Y24.958 Z-0.708
G2 X54.648 Y24.251 I-1. J0.
G3 X55.001 Y23.898 Z-0.709 I0.177 J-0.177
G2 X55.708 Y24.191 I0.707 J-0.707
G1 X65.932 Z-0.713
X65.95 Z-0.7
X67.95
X67.968 Z-0.714 F30.
X88.402 Z-0.722 F600.
X88.432 Z-0.7
X90.432
X90.463 Z-0.723 F30.
X100.673 Z-0.727 F600.
G2 X101.38 Y23.898 Z-0.728 I0. J-1.
G3 X101.734 Y24.251 I0.177 J0.177
G2 X101.441 Y24.958 I0.707 J0.707
G1 Y36.423 Z-0.733
G2 X101.734 Y37.13 I1. J0.
G3 X101.38 Y37.484 Z-0.734 I-0.177 J0.177
G2 X100.673 Y37.191 I-0.707 J0.707
G1 X90.483 Z-0.738
X90.432 Z-0.7
X88.432
X88.38 Z-0.739 F30.
X68.013 Z-0.747 F600.
X67.95 Z-0.7
X65.95
X65.885 Z-0.748 F30.
X55.708 Z-0.752 F600.
G2 X55.001 Y37.484 Z-0.753 I0. J1.
G3 X54.648 Y37.13 I-0.177 J-0.177
G2 X54.941 Y36.423 I-0.707 J-0.707
G1 Y24.958 Z-0.758
G2 X54.648 Y24.251 I-1. J0.
G3 X55.001 Y23.898 Z-0.759 I0.177 J-0.177
G2 X55.708 Y24.191 I0.707 J-0.707
G1 X65.865 Z-0.763
X65.95 Z-0.7
X67.95
X68.035 Z-0.764 F30.
X88.335 Z-0.772 F600.
X88.432 Z-0.7
X90.432
X90.529 Z-0.773 F30.
X100.673 Z-0.777 F600.
G2 X101.38 Y23.898 Z-0.778 I0. J-1.
G3 X101.734 Y24.251 I0.177 J0.177
G2 X101.441 Y24.958 I0.707 J0.707
G1 Y36.423 Z-0.783
G2 X101.734 Y37.13 I1. J0.
G3 X101.38 Y37.484 Z-0.784 I-0.177 J0.177
G2 X100.673 Y37.191 I-0.707 J0.707
G1 X90.549 Z-0.788
X90.432 Z-0.7
X88.432
X88.313 Z-0.789 F30.
X68.079 Z-0.797 F600.
X67.95 Z-0.7
X65.95
X65.819 Z-0.798 F30.
X55.708 Z-0.802 F600.
G2 X55.001 Y37.484 Z-0.803 I0. J1.
G3 X54.648 Y37.13 I-0.177 J-0.177
G2 X54.941 Y36.423 I-0.707 J-0.707
G1 Y24.958 Z-0.808
G2 X54.648 Y24.251 I-1. J0.
G3 X55.001 Y23.898 Z-0.809 I0.177 J-0.177
G2 X55.708 Y24.191 I0.707 J-0.707
G1 X65.799 Z-0.813
X65.95 Z-0.7
X67.95
X68.102 Z-0.814 F30.
X88.269 Z-0.822 F600.
X88.432 Z-0.7
X90.432
X90.596 Z-0.823 F30.
X100.673 Z-0.827 F600.
G2 X101.38 Y23.898 Z-0.828 I0. J-1.
G3 X101.734 Y24.251 I0.177 J0.177
G2 X101.441 Y24.958 I0.707 J0.707
G1 Y36.423 Z-0.833
G2 X101.734 Y37.13 I1. J0.
G3 X101.38 Y37.484 Z-0.834 I-0.177 J0.177
G2 X100.673 Y37.191 I-0.707 J0.707
G1 X90.616 Z-0.838
X90.432 Z-0.7
X88.432
X88.246 Z-0.839 F30.
X68.146 Z-0.847 F600.
X67.95 Z-0.7
X65.95
X65.752 Z-0.848 F30.
X55.708 Z-0.852 F600.
G2 X55.001 Y37.484 Z-0.853 I0. J1.
G3 X54.648 Y37.13 I-0.177 J-0.177
G2 X54.941 Y36.423 I-0.707 J-0.707
G1 Y24.958 Z-0.858
G2 X54.648 Y24.251 I-1. J0.
G3 X55.001 Y23.898 Z-0.859 I0.177 J-0.177
G2 X55.708 Y24.191 I0.707 J-0.707
G1 X65.732 Z-0.863
X65.95 Z-0.7
X67.95
X68.168 Z-0.864 F30.
X88.202 Z-0.872 F600.
X88.432 Z-0.7
X90.432
X90.663 Z-0.873 F30.
X100.673 Z-0.877 F600.
G2 X101.38 Y23.898 Z-0.878 I0. J-1.
G3 X101.734 Y24.251 I0.177 J0.177
G2 X101.441 Y24.958 I0.707 J0.707
G1 Y36.423 Z-0.883
G2 X101.734 Y37.13 I1. J0.
G3 X101.38 Y37.484 Z-0.884 I-0.177 J0.177
G2 X100.673 Y37.191 I-0.707 J0.707
G1 X90.683 Z-0.888
X90.432 Z-0.7
X88.432
X88.18 Z-0.889 F30.
X68.213 Z-0.897 F600.
X67.95 Z-0.7
X65.95
X65.685 Z-0.898 F30.
X55.708 Z-0.902 F600.
G2 X55.001 Y37.484 Z-0.903 I0. J1.
G3 X54.648 Y37.13 I-0.177 J-0.177
G2 X54.941 Y36.423 I-0.707 J-0.707
G1 Y24.958 Z-0.908
G2 X54.648 Y24.251 I-1. J0.
G3 X55.001 Y23.898 Z-0.909 I0.177 J-0.177
G2 X55.708 Y24.191 I0.707 J-0.707
G1 X65.666 Z-0.913
X65.95 Z-0.7
X67.95
X68.235 Z-0.914 F30.
X88.136 Z-0.922 F600.
X88.432 Z-0.7
X90.432
X90.73 Z-0.923 F30.
X100.673 Z-0.927 F600.
G2 X101.38 Y23.898 Z-0.928 I0. J-1.
G3 X101.734 Y24.251 I0.177 J0.177
G2 X101.441 Y24.958 I0.707 J0.707
G1 Y36.423 Z-0.933
G2 X101.734 Y37.13 I1. J0.
G3 X101.38 Y37.484 Z-0.934 I-0.177 J0.177
G2 X100.673 Y37.191 I-0.707 J0.707
G1 X90.749 Z-0.938
X90.432 Z-0.7
X88.432
X88.113 Z-0.939 F30.
X68.279 Z-0.947 F600.
X67.95 Z-0.7
X65.95
X65.619 Z-0.948 F30.
X55.708 Z-0.952 F600.
G2 X55.001 Y37.484 Z-0.953 I0. J1.
G3 X54.648 Y37.13 I-0.177 J-0.177
G2 X54.941 Y36.423 I-0.707 J-0.707
G1 Y24.958 Z-0.958
G2 X54.648 Y24.251 I-1. J0.
G3 X55.001 Y23.898 Z-0.959 I0.177 J-0.177
G2 X55.708 Y24.191 I0.707 J-0.707
G1 X65.599 Z-0.963
X65.95 Z-0.7
X67.95
X68.302 Z-0.964 F30.
X88.069 Z-0.972 F600.
X88.432 Z-0.7
X90.432
X90.796 Z-0.973 F30.
X100.673 Z-0.977 F600.
G2 X101.38 Y23.898 Z-0.978 I0. J-1.
G3 X101.734 Y24.251 I0.177 J0.177
G2 X101.441 Y24.958 I0.707 J0.707
G1 Y36.423 Z-0.983
G2 X101.734 Y37.13 I1. J0.
G3 X101.38 Y37.484 Z-0.984 I-0.177 J0.177
G2 X100.673 Y37.191 I-0.707 J0.707
G1 X90.816 Z-0.988
X90.432 Z-0.7
X88.432
X88.046 Z-0.989 F30.
X68.346 Z-0.997 F600.
X67.95 Z-0.7
X65.95
X65.552 Z-0.998 F30.
X61.441 Z-1. F600.
X55.708
G2 X55.001 Y37.484 I0. J1.
G3 X54.648 Y37.13 I-0.177 J-0.177
G2 X54.941 Y36.423 I-0.707 J-0.707
G1 Y24.958
G2 X54.648 Y24.251 I-1. J0.
G3 X55.001 Y23.898 I0.177 J-0.177
G2 X55.708 Y24.191 I0.707 J-0.707
G1 X65.55
X65.95 Z-0.7
X67.95
X68.35 Z-1. F30.
X88.032 F600.
X88.432 Z-0.7
X90.432
X90.832 Z-1. F30.
X100.673 F600.
G2 X101.38 Y23.898 I0. J-1.
G3 X101.734 Y24.251 I0.177 J0.177
G2 X101.441 Y24.958 I0.707 J0.707
G1 Y36.423
G2 X101.734 Y37.13 I1. J0.
G3 X101.38 Y37.484 I-0.177 J0.177
G2 X100.673 Y37.191 I-0.707 J0.707
G1 X90.832
X90.432 Z-0.7
X88.432
X88.032 Z-1. F30.
X68.35 F600.
X67.95 Z-0.7
X65.95
X65.55 Z-1. F30.
X61.441 F600.
Z1.
G0 X50.691 Y30.091
G1 Z0.1 F30.
G3 Y31.291 Z0.075 I0. J0.6 F600.
Y30.091 Z0.05 I0. J-0.6
Y31.291 Z0.025 I0. J0.6
Y30.091 Z0. I0. J-0.6
Y31.291 Z-0.025 I0. J0.6
Y30.091 Z-0.05 I0. J-0.6
Y31.291 Z-0.075 I0. J0.6
Y30.091 Z-0.1 I0. J-0.6
Y31.291 Z-0.125 I0. J0.6
Y30.091 Z-0.15 I0. J-0.6
Y31.291 Z-0.175 I0. J0.6
Y30.091 Z-0.2 I0. J-0.6
Y31.291 Z-0.225 I0. J0.6
Y30.091 Z-0.25 I0. J-0.6
Y31.291 Z-0.275 I0. J0.6
Y30.091 Z-0.3 I0. J-0.6
Y31.291 Z-0.325 I0. J0.6
Y30.091 Z-0.35 I0. J-0.6
Y31.291 Z-0.375 I0. J0.6
Y30.091 Z-0.4 I0. J-0.6
Y31.291 Z-0.425 I0. J0.6
Y30.091 Z-0.45 I0. J-0.6
Y31.291 Z-0.475 I0. J0.6
Y30.091 Z-0.5 I0. J-0.6
Y31.291 Z-0.525 I0. J0.6
Y30.091 Z-0.55 I0. J-0.6
Y31.291 Z-0.575 I0. J0.6
Y30.091 Z-0.6 I0. J-0.6
Y31.291 Z-0.625 I0. J0.6
Y30.091 Z-0.65 I0. J-0.6
Y31.291 Z-0.675 I0. J0.6
Y30.091 Z-0.7 I0. J-0.6
Y31.291 Z-0.725 I0. J0.6
Y30.091 Z-0.75 I0. J-0.6
Y31.291 Z-0.775 I0. J0.6
Y30.091 Z-0.8 I0. J-0.6
Y31.291 Z-0.825 I0. J0.6
Y30.091 Z-0.85 I0. J-0.6
Y31.291 Z-0.875 I0. J0.6
Y30.091 Z-0.9 I0. J-0.6
Y31.291 Z-0.925 I0. J0.6
Y30.091 Z-0.95 I0. J-0.6
Y31.291 Z-0.975 I0. J0.6
Y30.091 Z-1. I0. J-0.6
Y31.291 I0. J0.6
Y30.091 I0. J-0.6
G1 Z1.
G0 X78.19 Y62.381
G1 Z0.1 F30.
X136.691 Z0.093 F600.
G2 X142.691 Y56.381 Z0.092 I0. J-6.
G1 Y49.191 Z0.091
G3 X144.191 Y47.691 I1.5 J0.
G1 X151.381 Z0.09
G2 X157.381 Y41.691 Z0.089 I0. J-6.
G1 Y19.691 Z0.086
G2 X151.381 Y13.691 Z0.085 I-6. J0.
G1 X144.191 Z0.084
G3 X142.691 Y12.191 I0. J-1.5
G1 Y5. Z0.083
G2 X136.691 Y-1. Z0.082 I-6. J0.
G1 X19.691 Z0.068
G2 X13.691 Y5. Z0.067 I0. J6.
G1 Y12.191 Z0.066
G3 X12.191 Y13.691 I-1.5 J0.
G1 X5. Z0.065
G2 X-1. Y19.691 Z0.064 I0. J6.
G1 Y41.691 Z0.061
G2 X5. Y47.691 Z0.06 I6. J0.
G1 X12.191 Z0.059
G3 X13.691 Y49.191 I0. J1.5
G1 Y56.381 Z0.058
G2 X19.691 Y62.381 Z0.057 I6. J0.
G1 X136.691 Z0.043
G2 X142.691 Y56.381 Z0.042 I0. J-6.
G1 Y49.191 Z0.041
G3 X144.191 Y47.691 I1.5 J0.
G1 X151.381 Z0.04
G2 X157.381 Y41.691 Z0.039 I0. J-6.
G1 Y19.691 Z0.036
G2 X151.381 Y13.691 Z0.035 I-6. J0.
G1 X144.191 Z0.034
G3 X142.691 Y12.191 I0. J-1.5
G1 Y5. Z0.033
G2 X136.691 Y-1. Z0.032 I-6. J0.
G1 X19.691 Z0.018
G2 X13.691 Y5. Z0.017 I0. J6.
G1 Y12.191 Z0.016
G3 X12.191 Y13.691 I-1.5 J0.
G1 X5. Z0.015
G2 X-1. Y19.691 Z0.014 I0. J6.
G1 Y41.691 Z0.011
G2 X5. Y47.691 Z0.01 I6. J0.
G1 X12.191 Z0.009
G3 X13.691 Y49.191 I0. J1.5
G1 Y56.381 Z0.008
G2 X19.691 Y62.381 Z0.007 I6. J0.
G1 X136.691 Z-0.007
G2 X142.691 Y56.381 Z-0.008 I0. J-6.
G1 Y49.191 Z-0.009
G3 X144.191 Y47.691 I1.5 J0.
G1 X151.381 Z-0.01
G2 X157.381 Y41.691 Z-0.011 I0. J-6.
G1 Y19.691 Z-0.014
G2 X151.381 Y13.691 Z-0.015 I-6. J0.
G1 X144.191 Z-0.016
G3 X142.691 Y12.191 I0. J-1.5
G1 Y5. Z-0.017
G2 X136.691 Y-1. Z-0.018 I-6. J0.
G1 X19.691 Z-0.032
G2 X13.691 Y5. Z-0.033 I0. J6.
G1 Y12.191 Z-0.034
G3 X12.191 Y13.691 I-1.5 J0.
G1 X5. Z-0.035
G2 X-1. Y19.691 Z-0.036 I0. J6.
G1 Y41.691 Z-0.039
G2 X5. Y47.691 Z-0.04 I6. J0.
G1 X12.191 Z-0.041
G3 X13.691 Y49.191 I0. J1.5
G1 Y56.381 Z-0.042
G2 X19.691 Y62.381 Z-0.043 I6. J0.
G1 X136.691 Z-0.057
G2 X142.691 Y56.381 Z-0.058 I0. J-6.
G1 Y49.191 Z-0.059
G3 X144.191 Y47.691 I1.5 J0.
G1 X151.381 Z-0.06
G2 X157.381 Y41.691 Z-0.061 I0. J-6.
G1 Y19.691 Z-0.064
G2 X151.381 Y13.691 Z-0.065 I-6. J0.
G1 X144.191 Z-0.066
G3 X142.691 Y12.191 I0. J-1.5
G1 Y5. Z-0.067
G2 X136.691 Y-1. Z-0.068 I-6. J0.
G1 X19.691 Z-0.082
G2 X13.691 Y5. Z-0.083 I0. J6.
G1 Y12.191 Z-0.084
G3 X12.191 Y13.691 I-1.5 J0.
G1 X5. Z-0.085
G2 X-1. Y19.691 Z-0.086 I0. J6.
G1 Y41.691 Z-0.089
G2 X5. Y47.691 Z-0.09 I6. J0.
G1 X12.191 Z-0.091
G3 X13.691 Y49.191 I0. J1.5
G1 Y56.381 Z-0.092
G2 X19.691 Y62.381 Z-0.093 I6. J0.
G1 X136.691 Z-0.107
G2 X142.691 Y56.381 Z-0.108 I0. J-6.
G1 Y49.191 Z-0.109
G3 X144.191 Y47.691 I1.5 J0.
G1 X151.381 Z-0.11
G2 X157.381 Y41.691 Z-0.111 I0. J-6.
G1 Y19.691 Z-0.114
G2 X151.381 Y13.691 Z-0.115 I-6. J0.
G1 X144.191 Z-0.116
G3 X142.691 Y12.191 I0. J-1.5
G1 Y5. Z-0.117
G2 X136.691 Y-1. Z-0.118 I-6. J0.
G1 X19.691 Z-0.132
G2 X13.691 Y5. Z-0.133 I0. J6.
G1 Y12.191 Z-0.134
G3 X12.191 Y13.691 I-1.5 J0.
G1 X5. Z-0.135
G2 X-1. Y19.691 Z-0.136 I0. J6.
G1 Y41.691 Z-0.139
G2 X5. Y47.691 Z-0.14 I6. J0.
G1 X12.191 Z-0.141
G3 X13.691 Y49.191 I0. J1.5
G1 Y56.381 Z-0.142
G2 X19.691 Y62.381 Z-0.143 I6. J0.
G1 X136.691 Z-0.157
G2 X142.691 Y56.381 Z-0.158 I0. J-6.
G1 Y49.191 Z-0.159
G3 X144.191 Y47.691 I1.5 J0.
G1 X151.381 Z-0.16
G2 X157.381 Y41.691 Z-0.161 I0. J-6.
G1 Y19.691 Z-0.164
G2 X151.381 Y13.691 Z-0.165 I-6. J0.
G1 X144.191 Z-0.166
G3 X142.691 Y12.191 I0. J-1.5
G1 Y5. Z-0.167
G2 X136.691 Y-1. Z-0.168 I-6. J0.
G1 X19.691 Z-0.182
G2 X13.691 Y5. Z-0.183 I0. J6.
G1 Y12.191 Z-0.184
G3 X12.191 Y13.691 I-1.5 J0.
G1 X5. Z-0.185
G2 X-1. Y19.691 Z-0.186 I0. J6.
G1 Y41.691 Z-0.189
G2 X5. Y47.691 Z-0.19 I6. J0.
G1 X12.191 Z-0.191
G3 X13.691 Y49.191 I0. J1.5
G1 Y56.381 Z-0.192
G2 X19.691 Y62.381 Z-0.193 I6. J0.
G1 X136.691 Z-0.207
G2 X142.691 Y56.381 Z-0.208 I0. J-6.
G1 Y49.191 Z-0.209
G3 X144.191 Y47.691 I1.5 J0.
G1 X151.381 Z-0.21
G2 X157.381 Y41.691 Z-0.211 I0. J-6.
G1 Y19.691 Z-0.214
G2 X151.381 Y13.691 Z-0.215 I-6. J0.
G1 X144.191 Z-0.216
G3 X142.691 Y12.191 I0. J-1.5
G1 Y5. Z-0.217
G2 X136.691 Y-1. Z-0.218 I-6. J0.
G1 X19.691 Z-0.232
G2 X13.691 Y5. Z-0.233 I0. J6.
G1 Y12.191 Z-0.234
G3 X12.191 Y13.691 I-1.5 J0.
G1 X5. Z-0.235
G2 X-1. Y19.691 Z-0.236 I0. J6.
G1 Y41.691 Z-0.239
G2 X5. Y47.691 Z-0.24 I6. J0.
G1 X12.191 Z-0.241
G3 X13.691 Y49.191 I0. J1.5
G1 Y56.381 Z-0.242
G2 X19.691 Y62.381 Z-0.243 I6. J0.
G1 X136.691 Z-0.257
G2 X142.691 Y56.381 Z-0.258 I0. J-6.
G1 Y49.191 Z-0.259
G3 X144.191 Y47.691 I1.5 J0.
G1 X151.381 Z-0.26
G2 X157.381 Y41.691 Z-0.261 I0. J-6.
G1 Y19.691 Z-0.264
G2 X151.381 Y13.691 Z-0.265 I-6. J0.
G1 X144.191 Z-0.266
G3 X142.691 Y12.191 I0. J-1.5
G1 Y5. Z-0.267
G2 X136.691 Y-1. Z-0.268 I-6. J0.
G1 X19.691 Z-0.282
G2 X13.691 Y5. Z-0.283 I0. J6.
G1 Y12.191 Z-0.284
G3 X12.191 Y13.691 I-1.5 J0.
G1 X5. Z-0.285
G2 X-1. Y19.691 Z-0.286 I0. J6.
G1 Y41.691 Z-0.289
G2 X5. Y47.691 Z-0.29 I6. J0.
G1 X12.191 Z-0.291
G3 X13.691 Y49.191 I0. J1.5
G1 Y56.381 Z-0.292
G2 X19.691 Y62.381 Z-0.293 I6. J0.
G1 X136.691 Z-0.307
G2 X142.691 Y56.381 Z-0.308 I0. J-6.
G1 Y49.191 Z-0.309
G3 X144.191 Y47.691 I1.5 J0.
G1 X151.381 Z-0.31
G2 X157.381 Y41.691 Z-0.311 I0. J-6.
G1 Y19.691 Z-0.314
G2 X151.381 Y13.691 Z-0.315 I-6. J0.
G1 X144.191 Z-0.316
G3 X142.691 Y12.191 I0. J-1.5
G1 Y5. Z-0.317
G2 X136.691 Y-1. Z-0.318 I-6. J0.
G1 X19.691 Z-0.332
G2 X13.691 Y5. Z-0.333 I0. J6.
G1 Y12.191 Z-0.334
G3 X12.191 Y13.691 I-1.5 J0.
G1 X5. Z-0.335
G2 X-1. Y19.691 Z-0.336 I0. J6.
G1 Y41.691 Z-0.339
G2 X5. Y47.691 Z-0.34 I6. J0.
G1 X12.191 Z-0.341
G3 X13.691 Y49.191 I0. J1.5
G1 Y56.381 Z-0.342
G2 X19.691 Y62.381 Z-0.343 I6. J0.
G1 X136.691 Z-0.357
G2 X142.691 Y56.381 Z-0.358 I0. J-6.
G1 Y49.191 Z-0.359
G3 X144.191 Y47.691 I1.5 J0.
G1 X151.381 Z-0.36
G2 X157.381 Y41.691 Z-0.361 I0. J-6.
G1 Y19.691 Z-0.364
G2 X151.381 Y13.691 Z-0.365 I-6. J0.
G1 X144.191 Z-0.366
G3 X142.691 Y12.191 I0. J-1.5
G1 Y5. Z-0.367
G2 X136.691 Y-1. Z-0.368 I-6. J0.
G1 X19.691 Z-0.382
G2 X13.691 Y5. Z-0.383 I0. J6.
G1 Y12.191 Z-0.384
G3 X12.191 Y13.691 I-1.5 J0.
G1 X5. Z-0.385
G2 X-1. Y19.691 Z-0.386 I0. J6.
G1 Y41.691 Z-0.389
G2 X5. Y47.691 Z-0.39 I6. J0.
G1 X12.191 Z-0.391
G3 X13.691 Y49.191 I0. J1.5
G1 Y56.381 Z-0.392
G2 X19.691 Y62.381 Z-0.393 I6. J0.
G1 X136.691 Z-0.407
G2 X142.691 Y56.381 Z-0.408 I0. J-6.
G1 Y49.191 Z-0.409
G3 X144.191 Y47.691 I1.5 J0.
G1 X151.381 Z-0.41
G2 X157.381 Y41.691 Z-0.411 I0. J-6.
G1 Y19.691 Z-0.414
G2 X151.381 Y13.691 Z-0.415 I-6. J0.
G1 X144.191 Z-0.416
G3 X142.691 Y12.191 I0. J-1.5
G1 Y5. Z-0.417
G2 X136.691 Y-1. Z-0.418 I-6. J0.
G1 X19.691 Z-0.432
G2 X13.691 Y5. Z-0.433 I0. J6.
G1 Y12.191 Z-0.434
G3 X12.191 Y13.691 I-1.5 J0.
G1 X5. Z-0.435
G2 X-1. Y19.691 Z-0.436 I0. J6.
G1 Y41.691 Z-0.439
G2 X5. Y47.691 Z-0.44 I6. J0.
G1 X12.191 Z-0.441
G3 X13.691 Y49.191 I0. J1.5
G1 Y56.381 Z-0.442
G2 X19.691 Y62.381 Z-0.443 I6. J0.
G1 X136.691 Z-0.457
G2 X142.691 Y56.381 Z-0.458 I0. J-6.
G1 Y49.191 Z-0.459
G3 X144.191 Y47.691 I1.5 J0.
G1 X151.381 Z-0.46
G2 X157.381 Y41.691 Z-0.461 I0. J-6.
G1 Y19.691 Z-0.464
G2 X151.381 Y13.691 Z-0.465 I-6. J0.
G1 X144.191 Z-0.466
G3 X142.691 Y12.191 I0. J-1.5
G1 Y5. Z-0.467
G2 X136.691 Y-1. Z-0.468 I-6. J0.
G1 X19.691 Z-0.482
G2 X13.691 Y5. Z-0.483 I0. J6.
G1 Y12.191 Z-0.484
G3 X12.191 Y13.691 I-1.5 J0.
G1 X5. Z-0.485
G2 X-1. Y19.691 Z-0.486 I0. J6.
G1 Y41.691 Z-0.489
G2 X5. Y47.691 Z-0.49 I6. J0.
G1 X12.191 Z-0.491
G3 X13.691 Y49.191 I0. J1.5
G1 Y56.381 Z-0.492
G2 X19.691 Y62.381 Z-0.493 I6. J0.
G1 X136.691 Z-0.507
G2 X142.691 Y56.381 Z-0.508 I0. J-6.
G1 Y49.191 Z-0.509
G3 X144.191 Y47.691 I1.5 J0.
G1 X151.381 Z-0.51
G2 X157.381 Y41.691 Z-0.511 I0. J-6.
G1 Y19.691 Z-0.514
G2 X151.381 Y13.691 Z-0.515 I-6. J0.
G1 X144.191 Z-0.516
G3 X142.691 Y12.191 I0. J-1.5
G1 Y5. Z-0.517
G2 X136.691 Y-1. Z-0.518 I-6. J0.
G1 X19.691 Z-0.532
G2 X13.691 Y5. Z-0.533 I0. J6.
G1 Y12.191 Z-0.534
G3 X12.191 Y13.691 I-1.5 J0.
G1 X5. Z-0.535
G2 X-1. Y19.691 Z-0.536 I0. J6.
G1 Y41.691 Z-0.539
G2 X5. Y47.691 Z-0.54 I6. J0.
G1 X12.191 Z-0.541
G3 X13.691 Y49.191 I0. J1.5
G1 Y56.381 Z-0.542
G2 X19.691 Y62.381 Z-0.543 I6. J0.
G1 X136.691 Z-0.557
G2 X142.691 Y56.381 Z-0.558 I0. J-6.
G1 Y49.191 Z-0.559
G3 X144.191 Y47.691 I1.5 J0.
G1 X151.381 Z-0.56
G2 X157.381 Y41.691 Z-0.561 I0. J-6.
G1 Y19.691 Z-0.564
G2 X151.381 Y13.691 Z-0.565 I-6. J0.
G1 X144.191 Z-0.566
G3 X142.691 Y12.191 I0. J-1.5
G1 Y5. Z-0.567
G2 X136.691 Y-1. Z-0.568 I-6. J0.
G1 X19.691 Z-0.582
G2 X13.691 Y5. Z-0.583 I0. J6.
G1 Y12.191 Z-0.584
G3 X12.191 Y13.691 I-1.5 J0.
G1 X5. Z-0.585
G2 X-1. Y19.691 Z-0.586 I0. J6.
G1 Y41.691 Z-0.589
G2 X5. Y47.691 Z-0.59 I6. J0.
G1 X12.191 Z-0.591
G3 X13.691 Y49.191 I0. J1.5
G1 Y56.381 Z-0.592
G2 X19.691 Y62.381 Z-0.593 I6. J0.
G1 X136.691 Z-0.607
G2 X142.691 Y56.381 Z-0.608 I0. J-6.
G1 Y49.191 Z-0.609
G3 X144.191 Y47.691 I1.5 J0.
G1 X151.381 Z-0.61
G2 X157.381 Y41.691 Z-0.611 I0. J-6.
G1 Y19.691 Z-0.614
G2 X151.381 Y13.691 Z-0.615 I-6. J0.
G1 X144.191 Z-0.616
G3 X142.691 Y12.191 I0. J-1.5
G1 Y5. Z-0.617
G2 X136.691 Y-1. Z-0.618 I-6. J0.
G1 X19.691 Z-0.632
G2 X13.691 Y5. Z-0.633 I0. J6.
G1 Y12.191 Z-0.634
G3 X12.191 Y13.691 I-1.5 J0.
G1 X5. Z-0.635
G2 X-1. Y19.691 Z-0.636 I0. J6.
G1 Y41.691 Z-0.639
G2 X5. Y47.691 Z-0.64 I6. J0.
G1 X12.191 Z-0.641
G3 X13.691 Y49.191 I0. J1.5
G1 Y56.381 Z-0.642
G2 X19.691 Y62.381 Z-0.643 I6. J0.
G1 X136.691 Z-0.657
G2 X142.691 Y56.381 Z-0.658 I0. J-6.
G1 Y49.191 Z-0.659
G3 X144.191 Y47.691 I1.5 J0.
G1 X151.381 Z-0.66
G2 X157.381 Y41.691 Z-0.661 I0. J-6.
G1 Y19.691 Z-0.664
G2 X151.381 Y13.691 Z-0.665 I-6. J0.
G1 X144.191 Z-0.666
G3 X142.691 Y12.191 I0. J-1.5
G1 Y5. Z-0.667
G2 X136.691 Y-1. Z-0.668 I-6. J0.
G1 X19.691 Z-0.682
G2 X13.691 Y5. Z-0.683 I0. J6.
G1 Y12.191 Z-0.684
G3 X12.191 Y13.691 I-1.5 J0.
G1 X5. Z-0.685
G2 X-1. Y19.691 Z-0.686 I0. J6.
G1 Y41.691 Z-0.689
G2 X5. Y47.691 Z-0.69 I6. J0.
G1 X12.191 Z-0.691
G3 X13.691 Y49.191 I0. J1.5
G1 Y56.381 Z-0.692
G2 X19.691 Y62.381 Z-0.693 I6. J0.
G1 X78.19 Z-0.7
X79.191 F30.
X93.903 Z-0.702 F600.
X93.905 Z-0.7
X95.905
X95.908 Z-0.702 F30.
X110.614 Z-0.704 F600.
X110.619 Z-0.7
X112.619
X112.624 Z-0.704 F30.
X127.326 Z-0.706 F600.
X127.334 Z-0.7
X129.334
X129.342 Z-0.706 F30.
X136.691 Z-0.707 F600.
G2 X142.691 Y56.381 Z-0.708 I0. J-6.
G1 Y49.191 Z-0.709
G3 X144.191 Y47.691 I1.5 J0.
G1 X151.381 Z-0.71
G2 X157.381 Y41.691 Z-0.711 I0. J-6.
G1 Y31.707 Z-0.712
Y31.691 Z-0.7
Y29.691
Y29.674 Z-0.713 F30.
Y19.691 Z-0.714 F600.
G2 X151.381 Y13.691 Z-0.715 I-6. J0.
G1 X144.191 Z-0.716
G3 X142.691 Y12.191 I0. J-1.5
G1 Y5. Z-0.717
G2 X136.691 Y-1. Z-0.718 I-6. J0.
G1 X129.359 Z-0.719
X129.334 Z-0.7
X127.334
X127.308 Z-0.719 F30.
X112.647 Z-0.721 F600.
X112.619 Z-0.7
X110.619
X110.591 Z-0.721 F30.
X95.936 Z-0.723 F600.
X95.905 Z-0.7
X93.905
X93.874 Z-0.723 F30.
X79.224 Z-0.725 F600.
X79.191 Z-0.7
X77.191
X77.157 Z-0.725 F30.
X62.512 Z-0.727 F600.
X62.476 Z-0.7
X60.476
X60.44 Z-0.727 F30.
X45.801 Z-0.729 F600.
X45.762 Z-0.7
X43.762
X43.723 Z-0.729 F30.
X29.089 Z-0.731 F600.
X29.048 Z-0.7
X27.048
X27.006 Z-0.731 F30.
X19.691 Z-0.732 F600.
G2 X13.691 Y5. Z-0.733 I0. J6.
G1 Y12.191 Z-0.734
G3 X12.191 Y13.691 I-1.5 J0.
G1 X5. Z-0.735
G2 X-1. Y19.691 Z-0.736 I0. J6.
G1 Y29.641 Z-0.737
Y29.691 Z-0.7
Y31.691
Y31.741 Z-0.738 F30.
Y41.691 Z-0.739 F600.
G2 X5. Y47.691 Z-0.74 I6. J0.
G1 X12.191 Z-0.741
G3 X13.691 Y49.191 I0. J1.5
G1 Y56.381 Z-0.742
G2 X19.691 Y62.381 Z-0.743 I6. J0.
G1 X26.989 Z-0.744
X27.048 Z-0.7
X29.048
X29.107 Z-0.744 F30.
X43.701 Z-0.746 F600.
X43.762 Z-0.7
X45.762
X45.824 Z-0.746 F30.
X60.413 Z-0.748 F600.
X60.476 Z-0.7
X62.476
X62.541 Z-0.748 F30.
X77.124 Z-0.75 F600.
X77.191 Z-0.7
X79.191
X79.258 Z-0.75 F30.
X93.836 Z-0.752 F600.
X93.905 Z-0.7
X95.905
X95.974 Z-0.752 F30.
X110.547 Z-0.754 F600.
X110.619 Z-0.7
X112.619
X112.691 Z-0.754 F30.
X127.26 Z-0.756 F600.
X127.334 Z-0.7
X129.334
X129.409 Z-0.756 F30.
X136.691 Z-0.757 F600.
G2 X142.691 Y56.381 Z-0.758 I0. J-6.
G1 Y49.191 Z-0.759
G3 X144.191 Y47.691 I1.5 J0.
G1 X151.381 Z-0.76
G2 X157.381 Y41.691 Z-0.761 I0. J-6.
G1 Y31.774 Z-0.762
Y31.691 Z-0.7
Y29.691
Y29.607 Z-0.763 F30.
Y19.691 Z-0.764 F600.
G2 X151.381 Y13.691 Z-0.765 I-6. J0.
G1 X144.191 Z-0.766
G3 X142.691 Y12.191 I0. J-1.5
G1 Y5. Z-0.767
G2 X136.691 Y-1. Z-0.768 I-6. J0.
G1 X129.426 Z-0.769
X129.334 Z-0.7
X127.334
X127.242 Z-0.769 F30.
X112.714 Z-0.771 F600.
X112.619 Z-0.7
X110.619
X110.524 Z-0.771 F30.
X96.002 Z-0.773 F600.
X95.905 Z-0.7
X93.905
X93.807 Z-0.773 F30.
X79.291 Z-0.775 F600.
X79.191 Z-0.7
X77.191
X77.091 Z-0.775 F30.
X62.579 Z-0.777 F600.
X62.476 Z-0.7
X60.476
X60.374 Z-0.777 F30.
X45.867 Z-0.779 F600.
X45.762 Z-0.7
X43.762
X43.657 Z-0.779 F30.
X29.156 Z-0.781 F600.
X29.048 Z-0.7
X27.048
X26.94 Z-0.781 F30.
X19.691 Z-0.782 F600.
G2 X13.691 Y5. Z-0.783 I0. J6.
G1 Y12.191 Z-0.784
G3 X12.191 Y13.691 I-1.5 J0.
G1 X5. Z-0.785
