(1001)
(T2  D=2. CR=0. - ZMIN=-1. - FLAT END MILL)
G90 G94 G91.1 G40 G49 G17
G21

(2D 1)
M5
M9
T2 M6
S10000 M3
G54
M8
G0 X7. Y12.6
G43 Z1.5 H2
Z1.
G1 Z0.1 F30.
G3 Y11.4 Z0.075 I0. J-0.6 F600.
Y12.6 Z0.05 I0. J0.6
Y11.4 Z0.025 I0. J-0.6
Y12.6 Z0. I0. J0.6
Y11.4 Z-0.025 I0. J-0.6
Y12.6 Z-0.05 I0. J0.6
Y11.4 Z-0.075 I0. J-0.6
Y12.6 Z-0.1 I0. J0.6
Y11.4 Z-0.125 I0. J-0.6
Y12.6 Z-0.15 I0. J0.6
Y11.4 Z-0.175 I0. J-0.6
Y12.6 Z-0.2 I0. J0.6
Y11.4 Z-0.225 I0. J-0.6
Y12.6 Z-0.25 I0. J0.6
Y11.4 Z-0.275 I0. J-0.6
Y12.6 Z-0.3 I0. J0.6
Y11.4 Z-0.325 I0. J-0.6
Y12.6 Z-0.35 I0. J0.6
Y11.4 Z-0.375 I0. J-0.6
Y12.6 Z-0.4 I0. J0.6
Y11.4 Z-0.425 I0. J-0.6
Y12.6 Z-0.45 I0. J0.6
Y11.4 Z-0.475 I0. J-0.6
Y12.6 Z-0.5 I0. J0.6
Y11.4 Z-0.525 I0. J-0.6
Y12.6 Z-0.55 I0. J0.6
Y11.4 Z-0.575 I0. J-0.6
Y12.6 Z-0.6 I0. J0.6
Y11.4 Z-0.625 I0. J-0.6
Y12.6 Z-0.65 I0. J0.6
Y11.4 Z-0.675 I0. J-0.6
Y12.6 Z-0.7 I0. J0.6
Y11.4 Z-0.725 I0. J-0.6
Y12.6 Z-0.75 I0. J0.6
Y11.4 Z-0.775 I0. J-0.6
Y12.6 Z-0.8 I0. J0.6
Y11.4 Z-0.825 I0. J-0.6
Y12.6 Z-0.85 I0. J0.6
Y11.4 Z-0.875 I0. J-0.6
Y12.6 Z-0.9 I0. J0.6
Y11.4 Z-0.925 I0. J-0.6
Y12.6 Z-0.95 I0. J0.6
Y11.4 Z-0.975 I0. J-0.6
Y12.6 Z-1. I0. J0.6
Y11.4 I0. J-0.6
Y12.6 I0. J0.6
G1 Z1.
G0 Y33.4
G1 Z0.1 F30.
G3 Y34.6 Z0.075 I0. J0.6 F600.
Y33.4 Z0.05 I0. J-0.6
Y34.6 Z0.025 I0. J0.6
Y33.4 Z0. I0. J-0.6
Y34.6 Z-0.025 I0. J0.6
Y33.4 Z-0.05 I0. J-0.6
Y34.6 Z-0.075 I0. J0.6
Y33.4 Z-0.1 I0. J-0.6
Y34.6 Z-0.125 I0. J0.6
Y33.4 Z-0.15 I0. J-0.6
Y34.6 Z-0.175 I0. J0.6
Y33.4 Z-0.2 I0. J-0.6
Y34.6 Z-0.225 I0. J0.6
Y33.4 Z-0.25 I0. J-0.6
Y34.6 Z-0.275 I0. J0.6
Y33.4 Z-0.3 I0. J-0.6
Y34.6 Z-0.325 I0. J0.6
Y33.4 Z-0.35 I0. J-0.6
Y34.6 Z-0.375 I0. J0.6
Y33.4 Z-0.4 I0. J-0.6
Y34.6 Z-0.425 I0. J0.6
Y33.4 Z-0.45 I0. J-0.6
Y34.6 Z-0.475 I0. J0.6
Y33.4 Z-0.5 I0. J-0.6
Y34.6 Z-0.525 I0. J0.6
Y33.4 Z-0.55 I0. J-0.6
Y34.6 Z-0.575 I0. J0.6
Y33.4 Z-0.6 I0. J-0.6
Y34.6 Z-0.625 I0. J0.6
Y33.4 Z-0.65 I0. J-0.6
Y34.6 Z-0.675 I0. J0.6
Y33.4 Z-0.7 I0. J-0.6
Y34.6 Z-0.725 I0. J0.6
Y33.4 Z-0.75 I0. J-0.6
Y34.6 Z-0.775 I0. J0.6
Y33.4 Z-0.8 I0. J-0.6
Y34.6 Z-0.825 I0. J0.6
Y33.4 Z-0.85 I0. J-0.6
Y34.6 Z-0.875 I0. J0.6
Y33.4 Z-0.9 I0. J-0.6
Y34.6 Z-0.925 I0. J0.6
Y33.4 Z-0.95 I0. J-0.6
Y34.6 Z-0.975 I0. J0.6
Y33.4 Z-1. I0. J-0.6
Y34.6 I0. J0.6
Y33.4 I0. J-0.6
G1 Z1.
G0 X6.925 Y43.279
G1 Z0.1 F30.
G3 X7.095 Y43.314 Z0.093 I0.075 J0.067 F600.
Y43.377 Z0.09 I-0.095 J0.031
X6.905 Z0.082 I-0.095 J-0.031
Y43.314 Z0.079 I0.095 J-0.032
X7.095 Z0.071 I0.095 J0.032
Y43.377 Z0.069 I-0.095 J0.031
X6.905 Z0.06 I-0.095 J-0.031
Y43.314 Z0.058 I0.095 J-0.032
X7.095 Z0.049 I0.095 J0.032
Y43.377 Z0.047 I-0.095 J0.031
X6.905 Z0.038 I-0.095 J-0.031
Y43.314 Z0.036 I0.095 J-0.032
X7.095 Z0.027 I0.095 J0.032
Y43.377 Z0.025 I-0.095 J0.031
X6.905 Z0.016 I-0.095 J-0.031
Y43.314 Z0.014 I0.095 J-0.032
X7.095 Z0.005 I0.095 J0.032
Y43.377 Z0.003 I-0.095 J0.031
X6.905 Z-0.006 I-0.095 J-0.031
Y43.314 Z-0.008 I0.095 J-0.032
X7.095 Z-0.017 I0.095 J0.032
Y43.377 Z-0.019 I-0.095 J0.031
X6.905 Z-0.028 I-0.095 J-0.031
Y43.314 Z-0.03 I0.095 J-0.032
X7.095 Z-0.039 I0.095 J0.032
Y43.377 Z-0.041 I-0.095 J0.031
X6.905 Z-0.05 I-0.095 J-0.031
Y43.314 Z-0.052 I0.095 J-0.032
X7.095 Z-0.061 I0.095 J0.032
Y43.377 Z-0.063 I-0.095 J0.031
X6.905 Z-0.072 I-0.095 J-0.031
Y43.314 Z-0.074 I0.095 J-0.032
X7.095 Z-0.083 I0.095 J0.032
Y43.377 Z-0.085 I-0.095 J0.031
X6.905 Z-0.094 I-0.095 J-0.031
Y43.314 Z-0.096 I0.095 J-0.032
X7.095 Z-0.105 I0.095 J0.032
Y43.377 Z-0.107 I-0.095 J0.031
X6.905 Z-0.116 I-0.095 J-0.031
Y43.314 Z-0.118 I0.095 J-0.032
X7.095 Z-0.127 I0.095 J0.032
Y43.377 Z-0.129 I-0.095 J0.031
X6.905 Z-0.138 I-0.095 J-0.031
Y43.314 Z-0.14 I0.095 J-0.032
X7.095 Z-0.149 I0.095 J0.032
Y43.377 Z-0.151 I-0.095 J0.031
X6.905 Z-0.16 I-0.095 J-0.031
Y43.314 Z-0.162 I0.095 J-0.032
X7.095 Z-0.171 I0.095 J0.032
Y43.377 Z-0.173 I-0.095 J0.031
X6.905 Z-0.182 I-0.095 J-0.031
Y43.314 Z-0.184 I0.095 J-0.032
X7.095 Z-0.193 I0.095 J0.032
Y43.377 Z-0.195 I-0.095 J0.031
X6.905 Z-0.204 I-0.095 J-0.031
Y43.314 Z-0.206 I0.095 J-0.032
X7.095 Z-0.214 I0.095 J0.032
Y43.377 Z-0.217 I-0.095 J0.031
X6.905 Z-0.225 I-0.095 J-0.031
Y43.314 Z-0.228 I0.095 J-0.032
X7.095 Z-0.236 I0.095 J0.032
Y43.377 Z-0.239 I-0.095 J0.031
X6.905 Z-0.247 I-0.095 J-0.031
Y43.314 Z-0.25 I0.095 J-0.032
X7.095 Z-0.258 I0.095 J0.032
Y43.377 Z-0.261 I-0.095 J0.031
X6.905 Z-0.269 I-0.095 J-0.031
Y43.314 Z-0.272 I0.095 J-0.032
X7.095 Z-0.28 I0.095 J0.032
Y43.377 Z-0.283 I-0.095 J0.031
X6.905 Z-0.291 I-0.095 J-0.031
Y43.314 Z-0.294 I0.095 J-0.032
X7.095 Z-0.302 I0.095 J0.032
Y43.377 Z-0.304 I-0.095 J0.031
X6.905 Z-0.313 I-0.095 J-0.031
Y43.314 Z-0.315 I0.095 J-0.032
X7.095 Z-0.324 I0.095 J0.032
Y43.377 Z-0.326 I-0.095 J0.031
X6.905 Z-0.335 I-0.095 J-0.031
Y43.314 Z-0.337 I0.095 J-0.032
X7.095 Z-0.346 I0.095 J0.032
Y43.377 Z-0.348 I-0.095 J0.031
X6.905 Z-0.357 I-0.095 J-0.031
Y43.314 Z-0.359 I0.095 J-0.032
X7.095 Z-0.368 I0.095 J0.032
Y43.377 Z-0.37 I-0.095 J0.031
X6.905 Z-0.379 I-0.095 J-0.031
Y43.314 Z-0.381 I0.095 J-0.032
X7.095 Z-0.39 I0.095 J0.032
Y43.377 Z-0.392 I-0.095 J0.031
X6.905 Z-0.401 I-0.095 J-0.031
Y43.314 Z-0.403 I0.095 J-0.032
X7.095 Z-0.412 I0.095 J0.032
Y43.377 Z-0.414 I-0.095 J0.031
X6.905 Z-0.423 I-0.095 J-0.031
Y43.314 Z-0.425 I0.095 J-0.032
X7.095 Z-0.434 I0.095 J0.032
Y43.377 Z-0.436 I-0.095 J0.031
X6.905 Z-0.445 I-0.095 J-0.031
Y43.314 Z-0.447 I0.095 J-0.032
X7.095 Z-0.456 I0.095 J0.032
Y43.377 Z-0.458 I-0.095 J0.031
X6.905 Z-0.467 I-0.095 J-0.031
Y43.314 Z-0.469 I0.095 J-0.032
X7.095 Z-0.478 I0.095 J0.032
Y43.377 Z-0.48 I-0.095 J0.031
X6.905 Z-0.489 I-0.095 J-0.031
Y43.314 Z-0.491 I0.095 J-0.032
X7.095 Z-0.5 I0.095 J0.032
Y43.377 Z-0.502 I-0.095 J0.031
X6.905 Z-0.511 I-0.095 J-0.031
Y43.314 Z-0.513 I0.095 J-0.032
X7.095 Z-0.522 I0.095 J0.032
Y43.377 Z-0.524 I-0.095 J0.031
X6.905 Z-0.533 I-0.095 J-0.031
Y43.314 Z-0.535 I0.095 J-0.032
X7.095 Z-0.544 I0.095 J0.032
Y43.377 Z-0.546 I-0.095 J0.031
X6.905 Z-0.555 I-0.095 J-0.031
Y43.314 Z-0.557 I0.095 J-0.032
X7.095 Z-0.566 I0.095 J0.032
Y43.377 Z-0.568 I-0.095 J0.031
X6.905 Z-0.577 I-0.095 J-0.031
Y43.314 Z-0.579 I0.095 J-0.032
X7.095 Z-0.587 I0.095 J0.032
Y43.377 Z-0.59 I-0.095 J0.031
X6.905 Z-0.598 I-0.095 J-0.031
Y43.314 Z-0.601 I0.095 J-0.032
X7.095 Z-0.609 I0.095 J0.032
Y43.377 Z-0.612 I-0.095 J0.031
X6.905 Z-0.62 I-0.095 J-0.031
Y43.314 Z-0.623 I0.095 J-0.032
X7.095 Z-0.631 I0.095 J0.032
Y43.377 Z-0.634 I-0.095 J0.031
X6.905 Z-0.642 I-0.095 J-0.031
Y43.314 Z-0.645 I0.095 J-0.032
X7.095 Z-0.653 I0.095 J0.032
Y43.377 Z-0.656 I-0.095 J0.031
X6.905 Z-0.664 I-0.095 J-0.031
Y43.314 Z-0.667 I0.095 J-0.032
X7.095 Z-0.675 I0.095 J0.032
Y43.377 Z-0.677 I-0.095 J0.031
X6.905 Z-0.686 I-0.095 J-0.031
Y43.314 Z-0.688 I0.095 J-0.032
X7.095 Z-0.697 I0.095 J0.032
Y43.377 Z-0.699 I-0.095 J0.031
X6.905 Z-0.708 I-0.095 J-0.031
Y43.314 Z-0.71 I0.095 J-0.032
X7.095 Z-0.719 I0.095 J0.032
Y43.377 Z-0.721 I-0.095 J0.031
X6.905 Z-0.73 I-0.095 J-0.031
Y43.314 Z-0.732 I0.095 J-0.032
X7.095 Z-0.741 I0.095 J0.032
Y43.377 Z-0.743 I-0.095 J0.031
X6.905 Z-0.752 I-0.095 J-0.031
Y43.314 Z-0.754 I0.095 J-0.032
X7.095 Z-0.763 I0.095 J0.032
Y43.377 Z-0.765 I-0.095 J0.031
X6.905 Z-0.774 I-0.095 J-0.031
Y43.314 Z-0.776 I0.095 J-0.032
X7.095 Z-0.785 I0.095 J0.032
Y43.377 Z-0.787 I-0.095 J0.031
X6.905 Z-0.796 I-0.095 J-0.031
Y43.314 Z-0.798 I0.095 J-0.032
X7.095 Z-0.807 I0.095 J0.032
Y43.377 Z-0.809 I-0.095 J0.031
X6.905 Z-0.818 I-0.095 J-0.031
Y43.314 Z-0.82 I0.095 J-0.032
X7.095 Z-0.829 I0.095 J0.032
Y43.377 Z-0.831 I-0.095 J0.031
X6.905 Z-0.84 I-0.095 J-0.031
Y43.314 Z-0.842 I0.095 J-0.032
X7.095 Z-0.851 I0.095 J0.032
Y43.377 Z-0.853 I-0.095 J0.031
X6.905 Z-0.862 I-0.095 J-0.031
Y43.314 Z-0.864 I0.095 J-0.032
X7.095 Z-0.873 I0.095 J0.032
Y43.377 Z-0.875 I-0.095 J0.031
X6.905 Z-0.884 I-0.095 J-0.031
Y43.314 Z-0.886 I0.095 J-0.032
X7.095 Z-0.895 I0.095 J0.032
Y43.377 Z-0.897 I-0.095 J0.031
X6.905 Z-0.906 I-0.095 J-0.031
Y43.314 Z-0.908 I0.095 J-0.032
X7.095 Z-0.917 I0.095 J0.032
Y43.377 Z-0.919 I-0.095 J0.031
X6.905 Z-0.928 I-0.095 J-0.031
Y43.314 Z-0.93 I0.095 J-0.032
X7.095 Z-0.939 I0.095 J0.032
Y43.377 Z-0.941 I-0.095 J0.031
X6.905 Z-0.95 I-0.095 J-0.031
Y43.314 Z-0.952 I0.095 J-0.032
X7.095 Z-0.96 I0.095 J0.032
Y43.377 Z-0.963 I-0.095 J0.031
X6.905 Z-0.971 I-0.095 J-0.031
Y43.314 Z-0.974 I0.095 J-0.032
X7.095 Z-0.982 I0.095 J0.032
Y43.377 Z-0.985 I-0.095 J0.031
X6.905 Z-0.993 I-0.095 J-0.031
Y43.314 Z-0.996 I0.095 J-0.032
X7. Y43.245 Z-1. I0.095 J0.032
X7.095 Y43.314 I0. J0.1
Y43.377 I-0.095 J0.031
X6.905 I-0.095 J-0.031
Y43.314 I0.095 J-0.032
X7. Y43.245 I0.095 J0.032
G1 Z1.
G0 Y57.342
G1 Z0.1 F30.
G3 Y58.542 Z0.075 I0. J0.6 F600.
Y57.342 Z0.05 I0. J-0.6
Y58.542 Z0.025 I0. J0.6
Y57.342 Z0. I0. J-0.6
Y58.542 Z-0.025 I0. J0.6
Y57.342 Z-0.05 I0. J-0.6
Y58.542 Z-0.075 I0. J0.6
Y57.342 Z-0.1 I0. J-0.6
Y58.542 Z-0.125 I0. J0.6
Y57.342 Z-0.15 I0. J-0.6
Y58.542 Z-0.175 I0. J0.6
Y57.342 Z-0.2 I0. J-0.6
Y58.542 Z-0.225 I0. J0.6
Y57.342 Z-0.25 I0. J-0.6
Y58.542 Z-0.275 I0. J0.6
Y57.342 Z-0.3 I0. J-0.6
Y58.542 Z-0.325 I0. J0.6
Y57.342 Z-0.35 I0. J-0.6
Y58.542 Z-0.375 I0. J0.6
Y57.342 Z-0.4 I0. J-0.6
Y58.542 Z-0.425 I0. J0.6
Y57.342 Z-0.45 I0. J-0.6
Y58.542 Z-0.475 I0. J0.6
Y57.342 Z-0.5 I0. J-0.6
Y58.542 Z-0.525 I0. J0.6
Y57.342 Z-0.55 I0. J-0.6
Y58.542 Z-0.575 I0. J0.6
Y57.342 Z-0.6 I0. J-0.6
Y58.542 Z-0.625 I0. J0.6
Y57.342 Z-0.65 I0. J-0.6
Y58.542 Z-0.675 I0. J0.6
Y57.342 Z-0.7 I0. J-0.6
Y58.542 Z-0.725 I0. J0.6
Y57.342 Z-0.75 I0. J-0.6
Y58.542 Z-0.775 I0. J0.6
Y57.342 Z-0.8 I0. J-0.6
Y58.542 Z-0.825 I0. J0.6
Y57.342 Z-0.85 I0. J-0.6
Y58.542 Z-0.875 I0. J0.6
Y57.342 Z-0.9 I0. J-0.6
Y58.542 Z-0.925 I0. J0.6
Y57.342 Z-0.95 I0. J-0.6
Y58.542 Z-0.975 I0. J0.6
Y57.342 Z-1. I0. J-0.6
Y58.542 I0. J0.6
Y57.342 I0. J-0.6
G1 Z1.
G0 Y76.842
G1 Z0.1 F30.
G3 Y78.042 Z0.075 I0. J0.6 F600.
Y76.842 Z0.05 I0. J-0.6
Y78.042 Z0.025 I0. J0.6
Y76.842 Z0. I0. J-0.6
Y78.042 Z-0.025 I0. J0.6
Y76.842 Z-0.05 I0. J-0.6
Y78.042 Z-0.075 I0. J0.6
Y76.842 Z-0.1 I0. J-0.6
Y78.042 Z-0.125 I0. J0.6
Y76.842 Z-0.15 I0. J-0.6
Y78.042 Z-0.175 I0. J0.6
Y76.842 Z-0.2 I0. J-0.6
Y78.042 Z-0.225 I0. J0.6
Y76.842 Z-0.25 I0. J-0.6
Y78.042 Z-0.275 I0. J0.6
Y76.842 Z-0.3 I0. J-0.6
Y78.042 Z-0.325 I0. J0.6
Y76.842 Z-0.35 I0. J-0.6
Y78.042 Z-0.375 I0. J0.6
Y76.842 Z-0.4 I0. J-0.6
Y78.042 Z-0.425 I0. J0.6
Y76.842 Z-0.45 I0. J-0.6
Y78.042 Z-0.475 I0. J0.6
Y76.842 Z-0.5 I0. J-0.6
Y78.042 Z-0.525 I0. J0.6
Y76.842 Z-0.55 I0. J-0.6
Y78.042 Z-0.575 I0. J0.6
Y76.842 Z-0.6 I0. J-0.6
Y78.042 Z-0.625 I0. J0.6
Y76.842 Z-0.65 I0. J-0.6
Y78.042 Z-0.675 I0. J0.6
Y76.842 Z-0.7 I0. J-0.6
Y78.042 Z-0.725 I0. J0.6
Y76.842 Z-0.75 I0. J-0.6
Y78.042 Z-0.775 I0. J0.6
Y76.842 Z-0.8 I0. J-0.6
Y78.042 Z-0.825 I0. J0.6
Y76.842 Z-0.85 I0. J-0.6
Y78.042 Z-0.875 I0. J0.6
Y76.842 Z-0.9 I0. J-0.6
Y78.042 Z-0.925 I0. J0.6
Y76.842 Z-0.95 I0. J-0.6
Y78.042 Z-0.975 I0. J0.6
Y76.842 Z-1. I0. J-0.6
Y78.042 I0. J0.6
Y76.842 I0. J-0.6
G1 Z1.
G0 Y144.342
G1 Z0.1 F30.
G3 Y145.542 Z0.075 I0. J0.6 F600.
Y144.342 Z0.05 I0. J-0.6
Y145.542 Z0.025 I0. J0.6
Y144.342 Z0. I0. J-0.6
Y145.542 Z-0.025 I0. J0.6
Y144.342 Z-0.05 I0. J-0.6
Y145.542 Z-0.075 I0. J0.6
Y144.342 Z-0.1 I0. J-0.6
Y145.542 Z-0.125 I0. J0.6
Y144.342 Z-0.15 I0. J-0.6
Y145.542 Z-0.175 I0. J0.6
Y144.342 Z-0.2 I0. J-0.6
Y145.542 Z-0.225 I0. J0.6
Y144.342 Z-0.25 I0. J-0.6
Y145.542 Z-0.275 I0. J0.6
Y144.342 Z-0.3 I0. J-0.6
Y145.542 Z-0.325 I0. J0.6
Y144.342 Z-0.35 I0. J-0.6
Y145.542 Z-0.375 I0. J0.6
Y144.342 Z-0.4 I0. J-0.6
Y145.542 Z-0.425 I0. J0.6
Y144.342 Z-0.45 I0. J-0.6
Y145.542 Z-0.475 I0. J0.6
Y144.342 Z-0.5 I0. J-0.6
Y145.542 Z-0.525 I0. J0.6
Y144.342 Z-0.55 I0. J-0.6
Y145.542 Z-0.575 I0. J0.6
Y144.342 Z-0.6 I0. J-0.6
Y145.542 Z-0.625 I0. J0.6
Y144.342 Z-0.65 I0. J-0.6
Y145.542 Z-0.675 I0. J0.6
Y144.342 Z-0.7 I0. J-0.6
Y145.542 Z-0.725 I0. J0.6
Y144.342 Z-0.75 I0. J-0.6
Y145.542 Z-0.775 I0. J0.6
Y144.342 Z-0.8 I0. J-0.6
Y145.542 Z-0.825 I0. J0.6
Y144.342 Z-0.85 I0. J-0.6
Y145.542 Z-0.875 I0. J0.6
Y144.342 Z-0.9 I0. J-0.6
Y145.542 Z-0.925 I0. J0.6
Y144.342 Z-0.95 I0. J-0.6
Y145.542 Z-0.975 I0. J0.6
Y144.342 Z-1. I0. J-0.6
Y145.542 I0. J0.6
Y144.342 I0. J-0.6
G1 Z1.
G0 Y163.842
G1 Z0.1 F30.
G3 Y165.042 Z0.075 I0. J0.6 F600.
Y163.842 Z0.05 I0. J-0.6
Y165.042 Z0.025 I0. J0.6
Y163.842 Z0. I0. J-0.6
Y165.042 Z-0.025 I0. J0.6
Y163.842 Z-0.05 I0. J-0.6
Y165.042 Z-0.075 I0. J0.6
Y163.842 Z-0.1 I0. J-0.6
Y165.042 Z-0.125 I0. J0.6
Y163.842 Z-0.15 I0. J-0.6
Y165.042 Z-0.175 I0. J0.6
Y163.842 Z-0.2 I0. J-0.6
Y165.042 Z-0.225 I0. J0.6
Y163.842 Z-0.25 I0. J-0.6
Y165.042 Z-0.275 I0. J0.6
Y163.842 Z-0.3 I0. J-0.6
Y165.042 Z-0.325 I0. J0.6
Y163.842 Z-0.35 I0. J-0.6
Y165.042 Z-0.375 I0. J0.6
Y163.842 Z-0.4 I0. J-0.6
Y165.042 Z-0.425 I0. J0.6
Y163.842 Z-0.45 I0. J-0.6
Y165.042 Z-0.475 I0. J0.6
Y163.842 Z-0.5 I0. J-0.6
Y165.042 Z-0.525 I0. J0.6
Y163.842 Z-0.55 I0. J-0.6
Y165.042 Z-0.575 I0. J0.6
Y163.842 Z-0.6 I0. J-0.6
Y165.042 Z-0.625 I0. J0.6
Y163.842 Z-0.65 I0. J-0.6
Y165.042 Z-0.675 I0. J0.6
Y163.842 Z-0.7 I0. J-0.6
Y165.042 Z-0.725 I0. J0.6
Y163.842 Z-0.75 I0. J-0.6
Y165.042 Z-0.775 I0. J0.6
Y163.842 Z-0.8 I0. J-0.6
Y165.042 Z-0.825 I0. J0.6
Y163.842 Z-0.85 I0. J-0.6
Y165.042 Z-0.875 I0. J0.6
Y163.842 Z-0.9 I0. J-0.6
Y165.042 Z-0.925 I0. J0.6
Y163.842 Z-0.95 I0. J-0.6
Y165.042 Z-0.975 I0. J0.6
Y163.842 Z-1. I0. J-0.6
Y165.042 I0. J0.6
Y163.842 I0. J-0.6
G1 Z1.
G0 X7.065 Y178.962
G1 Z0.1 F30.
G3 X6.935 Y179.114 Z0.089 I-0.065 J0.076 F600.
X7.065 Y178.962 Z0.078 I0.065 J-0.076
X6.935 Y179.114 Z0.067 I-0.065 J0.076
X7.065 Y178.962 Z0.056 I0.065 J-0.076
X6.935 Y179.114 Z0.045 I-0.065 J0.076
X7.065 Y178.962 Z0.034 I0.065 J-0.076
X6.935 Y179.114 Z0.023 I-0.065 J0.076
X7.065 Y178.962 Z0.012 I0.065 J-0.076
X6.935 Y179.114 Z0.001 I-0.065 J0.076
X7.065 Y178.962 Z-0.01 I0.065 J-0.076
X6.935 Y179.114 Z-0.021 I-0.065 J0.076
X7.065 Y178.962 Z-0.032 I0.065 J-0.076
X6.935 Y179.114 Z-0.042 I-0.065 J0.076
X7.065 Y178.962 Z-0.053 I0.065 J-0.076
X6.935 Y179.114 Z-0.064 I-0.065 J0.076
X7.065 Y178.962 Z-0.075 I0.065 J-0.076
X6.935 Y179.114 Z-0.086 I-0.065 J0.076
X7.065 Y178.962 Z-0.097 I0.065 J-0.076
X6.935 Y179.114 Z-0.108 I-0.065 J0.076
X7.065 Y178.962 Z-0.119 I0.065 J-0.076
X6.935 Y179.114 Z-0.13 I-0.065 J0.076
X7.065 Y178.962 Z-0.141 I0.065 J-0.076
X6.935 Y179.114 Z-0.152 I-0.065 J0.076
X7.065 Y178.962 Z-0.163 I0.065 J-0.076
X6.935 Y179.114 Z-0.174 I-0.065 J0.076
X7.065 Y178.962 Z-0.185 I0.065 J-0.076
X6.935 Y179.114 Z-0.196 I-0.065 J0.076
X7.065 Y178.962 Z-0.207 I0.065 J-0.076
X6.935 Y179.114 Z-0.218 I-0.065 J0.076
X7.065 Y178.962 Z-0.229 I0.065 J-0.076
X6.935 Y179.114 Z-0.24 I-0.065 J0.076
X7.065 Y178.962 Z-0.251 I0.065 J-0.076
X6.935 Y179.114 Z-0.262 I-0.065 J0.076
X7.065 Y178.962 Z-0.273 I0.065 J-0.076
X6.935 Y179.114 Z-0.284 I-0.065 J0.076
X7.065 Y178.962 Z-0.295 I0.065 J-0.076
X6.935 Y179.114 Z-0.305 I-0.065 J0.076
X7.065 Y178.962 Z-0.316 I0.065 J-0.076
X6.935 Y179.114 Z-0.327 I-0.065 J0.076
X7.065 Y178.962 Z-0.338 I0.065 J-0.076
X6.935 Y179.114 Z-0.349 I-0.065 J0.076
X7.065 Y178.962 Z-0.36 I0.065 J-0.076
X6.935 Y179.114 Z-0.371 I-0.065 J0.076
X7.065 Y178.962 Z-0.382 I0.065 J-0.076
X6.935 Y179.114 Z-0.393 I-0.065 J0.076
X7.065 Y178.962 Z-0.404 I0.065 J-0.076
X6.935 Y179.114 Z-0.415 I-0.065 J0.076
X7.065 Y178.962 Z-0.426 I0.065 J-0.076
X6.935 Y179.114 Z-0.437 I-0.065 J0.076
X7.065 Y178.962 Z-0.448 I0.065 J-0.076
X6.935 Y179.114 Z-0.459 I-0.065 J0.076
X7.065 Y178.962 Z-0.47 I0.065 J-0.076
X6.935 Y179.114 Z-0.481 I-0.065 J0.076
X7.065 Y178.962 Z-0.492 I0.065 J-0.076
X6.935 Y179.114 Z-0.503 I-0.065 J0.076
X7.065 Y178.962 Z-0.514 I0.065 J-0.076
X6.935 Y179.114 Z-0.525 I-0.065 J0.076
X7.065 Y178.962 Z-0.536 I0.065 J-0.076
X6.935 Y179.114 Z-0.547 I-0.065 J0.076
X7.065 Y178.962 Z-0.558 I0.065 J-0.076
X6.935 Y179.114 Z-0.568 I-0.065 J0.076
X7.065 Y178.962 Z-0.579 I0.065 J-0.076
X6.935 Y179.114 Z-0.59 I-0.065 J0.076
X7.065 Y178.962 Z-0.601 I0.065 J-0.076
X6.935 Y179.114 Z-0.612 I-0.065 J0.076
X7.065 Y178.962 Z-0.623 I0.065 J-0.076
X6.935 Y179.114 Z-0.634 I-0.065 J0.076
X7.065 Y178.962 Z-0.645 I0.065 J-0.076
X6.935 Y179.114 Z-0.656 I-0.065 J0.076
X7.065 Y178.962 Z-0.667 I0.065 J-0.076
X6.935 Y179.114 Z-0.678 I-0.065 J0.076
X7.065 Y178.962 Z-0.689 I0.065 J-0.076
X6.935 Y179.114 Z-0.7 I-0.065 J0.076
X7.065 Y178.962 Z-0.711 I0.065 J-0.076
X6.935 Y179.114 Z-0.722 I-0.065 J0.076
X7.065 Y178.962 Z-0.733 I0.065 J-0.076
X6.935 Y179.114 Z-0.744 I-0.065 J0.076
X7.065 Y178.962 Z-0.755 I0.065 J-0.076
X6.935 Y179.114 Z-0.766 I-0.065 J0.076
X7.065 Y178.962 Z-0.777 I0.065 J-0.076
X6.935 Y179.114 Z-0.788 I-0.065 J0.076
X7.065 Y178.962 Z-0.799 I0.065 J-0.076
X6.935 Y179.114 Z-0.81 I-0.065 J0.076
X7.065 Y178.962 Z-0.821 I0.065 J-0.076
X6.935 Y179.114 Z-0.831 I-0.065 J0.076
X7.065 Y178.962 Z-0.842 I0.065 J-0.076
X6.935 Y179.114 Z-0.853 I-0.065 J0.076
X7.065 Y178.962 Z-0.864 I0.065 J-0.076
X6.935 Y179.114 Z-0.875 I-0.065 J0.076
X7.065 Y178.962 Z-0.886 I0.065 J-0.076
X6.935 Y179.114 Z-0.897 I-0.065 J0.076
X7.065 Y178.962 Z-0.908 I0.065 J-0.076
X6.935 Y179.114 Z-0.919 I-0.065 J0.076
X7.065 Y178.962 Z-0.93 I0.065 J-0.076
X6.935 Y179.114 Z-0.941 I-0.065 J0.076
X7.065 Y178.962 Z-0.952 I0.065 J-0.076
X6.935 Y179.114 Z-0.963 I-0.065 J0.076
X7.065 Y178.962 Z-0.974 I0.065 J-0.076
X6.935 Y179.114 Z-0.985 I-0.065 J0.076
X7.065 Y178.962 Z-0.996 I0.065 J-0.076
X7.095 Y179.069 Z-1. I-0.065 J0.076
X6.905 Y179.007 I-0.095 J-0.031
X7.095 Y179.069 I0.095 J0.031
G1 Z1.
G0 X7. Y187.783
G1 Z0.1 F30.
G3 Y188.983 Z0.075 I0. J0.6 F600.
Y187.783 Z0.05 I0. J-0.6
Y188.983 Z0.025 I0. J0.6
Y187.783 Z0. I0. J-0.6
Y188.983 Z-0.025 I0. J0.6
Y187.783 Z-0.05 I0. J-0.6
Y188.983 Z-0.075 I0. J0.6
Y187.783 Z-0.1 I0. J-0.6
Y188.983 Z-0.125 I0. J0.6
Y187.783 Z-0.15 I0. J-0.6
Y188.983 Z-0.175 I0. J0.6
Y187.783 Z-0.2 I0. J-0.6
Y188.983 Z-0.225 I0. J0.6
Y187.783 Z-0.25 I0. J-0.6
Y188.983 Z-0.275 I0. J0.6
Y187.783 Z-0.3 I0. J-0.6
Y188.983 Z-0.325 I0. J0.6
Y187.783 Z-0.35 I0. J-0.6
Y188.983 Z-0.375 I0. J0.6
Y187.783 Z-0.4 I0. J-0.6
Y188.983 Z-0.425 I0. J0.6
Y187.783 Z-0.45 I0. J-0.6
Y188.983 Z-0.475 I0. J0.6
Y187.783 Z-0.5 I0. J-0.6
Y188.983 Z-0.525 I0. J0.6
Y187.783 Z-0.55 I0. J-0.6
Y188.983 Z-0.575 I0. J0.6
Y187.783 Z-0.6 I0. J-0.6
Y188.983 Z-0.625 I0. J0.6
Y187.783 Z-0.65 I0. J-0.6
Y188.983 Z-0.675 I0. J0.6
Y187.783 Z-0.7 I0. J-0.6
Y188.983 Z-0.725 I0. J0.6
Y187.783 Z-0.75 I0. J-0.6
Y188.983 Z-0.775 I0. J0.6
Y187.783 Z-0.8 I0. J-0.6
Y188.983 Z-0.825 I0. J0.6
Y187.783 Z-0.85 I0. J-0.6
Y188.983 Z-0.875 I0. J0.6
Y187.783 Z-0.9 I0. J-0.6
Y188.983 Z-0.925 I0. J0.6
Y187.783 Z-0.95 I0. J-0.6
Y188.983 Z-0.975 I0. J0.6
Y187.783 Z-1. I0. J-0.6
Y188.983 I0. J0.6
Y187.783 I0. J-0.6
G1 Z1.
G0 Y209.783
G1 Z0.1 F30.
G3 Y210.983 Z0.075 I0. J0.6 F600.
Y209.783 Z0.05 I0. J-0.6
Y210.983 Z0.025 I0. J0.6
Y209.783 Z0. I0. J-0.6
Y210.983 Z-0.025 I0. J0.6
Y209.783 Z-0.05 I0. J-0.6
Y210.983 Z-0.075 I0. J0.6
Y209.783 Z-0.1 I0. J-0.6
Y210.983 Z-0.125 I0. J0.6
Y209.783 Z-0.15 I0. J-0.6
Y210.983 Z-0.175 I0. J0.6
Y209.783 Z-0.2 I0. J-0.6
Y210.983 Z-0.225 I0. J0.6
Y209.783 Z-0.25 I0. J-0.6
Y210.983 Z-0.275 I0. J0.6
Y209.783 Z-0.3 I0. J-0.6
Y210.983 Z-0.325 I0. J0.6
Y209.783 Z-0.35 I0. J-0.6
Y210.983 Z-0.375 I0. J0.6
Y209.783 Z-0.4 I0. J-0.6
Y210.983 Z-0.425 I0. J0.6
Y209.783 Z-0.45 I0. J-0.6
Y210.983 Z-0.475 I0. J0.6
Y209.783 Z-0.5 I0. J-0.6
Y210.983 Z-0.525 I0. J0.6
Y209.783 Z-0.55 I0. J-0.6
Y210.983 Z-0.575 I0. J0.6
Y209.783 Z-0.6 I0. J-0.6
Y210.983 Z-0.625 I0. J0.6
Y209.783 Z-0.65 I0. J-0.6
Y210.983 Z-0.675 I0. J0.6
Y209.783 Z-0.7 I0. J-0.6
Y210.983 Z-0.725 I0. J0.6
Y209.783 Z-0.75 I0. J-0.6
Y210.983 Z-0.775 I0. J0.6
Y209.783 Z-0.8 I0. J-0.6
Y210.983 Z-0.825 I0. J0.6
Y209.783 Z-0.85 I0. J-0.6
Y210.983 Z-0.875 I0. J0.6
Y209.783 Z-0.9 I0. J-0.6
Y210.983 Z-0.925 I0. J0.6
Y209.783 Z-0.95 I0. J-0.6
Y210.983 Z-0.975 I0. J0.6
Y209.783 Z-1. I0. J-0.6
Y210.983 I0. J0.6
Y209.783 I0. J-0.6
G1 Z1.
G0 X213.6 Y210.383
G1 Z0.1 F30.
G3 X212.4 Z0.075 I-0.6 J0. F600.
X213. Y209.783 Z0.063 I0.6 J0.
Y210.983 Z0.038 I0. J0.6
X212.4 Y210.383 Z0.025 I0. J-0.6
X213. Y209.783 Z0.013 I0.6 J0.
Y210.983 Z-0.013 I0. J0.6
X212.4 Y210.383 Z-0.025 I0. J-0.6
X213. Y209.783 Z-0.038 I0.6 J0.
Y210.983 Z-0.063 I0. J0.6
X212.4 Y210.383 Z-0.075 I0. J-0.6
X213. Y209.783 Z-0.087 I0.6 J0.
Y210.983 Z-0.112 I0. J0.6
X212.4 Y210.383 Z-0.125 I0. J-0.6
X213. Y209.783 Z-0.138 I0.6 J0.
Y210.983 Z-0.162 I0. J0.6
X212.4 Y210.383 Z-0.175 I0. J-0.6
X213. Y209.783 Z-0.188 I0.6 J0.
Y210.983 Z-0.212 I0. J0.6
X212.4 Y210.383 Z-0.225 I0. J-0.6
X213. Y209.783 Z-0.237 I0.6 J0.
Y210.983 Z-0.263 I0. J0.6
X212.4 Y210.383 Z-0.275 I0. J-0.6
X213. Y209.783 Z-0.287 I0.6 J0.
Y210.983 Z-0.312 I0. J0.6
X212.4 Y210.383 Z-0.325 I0. J-0.6
X213. Y209.783 Z-0.338 I0.6 J0.
Y210.983 Z-0.363 I0. J0.6
X212.4 Y210.383 Z-0.375 I0. J-0.6
X213. Y209.783 Z-0.387 I0.6 J0.
Y210.983 Z-0.413 I0. J0.6
X212.4 Y210.383 Z-0.425 I0. J-0.6
X213. Y209.783 Z-0.438 I0.6 J0.
Y210.983 Z-0.462 I0. J0.6
X212.4 Y210.383 Z-0.475 I0. J-0.6
X213. Y209.783 Z-0.488 I0.6 J0.
Y210.983 Z-0.512 I0. J0.6
X212.4 Y210.383 Z-0.525 I0. J-0.6
X213. Y209.783 Z-0.538 I0.6 J0.
Y210.983 Z-0.563 I0. J0.6
X212.4 Y210.383 Z-0.575 I0. J-0.6
X213. Y209.783 Z-0.587 I0.6 J0.
Y210.983 Z-0.612 I0. J0.6
X212.4 Y210.383 Z-0.625 I0. J-0.6
X213. Y209.783 Z-0.637 I0.6 J0.
Y210.983 Z-0.663 I0. J0.6
X212.4 Y210.383 Z-0.675 I0. J-0.6
X213. Y209.783 Z-0.688 I0.6 J0.
Y210.983 Z-0.713 I0. J0.6
X212.4 Y210.383 Z-0.725 I0. J-0.6
X213. Y209.783 Z-0.738 I0.6 J0.
Y210.983 Z-0.762 I0. J0.6
X212.4 Y210.383 Z-0.775 I0. J-0.6
X213. Y209.783 Z-0.788 I0.6 J0.
Y210.983 Z-0.813 I0. J0.6
X212.4 Y210.383 Z-0.825 I0. J-0.6
X213. Y209.783 Z-0.837 I0.6 J0.
Y210.983 Z-0.862 I0. J0.6
X212.4 Y210.383 Z-0.875 I0. J-0.6
X213. Y209.783 Z-0.887 I0.6 J0.
Y210.983 Z-0.913 I0. J0.6
X212.4 Y210.383 Z-0.925 I0. J-0.6
X213. Y209.783 Z-0.938 I0.6 J0.
Y210.983 Z-0.963 I0. J0.6
X212.4 Y210.383 Z-0.975 I0. J-0.6
X213. Y209.783 Z-0.988 I0.6 J0.
X213.6 Y210.383 Z-1. I0. J0.6
X212.4 I-0.6 J0.
X213.6 I0.6 J0.
G1 Z1.
G0 X212.4 Y188.383
G1 Z0.1 F30.
G3 X213. Y187.783 Z0.087 I0.6 J0. F600.
Y188.983 Z0.063 I0. J0.6
X212.4 Y188.383 Z0.05 I0. J-0.6
X213. Y187.783 Z0.038 I0.6 J0.
Y188.983 Z0.013 I0. J0.6
X212.4 Y188.383 Z0. I0. J-0.6
X213. Y187.783 Z-0.013 I0.6 J0.
Y188.983 Z-0.038 I0. J0.6
X212.4 Y188.383 Z-0.05 I0. J-0.6
X213. Y187.783 Z-0.063 I0.6 J0.
Y188.983 Z-0.088 I0. J0.6
X212.4 Y188.383 Z-0.1 I0. J-0.6
X213. Y187.783 Z-0.112 I0.6 J0.
Y188.983 Z-0.138 I0. J0.6
X212.4 Y188.383 Z-0.15 I0. J-0.6
X213. Y187.783 Z-0.162 I0.6 J0.
Y188.983 Z-0.188 I0. J0.6
X212.4 Y188.383 Z-0.2 I0. J-0.6
X213. Y187.783 Z-0.213 I0.6 J0.
Y188.983 Z-0.238 I0. J0.6
X212.4 Y188.383 Z-0.25 I0. J-0.6
X213. Y187.783 Z-0.262 I0.6 J0.
Y188.983 Z-0.288 I0. J0.6
X212.4 Y188.383 Z-0.3 I0. J-0.6
X213. Y187.783 Z-0.313 I0.6 J0.
Y188.983 Z-0.337 I0. J0.6
X212.4 Y188.383 Z-0.35 I0. J-0.6
X213. Y187.783 Z-0.363 I0.6 J0.
Y188.983 Z-0.388 I0. J0.6
X212.4 Y188.383 Z-0.4 I0. J-0.6
X213. Y187.783 Z-0.412 I0.6 J0.
Y188.983 Z-0.437 I0. J0.6
X212.4 Y188.383 Z-0.45 I0. J-0.6
X213. Y187.783 Z-0.463 I0.6 J0.
Y188.983 Z-0.488 I0. J0.6
X212.4 Y188.383 Z-0.5 I0. J-0.6
X213. Y187.783 Z-0.512 I0.6 J0.
Y188.983 Z-0.538 I0. J0.6
X212.4 Y188.383 Z-0.55 I0. J-0.6
X213. Y187.783 Z-0.563 I0.6 J0.
Y188.983 Z-0.588 I0. J0.6
X212.4 Y188.383 Z-0.6 I0. J-0.6
X213. Y187.783 Z-0.613 I0.6 J0.
Y188.983 Z-0.637 I0. J0.6
X212.4 Y188.383 Z-0.65 I0. J-0.6
X213. Y187.783 Z-0.663 I0.6 J0.
Y188.983 Z-0.688 I0. J0.6
X212.4 Y188.383 Z-0.7 I0. J-0.6
X213. Y187.783 Z-0.712 I0.6 J0.
Y188.983 Z-0.737 I0. J0.6
X212.4 Y188.383 Z-0.75 I0. J-0.6
X213. Y187.783 Z-0.762 I0.6 J0.
Y188.983 Z-0.788 I0. J0.6
X212.4 Y188.383 Z-0.8 I0. J-0.6
X213. Y187.783 Z-0.813 I0.6 J0.
Y188.983 Z-0.838 I0. J0.6
X212.4 Y188.383 Z-0.85 I0. J-0.6
X213. Y187.783 Z-0.863 I0.6 J0.
Y188.983 Z-0.887 I0. J0.6
X212.4 Y188.383 Z-0.9 I0. J-0.6
X213. Y187.783 Z-0.913 I0.6 J0.
Y188.983 Z-0.938 I0. J0.6
X212.4 Y188.383 Z-0.95 I0. J-0.6
X213. Y187.783 Z-0.962 I0.6 J0.
Y188.983 Z-0.987 I0. J0.6
X212.4 Y188.383 Z-1. I0. J-0.6
X213. Y187.783 I0.6 J0.
Y188.983 I0. J0.6
X212.4 Y188.383 I0. J-0.6
G1 Z1.
G0 X213.052 Y178.953
G1 Z0.1 F30.
G3 X213.095 Y179.069 Z0.095 I-0.052 J0.085 F600.
X212.905 Y179.007 Z0.084 I-0.095 J-0.031
X213.095 Y179.069 Z0.073 I0.095 J0.031
X212.905 Y179.007 Z0.062 I-0.095 J-0.031
X213.095 Y179.069 Z0.052 I0.095 J0.031
X212.905 Y179.007 Z0.041 I-0.095 J-0.031
X213.095 Y179.069 Z0.03 I0.095 J0.031
X212.905 Y179.007 Z0.019 I-0.095 J-0.031
X213.095 Y179.069 Z0.008 I0.095 J0.031
X212.905 Y179.007 Z-0.003 I-0.095 J-0.031
X213.095 Y179.069 Z-0.014 I0.095 J0.031
X212.905 Y179.007 Z-0.025 I-0.095 J-0.031
X213.095 Y179.069 Z-0.036 I0.095 J0.031
X212.905 Y179.007 Z-0.047 I-0.095 J-0.031
X213.095 Y179.069 Z-0.058 I0.095 J0.031
X212.905 Y179.007 Z-0.069 I-0.095 J-0.031
X213.095 Y179.069 Z-0.08 I0.095 J0.031
X212.905 Y179.007 Z-0.091 I-0.095 J-0.031
X213.095 Y179.069 Z-0.102 I0.095 J0.031
X212.905 Y179.007 Z-0.113 I-0.095 J-0.031
X213.095 Y179.069 Z-0.124 I0.095 J0.031
X212.905 Y179.007 Z-0.135 I-0.095 J-0.031
X213.095 Y179.069 Z-0.146 I0.095 J0.031
X212.905 Y179.007 Z-0.157 I-0.095 J-0.031
X213.095 Y179.069 Z-0.168 I0.095 J0.031
X212.905 Y179.007 Z-0.179 I-0.095 J-0.031
X213.095 Y179.069 Z-0.189 I0.095 J0.031
X212.905 Y179.007 Z-0.2 I-0.095 J-0.031
X213.095 Y179.069 Z-0.211 I0.095 J0.031
X212.905 Y179.007 Z-0.222 I-0.095 J-0.031
X213.095 Y179.069 Z-0.233 I0.095 J0.031
X212.905 Y179.007 Z-0.244 I-0.095 J-0.031
X213.095 Y179.069 Z-0.255 I0.095 J0.031
X212.905 Y179.007 Z-0.266 I-0.095 J-0.031
X213.095 Y179.069 Z-0.277 I0.095 J0.031
X212.905 Y179.007 Z-0.288 I-0.095 J-0.031
X213.095 Y179.069 Z-0.299 I0.095 J0.031
X212.905 Y179.007 Z-0.31 I-0.095 J-0.031
X213.095 Y179.069 Z-0.321 I0.095 J0.031
X212.905 Y179.007 Z-0.332 I-0.095 J-0.031
X213.095 Y179.069 Z-0.343 I0.095 J0.031
X212.905 Y179.007 Z-0.354 I-0.095 J-0.031
X213.095 Y179.069 Z-0.365 I0.095 J0.031
X212.905 Y179.007 Z-0.376 I-0.095 J-0.031
X213.095 Y179.069 Z-0.387 I0.095 J0.031
X212.905 Y179.007 Z-0.398 I-0.095 J-0.031
X213.095 Y179.069 Z-0.409 I0.095 J0.031
X212.905 Y179.007 Z-0.419 I-0.095 J-0.031
X213.095 Y179.069 Z-0.43 I0.095 J0.031
X212.905 Y179.007 Z-0.441 I-0.095 J-0.031
X213.095 Y179.069 Z-0.452 I0.095 J0.031
X212.905 Y179.007 Z-0.463 I-0.095 J-0.031
X213.095 Y179.069 Z-0.474 I0.095 J0.031
X212.905 Y179.007 Z-0.485 I-0.095 J-0.031
X213.095 Y179.069 Z-0.496 I0.095 J0.031
X212.905 Y179.007 Z-0.507 I-0.095 J-0.031
X213.095 Y179.069 Z-0.518 I0.095 J0.031
X212.905 Y179.007 Z-0.529 I-0.095 J-0.031
X213.095 Y179.069 Z-0.54 I0.095 J0.031
X212.905 Y179.007 Z-0.551 I-0.095 J-0.031
X213.095 Y179.069 Z-0.562 I0.095 J0.031
X212.905 Y179.007 Z-0.573 I-0.095 J-0.031
X213.095 Y179.069 Z-0.584 I0.095 J0.031
X212.905 Y179.007 Z-0.595 I-0.095 J-0.031
X213.095 Y179.069 Z-0.606 I0.095 J0.031
X212.905 Y179.007 Z-0.617 I-0.095 J-0.031
X213.095 Y179.069 Z-0.628 I0.095 J0.031
X212.905 Y179.007 Z-0.639 I-0.095 J-0.031
X213.095 Y179.069 Z-0.649 I0.095 J0.031
X212.905 Y179.007 Z-0.66 I-0.095 J-0.031
X213.095 Y179.069 Z-0.671 I0.095 J0.031
X212.905 Y179.007 Z-0.682 I-0.095 J-0.031
X213.095 Y179.069 Z-0.693 I0.095 J0.031
X212.905 Y179.007 Z-0.704 I-0.095 J-0.031
X213.095 Y179.069 Z-0.715 I0.095 J0.031
X212.905 Y179.007 Z-0.726 I-0.095 J-0.031
X213.095 Y179.069 Z-0.737 I0.095 J0.031
X212.905 Y179.007 Z-0.748 I-0.095 J-0.031
X213.095 Y179.069 Z-0.759 I0.095 J0.031
X212.905 Y179.007 Z-0.77 I-0.095 J-0.031
X213.095 Y179.069 Z-0.781 I0.095 J0.031
X212.905 Y179.007 Z-0.792 I-0.095 J-0.031
X213.095 Y179.069 Z-0.803 I0.095 J0.031
X212.905 Y179.007 Z-0.814 I-0.095 J-0.031
X213.095 Y179.069 Z-0.825 I0.095 J0.031
X212.905 Y179.007 Z-0.836 I-0.095 J-0.031
X213.095 Y179.069 Z-0.847 I0.095 J0.031
X212.905 Y179.007 Z-0.858 I-0.095 J-0.031
X213.095 Y179.069 Z-0.869 I0.095 J0.031
X212.905 Y179.007 Z-0.88 I-0.095 J-0.031
X213.095 Y179.069 Z-0.89 I0.095 J0.031
X212.905 Y179.007 Z-0.901 I-0.095 J-0.031
X213.095 Y179.069 Z-0.912 I0.095 J0.031
X212.905 Y179.007 Z-0.923 I-0.095 J-0.031
X213.095 Y179.069 Z-0.934 I0.095 J0.031
X212.905 Y179.007 Z-0.945 I-0.095 J-0.031
X213.095 Y179.069 Z-0.956 I0.095 J0.031
X212.905 Y179.007 Z-0.967 I-0.095 J-0.031
X213.095 Y179.069 Z-0.978 I0.095 J0.031
X212.905 Y179.007 Z-0.989 I-0.095 J-0.031
X213.095 Y179.069 Z-1. I0.095 J0.031
X212.905 Y179.007 I-0.095 J-0.031
X213.095 Y179.069 I0.095 J0.031
G1 Z1.
G0 X213. Y165.042
G1 Z0.1 F30.
G3 Y163.842 Z0.075 I0. J-0.6 F600.
Y165.042 Z0.05 I0. J0.6
Y163.842 Z0.025 I0. J-0.6
Y165.042 Z0. I0. J0.6
Y163.842 Z-0.025 I0. J-0.6
Y165.042 Z-0.05 I0. J0.6
Y163.842 Z-0.075 I0. J-0.6
Y165.042 Z-0.1 I0. J0.6
Y163.842 Z-0.125 I0. J-0.6
Y165.042 Z-0.15 I0. J0.6
Y163.842 Z-0.175 I0. J-0.6
Y165.042 Z-0.2 I0. J0.6
Y163.842 Z-0.225 I0. J-0.6
Y165.042 Z-0.25 I0. J0.6
Y163.842 Z-0.275 I0. J-0.6
Y165.042 Z-0.3 I0. J0.6
Y163.842 Z-0.325 I0. J-0.6
Y165.042 Z-0.35 I0. J0.6
Y163.842 Z-0.375 I0. J-0.6
Y165.042 Z-0.4 I0. J0.6
Y163.842 Z-0.425 I0. J-0.6
Y165.042 Z-0.45 I0. J0.6
Y163.842 Z-0.475 I0. J-0.6
Y165.042 Z-0.5 I0. J0.6
Y163.842 Z-0.525 I0. J-0.6
Y165.042 Z-0.55 I0. J0.6
Y163.842 Z-0.575 I0. J-0.6
Y165.042 Z-0.6 I0. J0.6
Y163.842 Z-0.625 I0. J-0.6
Y165.042 Z-0.65 I0. J0.6
Y163.842 Z-0.675 I0. J-0.6
Y165.042 Z-0.7 I0. J0.6
Y163.842 Z-0.725 I0. J-0.6
Y165.042 Z-0.75 I0. J0.6
Y163.842 Z-0.775 I0. J-0.6
Y165.042 Z-0.8 I0. J0.6
Y163.842 Z-0.825 I0. J-0.6
Y165.042 Z-0.85 I0. J0.6
Y163.842 Z-0.875 I0. J-0.6
Y165.042 Z-0.9 I0. J0.6
Y163.842 Z-0.925 I0. J-0.6
Y165.042 Z-0.95 I0. J0.6
Y163.842 Z-0.975 I0. J-0.6
Y165.042 Z-1. I0. J0.6
Y163.842 I0. J-0.6
Y165.042 I0. J0.6
G1 Z1.
G0 X212.4 Y144.942
G1 Z0.1 F30.
G3 X213.6 Z0.075 I0.6 J0. F600.
X212.4 Z0.05 I-0.6 J0.
X213.6 Z0.025 I0.6 J0.
X212.4 Z0. I-0.6 J0.
X213.6 Z-0.025 I0.6 J0.
X212.4 Z-0.05 I-0.6 J0.
X213.6 Z-0.075 I0.6 J0.
X212.4 Z-0.1 I-0.6 J0.
X213.6 Z-0.125 I0.6 J0.
X212.4 Z-0.15 I-0.6 J0.
X213.6 Z-0.175 I0.6 J0.
X212.4 Z-0.2 I-0.6 J0.
X213.6 Z-0.225 I0.6 J0.
X212.4 Z-0.25 I-0.6 J0.
X213.6 Z-0.275 I0.6 J0.
X212.4 Z-0.3 I-0.6 J0.
X213.6 Z-0.325 I0.6 J0.
X212.4 Z-0.35 I-0.6 J0.
X213.6 Z-0.375 I0.6 J0.
X212.4 Z-0.4 I-0.6 J0.
X213.6 Z-0.425 I0.6 J0.
X212.4 Z-0.45 I-0.6 J0.
X213.6 Z-0.475 I0.6 J0.
X212.4 Z-0.5 I-0.6 J0.
X213.6 Z-0.525 I0.6 J0.
X212.4 Z-0.55 I-0.6 J0.
X213.6 Z-0.575 I0.6 J0.
X212.4 Z-0.6 I-0.6 J0.
X213.6 Z-0.625 I0.6 J0.
X212.4 Z-0.65 I-0.6 J0.
X213.6 Z-0.675 I0.6 J0.
X212.4 Z-0.7 I-0.6 J0.
X213.6 Z-0.725 I0.6 J0.
X212.4 Z-0.75 I-0.6 J0.
X213.6 Z-0.775 I0.6 J0.
X212.4 Z-0.8 I-0.6 J0.
X213.6 Z-0.825 I0.6 J0.
X212.4 Z-0.85 I-0.6 J0.
X213.6 Z-0.875 I0.6 J0.
X212.4 Z-0.9 I-0.6 J0.
X213.6 Z-0.925 I0.6 J0.
X212.4 Z-0.95 I-0.6 J0.
X213.6 Z-0.975 I0.6 J0.
X212.4 Z-1. I-0.6 J0.
X213.6 I0.6 J0.
X212.4 I-0.6 J0.
G1 Z1.
G0 Y77.442
G1 Z0.1 F30.
G3 X213.6 Z0.075 I0.6 J0. F600.
X212.4 Z0.05 I-0.6 J0.
X213.6 Z0.025 I0.6 J0.
X212.4 Z0. I-0.6 J0.
X213.6 Z-0.025 I0.6 J0.
X212.4 Z-0.05 I-0.6 J0.
X213.6 Z-0.075 I0.6 J0.
X212.4 Z-0.1 I-0.6 J0.
X213.6 Z-0.125 I0.6 J0.
X212.4 Z-0.15 I-0.6 J0.
X213.6 Z-0.175 I0.6 J0.
X212.4 Z-0.2 I-0.6 J0.
X213.6 Z-0.225 I0.6 J0.
X212.4 Z-0.25 I-0.6 J0.
X213.6 Z-0.275 I0.6 J0.
X212.4 Z-0.3 I-0.6 J0.
X213.6 Z-0.325 I0.6 J0.
X212.4 Z-0.35 I-0.6 J0.
X213.6 Z-0.375 I0.6 J0.
X212.4 Z-0.4 I-0.6 J0.
X213.6 Z-0.425 I0.6 J0.
X212.4 Z-0.45 I-0.6 J0.
X213.6 Z-0.475 I0.6 J0.
X212.4 Z-0.5 I-0.6 J0.
X213.6 Z-0.525 I0.6 J0.
X212.4 Z-0.55 I-0.6 J0.
X213.6 Z-0.575 I0.6 J0.
X212.4 Z-0.6 I-0.6 J0.
X213.6 Z-0.625 I0.6 J0.
X212.4 Z-0.65 I-0.6 J0.
X213.6 Z-0.675 I0.6 J0.
X212.4 Z-0.7 I-0.6 J0.
X213.6 Z-0.725 I0.6 J0.
X212.4 Z-0.75 I-0.6 J0.
X213.6 Z-0.775 I0.6 J0.
X212.4 Z-0.8 I-0.6 J0.
X213.6 Z-0.825 I0.6 J0.
X212.4 Z-0.85 I-0.6 J0.
X213.6 Z-0.875 I0.6 J0.
X212.4 Z-0.9 I-0.6 J0.
X213.6 Z-0.925 I0.6 J0.
X212.4 Z-0.95 I-0.6 J0.
X213.6 Z-0.975 I0.6 J0.
X212.4 Z-1. I-0.6 J0.
X213.6 I0.6 J0.
X212.4 I-0.6 J0.
G1 Z1.
G0 Y57.942
G1 Z0.1 F30.
G3 X213.6 Z0.075 I0.6 J0. F600.
X212.4 Z0.05 I-0.6 J0.
X213.6 Z0.025 I0.6 J0.
X212.4 Z0. I-0.6 J0.
X213.6 Z-0.025 I0.6 J0.
X212.4 Z-0.05 I-0.6 J0.
X213.6 Z-0.075 I0.6 J0.
X212.4 Z-0.1 I-0.6 J0.
X213.6 Z-0.125 I0.6 J0.
X212.4 Z-0.15 I-0.6 J0.
X213.6 Z-0.175 I0.6 J0.
X212.4 Z-0.2 I-0.6 J0.
X213.6 Z-0.225 I0.6 J0.
X212.4 Z-0.25 I-0.6 J0.
X213.6 Z-0.275 I0.6 J0.
X212.4 Z-0.3 I-0.6 J0.
X213.6 Z-0.325 I0.6 J0.
X212.4 Z-0.35 I-0.6 J0.
X213.6 Z-0.375 I0.6 J0.
X212.4 Z-0.4 I-0.6 J0.
X213.6 Z-0.425 I0.6 J0.
X212.4 Z-0.45 I-0.6 J0.
X213.6 Z-0.475 I0.6 J0.
X212.4 Z-0.5 I-0.6 J0.
X213.6 Z-0.525 I0.6 J0.
X212.4 Z-0.55 I-0.6 J0.
X213.6 Z-0.575 I0.6 J0.
X212.4 Z-0.6 I-0.6 J0.
X213.6 Z-0.625 I0.6 J0.
X212.4 Z-0.65 I-0.6 J0.
X213.6 Z-0.675 I0.6 J0.
X212.4 Z-0.7 I-0.6 J0.
X213.6 Z-0.725 I0.6 J0.
X212.4 Z-0.75 I-0.6 J0.
X213.6 Z-0.775 I0.6 J0.
X212.4 Z-0.8 I-0.6 J0.
X213.6 Z-0.825 I0.6 J0.
X212.4 Z-0.85 I-0.6 J0.
X213.6 Z-0.875 I0.6 J0.
X212.4 Z-0.9 I-0.6 J0.
X213.6 Z-0.925 I0.6 J0.
X212.4 Z-0.95 I-0.6 J0.
X213.6 Z-0.975 I0.6 J0.
X212.4 Z-1. I-0.6 J0.
X213.6 I0.6 J0.
X212.4 I-0.6 J0.
G1 Z1.
G0 X212.916 Y43.292
G1 Z0.1 F30.
G3 X213. Y43.245 Z0.096 I0.084 J0.053 F600.
X213.095 Y43.314 Z0.092 I0. J0.1
Y43.377 Z0.09 I-0.095 J0.031
X212.905 Z0.081 I-0.095 J-0.031
Y43.314 Z0.079 I0.095 J-0.032
X213.095 Z0.07 I0.095 J0.032
Y43.377 Z0.068 I-0.095 J0.031
X212.905 Z0.059 I-0.095 J-0.031
Y43.314 Z0.057 I0.095 J-0.032
X213.095 Z0.048 I0.095 J0.032
Y43.377 Z0.046 I-0.095 J0.031
X212.905 Z0.037 I-0.095 J-0.031
Y43.314 Z0.035 I0.095 J-0.032
X213.095 Z0.026 I0.095 J0.032
Y43.377 Z0.024 I-0.095 J0.031
X212.905 Z0.015 I-0.095 J-0.031
Y43.314 Z0.013 I0.095 J-0.032
X213.095 Z0.004 I0.095 J0.032
Y43.377 Z0.002 I-0.095 J0.031
X212.905 Z-0.007 I-0.095 J-0.031
Y43.314 Z-0.009 I0.095 J-0.032
X213.095 Z-0.018 I0.095 J0.032
Y43.377 Z-0.02 I-0.095 J0.031
X212.905 Z-0.028 I-0.095 J-0.031
Y43.314 Z-0.031 I0.095 J-0.032
X213.095 Z-0.039 I0.095 J0.032
Y43.377 Z-0.042 I-0.095 J0.031
X212.905 Z-0.05 I-0.095 J-0.031
Y43.314 Z-0.053 I0.095 J-0.032
X213.095 Z-0.061 I0.095 J0.032
Y43.377 Z-0.064 I-0.095 J0.031
X212.905 Z-0.072 I-0.095 J-0.031
Y43.314 Z-0.075 I0.095 J-0.032
X213.095 Z-0.083 I0.095 J0.032
Y43.377 Z-0.086 I-0.095 J0.031
X212.905 Z-0.094 I-0.095 J-0.031
Y43.314 Z-0.097 I0.095 J-0.032
X213.095 Z-0.105 I0.095 J0.032
Y43.377 Z-0.107 I-0.095 J0.031
X212.905 Z-0.116 I-0.095 J-0.031
Y43.314 Z-0.118 I0.095 J-0.032
X213.095 Z-0.127 I0.095 J0.032
Y43.377 Z-0.129 I-0.095 J0.031
X212.905 Z-0.138 I-0.095 J-0.031
Y43.314 Z-0.14 I0.095 J-0.032
X213.095 Z-0.149 I0.095 J0.032
Y43.377 Z-0.151 I-0.095 J0.031
X212.905 Z-0.16 I-0.095 J-0.031
Y43.314 Z-0.162 I0.095 J-0.032
X213.095 Z-0.171 I0.095 J0.032
Y43.377 Z-0.173 I-0.095 J0.031
X212.905 Z-0.182 I-0.095 J-0.031
Y43.314 Z-0.184 I0.095 J-0.032
X213.095 Z-0.193 I0.095 J0.032
Y43.377 Z-0.195 I-0.095 J0.031
X212.905 Z-0.204 I-0.095 J-0.031
Y43.314 Z-0.206 I0.095 J-0.032
X213.095 Z-0.215 I0.095 J0.032
Y43.377 Z-0.217 I-0.095 J0.031
X212.905 Z-0.226 I-0.095 J-0.031
Y43.314 Z-0.228 I0.095 J-0.032
X213.095 Z-0.237 I0.095 J0.032
Y43.377 Z-0.239 I-0.095 J0.031
X212.905 Z-0.248 I-0.095 J-0.031
Y43.314 Z-0.25 I0.095 J-0.032
X213.095 Z-0.259 I0.095 J0.032
Y43.377 Z-0.261 I-0.095 J0.031
X212.905 Z-0.27 I-0.095 J-0.031
Y43.314 Z-0.272 I0.095 J-0.032
X213.095 Z-0.281 I0.095 J0.032
Y43.377 Z-0.283 I-0.095 J0.031
X212.905 Z-0.292 I-0.095 J-0.031
Y43.314 Z-0.294 I0.095 J-0.032
X213.095 Z-0.303 I0.095 J0.032
Y43.377 Z-0.305 I-0.095 J0.031
X212.905 Z-0.314 I-0.095 J-0.031
Y43.314 Z-0.316 I0.095 J-0.032
X213.095 Z-0.325 I0.095 J0.032
Y43.377 Z-0.327 I-0.095 J0.031
X212.905 Z-0.336 I-0.095 J-0.031
Y43.314 Z-0.338 I0.095 J-0.032
X213.095 Z-0.346 I0.095 J0.032
Y43.377 Z-0.349 I-0.095 J0.031
X212.905 Z-0.357 I-0.095 J-0.031
Y43.314 Z-0.36 I0.095 J-0.032
X213.095 Z-0.368 I0.095 J0.032
Y43.377 Z-0.371 I-0.095 J0.031
X212.905 Z-0.379 I-0.095 J-0.031
Y43.314 Z-0.382 I0.095 J-0.032
X213.095 Z-0.39 I0.095 J0.032
Y43.377 Z-0.393 I-0.095 J0.031
X212.905 Z-0.401 I-0.095 J-0.031
Y43.314 Z-0.404 I0.095 J-0.032
X213.095 Z-0.412 I0.095 J0.032
Y43.377 Z-0.414 I-0.095 J0.031
X212.905 Z-0.423 I-0.095 J-0.031
Y43.314 Z-0.425 I0.095 J-0.032
X213.095 Z-0.434 I0.095 J0.032
Y43.377 Z-0.436 I-0.095 J0.031
X212.905 Z-0.445 I-0.095 J-0.031
Y43.314 Z-0.447 I0.095 J-0.032
X213.095 Z-0.456 I0.095 J0.032
Y43.377 Z-0.458 I-0.095 J0.031
X212.905 Z-0.467 I-0.095 J-0.031
Y43.314 Z-0.469 I0.095 J-0.032
X213.095 Z-0.478 I0.095 J0.032
Y43.377 Z-0.48 I-0.095 J0.031
X212.905 Z-0.489 I-0.095 J-0.031
Y43.314 Z-0.491 I0.095 J-0.032
X213.095 Z-0.5 I0.095 J0.032
Y43.377 Z-0.502 I-0.095 J0.031
X212.905 Z-0.511 I-0.095 J-0.031
Y43.314 Z-0.513 I0.095 J-0.032
X213.095 Z-0.522 I0.095 J0.032
Y43.377 Z-0.524 I-0.095 J0.031
X212.905 Z-0.533 I-0.095 J-0.031
Y43.314 Z-0.535 I0.095 J-0.032
X213.095 Z-0.544 I0.095 J0.032
Y43.377 Z-0.546 I-0.095 J0.031
X212.905 Z-0.555 I-0.095 J-0.031
Y43.314 Z-0.557 I0.095 J-0.032
X213.095 Z-0.566 I0.095 J0.032
Y43.377 Z-0.568 I-0.095 J0.031
X212.905 Z-0.577 I-0.095 J-0.031
Y43.314 Z-0.579 I0.095 J-0.032
X213.095 Z-0.588 I0.095 J0.032
Y43.377 Z-0.59 I-0.095 J0.031
X212.905 Z-0.599 I-0.095 J-0.031
Y43.314 Z-0.601 I0.095 J-0.032
X213.095 Z-0.61 I0.095 J0.032
Y43.377 Z-0.612 I-0.095 J0.031
X212.905 Z-0.621 I-0.095 J-0.031
Y43.314 Z-0.623 I0.095 J-0.032
X213.095 Z-0.632 I0.095 J0.032
Y43.377 Z-0.634 I-0.095 J0.031
X212.905 Z-0.643 I-0.095 J-0.031
Y43.314 Z-0.645 I0.095 J-0.032
X213.095 Z-0.653 I0.095 J0.032
Y43.377 Z-0.656 I-0.095 J0.031
X212.905 Z-0.664 I-0.095 J-0.031
Y43.314 Z-0.667 I0.095 J-0.032
X213.095 Z-0.675 I0.095 J0.032
Y43.377 Z-0.678 I-0.095 J0.031
X212.905 Z-0.686 I-0.095 J-0.031
Y43.314 Z-0.689 I0.095 J-0.032
X213.095 Z-0.697 I0.095 J0.032
Y43.377 Z-0.7 I-0.095 J0.031
X212.905 Z-0.708 I-0.095 J-0.031
Y43.314 Z-0.711 I0.095 J-0.032
X213.095 Z-0.719 I0.095 J0.032
Y43.377 Z-0.722 I-0.095 J0.031
X212.905 Z-0.73 I-0.095 J-0.031
Y43.314 Z-0.732 I0.095 J-0.032
X213.095 Z-0.741 I0.095 J0.032
Y43.377 Z-0.743 I-0.095 J0.031
X212.905 Z-0.752 I-0.095 J-0.031
Y43.314 Z-0.754 I0.095 J-0.032
X213.095 Z-0.763 I0.095 J0.032
Y43.377 Z-0.765 I-0.095 J0.031
X212.905 Z-0.774 I-0.095 J-0.031
Y43.314 Z-0.776 I0.095 J-0.032
X213.095 Z-0.785 I0.095 J0.032
Y43.377 Z-0.787 I-0.095 J0.031
X212.905 Z-0.796 I-0.095 J-0.031
Y43.314 Z-0.798 I0.095 J-0.032
X213.095 Z-0.807 I0.095 J0.032
Y43.377 Z-0.809 I-0.095 J0.031
X212.905 Z-0.818 I-0.095 J-0.031
Y43.314 Z-0.82 I0.095 J-0.032
X213.095 Z-0.829 I0.095 J0.032
Y43.377 Z-0.831 I-0.095 J0.031
X212.905 Z-0.84 I-0.095 J-0.031
Y43.314 Z-0.842 I0.095 J-0.032
X213.095 Z-0.851 I0.095 J0.032
Y43.377 Z-0.853 I-0.095 J0.031
X212.905 Z-0.862 I-0.095 J-0.031
Y43.314 Z-0.864 I0.095 J-0.032
X213.095 Z-0.873 I0.095 J0.032
Y43.377 Z-0.875 I-0.095 J0.031
X212.905 Z-0.884 I-0.095 J-0.031
Y43.314 Z-0.886 I0.095 J-0.032
X213.095 Z-0.895 I0.095 J0.032
Y43.377 Z-0.897 I-0.095 J0.031
X212.905 Z-0.906 I-0.095 J-0.031
Y43.314 Z-0.908 I0.095 J-0.032
X213.095 Z-0.917 I0.095 J0.032
Y43.377 Z-0.919 I-0.095 J0.031
X212.905 Z-0.928 I-0.095 J-0.031
Y43.314 Z-0.93 I0.095 J-0.032
X213.095 Z-0.939 I0.095 J0.032
Y43.377 Z-0.941 I-0.095 J0.031
X212.905 Z-0.95 I-0.095 J-0.031
Y43.314 Z-0.952 I0.095 J-0.032
X213.095 Z-0.961 I0.095 J0.032
Y43.377 Z-0.963 I-0.095 J0.031
X212.905 Z-0.971 I-0.095 J-0.031
Y43.314 Z-0.974 I0.095 J-0.032
X213.095 Z-0.982 I0.095 J0.032
Y43.377 Z-0.985 I-0.095 J0.031
X212.905 Z-0.993 I-0.095 J-0.031
Y43.314 Z-0.996 I0.095 J-0.032
X213. Y43.245 Z-1. I0.095 J0.032
X213.095 Y43.314 I0. J0.1
Y43.377 I-0.095 J0.031
X212.905 I-0.095 J-0.031
Y43.314 I0.095 J-0.032
X213. Y43.245 I0.095 J0.032
G1 Z1.
G0 X212.4 Y34.
G1 Z0.1 F30.
G3 X213.6 Z0.075 I0.6 J0. F600.
X212.4 Z0.05 I-0.6 J0.
X213.6 Z0.025 I0.6 J0.
X212.4 Z0. I-0.6 J0.
X213.6 Z-0.025 I0.6 J0.
X212.4 Z-0.05 I-0.6 J0.
X213.6 Z-0.075 I0.6 J0.
X212.4 Z-0.1 I-0.6 J0.
X213.6 Z-0.125 I0.6 J0.
X212.4 Z-0.15 I-0.6 J0.
X213.6 Z-0.175 I0.6 J0.
X212.4 Z-0.2 I-0.6 J0.
X213.6 Z-0.225 I0.6 J0.
X212.4 Z-0.25 I-0.6 J0.
X213.6 Z-0.275 I0.6 J0.
X212.4 Z-0.3 I-0.6 J0.
X213.6 Z-0.325 I0.6 J0.
X212.4 Z-0.35 I-0.6 J0.
X213.6 Z-0.375 I0.6 J0.
X212.4 Z-0.4 I-0.6 J0.
X213.6 Z-0.425 I0.6 J0.
X212.4 Z-0.45 I-0.6 J0.
X213.6 Z-0.475 I0.6 J0.
X212.4 Z-0.5 I-0.6 J0.
X213.6 Z-0.525 I0.6 J0.
X212.4 Z-0.55 I-0.6 J0.
X213.6 Z-0.575 I0.6 J0.
X212.4 Z-0.6 I-0.6 J0.
X213.6 Z-0.625 I0.6 J0.
X212.4 Z-0.65 I-0.6 J0.
X213.6 Z-0.675 I0.6 J0.
X212.4 Z-0.7 I-0.6 J0.
X213.6 Z-0.725 I0.6 J0.
X212.4 Z-0.75 I-0.6 J0.
X213.6 Z-0.775 I0.6 J0.
X212.4 Z-0.8 I-0.6 J0.
X213.6 Z-0.825 I0.6 J0.
X212.4 Z-0.85 I-0.6 J0.
X213.6 Z-0.875 I0.6 J0.
X212.4 Z-0.9 I-0.6 J0.
X213.6 Z-0.925 I0.6 J0.
X212.4 Z-0.95 I-0.6 J0.
X213.6 Z-0.975 I0.6 J0.
X212.4 Z-1. I-0.6 J0.
X213.6 I0.6 J0.
X212.4 I-0.6 J0.
G1 Z1.
G0 X213. Y11.4
G1 Z0.1 F30.
G3 Y12.6 Z0.075 I0. J0.6 F600.
Y11.4 Z0.05 I0. J-0.6
Y12.6 Z0.025 I0. J0.6
Y11.4 Z0. I0. J-0.6
Y12.6 Z-0.025 I0. J0.6
Y11.4 Z-0.05 I0. J-0.6
Y12.6 Z-0.075 I0. J0.6
Y11.4 Z-0.1 I0. J-0.6
Y12.6 Z-0.125 I0. J0.6
Y11.4 Z-0.15 I0. J-0.6
Y12.6 Z-0.175 I0. J0.6
Y11.4 Z-0.2 I0. J-0.6
Y12.6 Z-0.225 I0. J0.6
Y11.4 Z-0.25 I0. J-0.6
Y12.6 Z-0.275 I0. J0.6
Y11.4 Z-0.3 I0. J-0.6
Y12.6 Z-0.325 I0. J0.6
Y11.4 Z-0.35 I0. J-0.6
Y12.6 Z-0.375 I0. J0.6
Y11.4 Z-0.4 I0. J-0.6
Y12.6 Z-0.425 I0. J0.6
Y11.4 Z-0.45 I0. J-0.6
Y12.6 Z-0.475 I0. J0.6
Y11.4 Z-0.5 I0. J-0.6
Y12.6 Z-0.525 I0. J0.6
Y11.4 Z-0.55 I0. J-0.6
Y12.6 Z-0.575 I0. J0.6
Y11.4 Z-0.6 I0. J-0.6
Y12.6 Z-0.625 I0. J0.6
Y11.4 Z-0.65 I0. J-0.6
Y12.6 Z-0.675 I0. J0.6
Y11.4 Z-0.7 I0. J-0.6
Y12.6 Z-0.725 I0. J0.6
Y11.4 Z-0.75 I0. J-0.6
Y12.6 Z-0.775 I0. J0.6
Y11.4 Z-0.8 I0. J-0.6
Y12.6 Z-0.825 I0. J0.6
Y11.4 Z-0.85 I0. J-0.6
Y12.6 Z-0.875 I0. J0.6
Y11.4 Z-0.9 I0. J-0.6
Y12.6 Z-0.925 I0. J0.6
Y11.4 Z-0.95 I0. J-0.6
Y12.6 Z-0.975 I0. J0.6
Y11.4 Z-1. I0. J-0.6
Y12.6 I0. J0.6
Y11.4 I0. J-0.6
G1 Z1.
G0 X-1. Y111.191
G1 Z0.1 F30.
Y219.383 Z0.094 F600.
G2 X3. Y223.383 I4. J0.
G1 X217. Z0.081
G2 X221. Y219.383 I0. J-4.
G1 Y3. Z0.069
G2 X217. Y-1. I-4. J0.
G1 X3. Z0.056
G2 X-1. Y3. I0. J4.
G1 Y219.383 Z0.044
G2 X3. Y223.383 I4. J0.
G1 X217. Z0.031
G2 X221. Y219.383 I0. J-4.
G1 Y3. Z0.019
G2 X217. Y-1. I-4. J0.
G1 X3. Z0.006
G2 X-1. Y3. I0. J4.
G1 Y219.383 Z-0.006
G2 X3. Y223.383 I4. J0.
G1 X217. Z-0.019
G2 X221. Y219.383 I0. J-4.
G1 Y3. Z-0.031
G2 X217. Y-1. I-4. J0.
G1 X3. Z-0.044
G2 X-1. Y3. I0. J4.
G1 Y219.383 Z-0.056
G2 X3. Y223.383 I4. J0.
G1 X217. Z-0.069
G2 X221. Y219.383 I0. J-4.
G1 Y3. Z-0.081
G2 X217. Y-1. I-4. J0.
G1 X3. Z-0.094
G2 X-1. Y3. I0. J4.
G1 Y219.383 Z-0.106
G2 X3. Y223.383 I4. J0.
G1 X217. Z-0.119
G2 X221. Y219.383 I0. J-4.
G1 Y3. Z-0.131
G2 X217. Y-1. I-4. J0.
G1 X3. Z-0.144
G2 X-1. Y3. I0. J4.
G1 Y219.383 Z-0.156
G2 X3. Y223.383 I4. J0.
G1 X217. Z-0.169
G2 X221. Y219.383 I0. J-4.
G1 Y3. Z-0.181
G2 X217. Y-1. I-4. J0.
G1 X3. Z-0.194
G2 X-1. Y3. I0. J4.
G1 Y219.383 Z-0.206
G2 X3. Y223.383 I4. J0.
G1 X217. Z-0.219
G2 X221. Y219.383 I0. J-4.
G1 Y3. Z-0.231
G2 X217. Y-1. I-4. J0.
G1 X3. Z-0.244
G2 X-1. Y3. I0. J4.
G1 Y219.383 Z-0.256
G2 X3. Y223.383 I4. J0.
G1 X217. Z-0.269
G2 X221. Y219.383 I0. J-4.
G1 Y3. Z-0.281
G2 X217. Y-1. I-4. J0.
G1 X3. Z-0.294
G2 X-1. Y3. I0. J4.
G1 Y219.383 Z-0.306
G2 X3. Y223.383 I4. J0.
G1 X217. Z-0.319
G2 X221. Y219.383 I0. J-4.
G1 Y3. Z-0.331
G2 X217. Y-1. I-4. J0.
G1 X3. Z-0.344
G2 X-1. Y3. I0. J4.
G1 Y219.383 Z-0.356
G2 X3. Y223.383 I4. J0.
G1 X217. Z-0.369
G2 X221. Y219.383 I0. J-4.
G1 Y3. Z-0.381
G2 X217. Y-1. I-4. J0.
G1 X3. Z-0.394
G2 X-1. Y3. I0. J4.
G1 Y219.383 Z-0.406
G2 X3. Y223.383 I4. J0.
G1 X217. Z-0.419
G2 X221. Y219.383 I0. J-4.
G1 Y3. Z-0.431
G2 X217. Y-1. I-4. J0.
G1 X3. Z-0.444
G2 X-1. Y3. I0. J4.
G1 Y219.383 Z-0.456
G2 X3. Y223.383 I4. J0.
G1 X217. Z-0.469
G2 X221. Y219.383 I0. J-4.
G1 Y3. Z-0.481
G2 X217. Y-1. I-4. J0.
G1 X3. Z-0.494
G2 X-1. Y3. I0. J4.
G1 Y219.383 Z-0.506
G2 X3. Y223.383 I4. J0.
G1 X217. Z-0.519
G2 X221. Y219.383 I0. J-4.
G1 Y3. Z-0.531
G2 X217. Y-1. I-4. J0.
G1 X3. Z-0.544
G2 X-1. Y3. I0. J4.
G1 Y219.383 Z-0.556
G2 X3. Y223.383 I4. J0.
G1 X217. Z-0.569
G2 X221. Y219.383 I0. J-4.
G1 Y3. Z-0.581
G2 X217. Y-1. I-4. J0.
G1 X3. Z-0.594
G2 X-1. Y3. I0. J4.
G1 Y219.383 Z-0.606
G2 X3. Y223.383 I4. J0.
G1 X217. Z-0.619
G2 X221. Y219.383 I0. J-4.
G1 Y3. Z-0.631
G2 X217. Y-1. I-4. J0.
G1 X3. Z-0.644
G2 X-1. Y3. I0. J4.
G1 Y219.383 Z-0.656
G2 X3. Y223.383 I4. J0.
G1 X217. Z-0.669
G2 X221. Y219.383 I0. J-4.
G1 Y3. Z-0.681
G2 X217. Y-1. I-4. J0.
G1 X3. Z-0.694
G2 X-1. Y3. I0. J4.
G1 Y118.628 Z-0.7
Y120.629
Y120.63 Z-0.701 F30.
Y135.502 F600.
Y135.504 Z-0.7
Y137.504
Y137.506 Z-0.701 F30.
Y152.376 Z-0.702 F600.
Y152.379 Z-0.7
Y154.379
Y154.382 Z-0.702 F30.
Y169.25 Z-0.703 F600.
Y169.254 Z-0.7
Y171.254
Y171.259 Z-0.703 F30.
Y188.378 Z-0.704 F600.
Y188.384 Z-0.7
Y190.384
Y190.39 Z-0.704 F30.
Y208.377 Z-0.705 F600.
Y208.384 Z-0.7
Y210.384
Y210.391 Z-0.706 F30.
Y219.383 F600.
G2 X3. Y223.383 I4. J0.
G1 X10.222 Z-0.707
X10.231 Z-0.7
X12.231
X12.24 Z-0.707 F30.
X26.682 Z-0.708 F600.
X26.692 Z-0.7
X28.692
X28.703 Z-0.708 F30.
X43.142 Z-0.709 F600.
X43.154 Z-0.7
X45.154
X45.166 Z-0.709 F30.
X59.603 Z-0.71 F600.
X59.615 Z-0.7
X61.615
X61.628 Z-0.71 F30.
X76.063 Z-0.711 F600.
X76.077 Z-0.7
X78.077
X78.091 Z-0.711 F30.
X92.523 Z-0.712 F600.
X92.538 Z-0.7
X94.538
X94.554 Z-0.712 F30.
X108.983 F600.
X109. Z-0.7
X111.
X111.017 Z-0.713 F30.
X125.444 F600.
X125.462 Z-0.7
X127.462
X127.48 Z-0.713 F30.
X141.904 Z-0.714 F600.
X141.923 Z-0.7
X143.923
X143.942 Z-0.714 F30.
X158.365 Z-0.715 F600.
X158.385 Z-0.7
X160.385
X160.405 Z-0.715 F30.
X174.824 Z-0.716 F600.
X174.846 Z-0.7
X176.846
X176.868 Z-0.716 F30.
X191.285 Z-0.717 F600.
X191.308 Z-0.7
X193.308
X193.331 Z-0.717 F30.
X207.745 Z-0.718 F600.
X207.769 Z-0.7
X209.769
X209.793 Z-0.718 F30.
X217. Z-0.719 F600.
G2 X221. Y219.383 I0. J-4.
G1 Y210.41
Y210.384 Z-0.7
Y208.384
Y208.358 Z-0.72 F30.
Y190.411 Z-0.721 F600.
Y190.384 Z-0.7
Y188.384
Y188.356 Z-0.721 F30.
Y171.283 Z-0.722 F600.
Y171.254 Z-0.7
Y169.254
Y169.225 Z-0.722 F30.
Y154.409 Z-0.723 F600.
Y154.379 Z-0.7
Y152.379
Y152.349 Z-0.723 F30.
Y137.535 Z-0.724 F600.
Y137.504 Z-0.7
Y135.504
Y135.472 Z-0.724 F30.
Y120.662 F600.
Y120.629 Z-0.7
Y118.629
Y118.596 Z-0.725 F30.
Y103.788 F600.
Y103.754 Z-0.7
Y101.754
Y101.72 Z-0.726 F30.
Y86.914 F600.
Y86.879 Z-0.7
Y84.879
Y84.844 Z-0.726 F30.
Y70.041 Z-0.727 F600.
Y70.004 Z-0.7
Y68.004
Y67.968 Z-0.727 F30.
Y53.167 Z-0.728 F600.
Y53.129 Z-0.7
Y51.129
Y51.091 Z-0.728 F30.
Y34.038 Z-0.729 F600.
Y33.999 Z-0.7
Y31.999
Y31.96 Z-0.729 F30.
Y14.04 Z-0.73 F600.
Y14. Z-0.7
Y12.
Y11.959 Z-0.731 F30.
Y3. F600.
G2 X217. Y-1. I-4. J0.
G1 X209.811 Z-0.732
X209.769 Z-0.7
X207.769
X207.726 Z-0.732 F30.
X193.352 Z-0.733 F600.
X193.308 Z-0.7
X191.308
X191.264 Z-0.733 F30.
X176.891 Z-0.734 F600.
X176.846 Z-0.7
X174.846
X174.801 Z-0.734 F30.
X160.431 Z-0.735 F600.
X160.385 Z-0.7
X158.385
X158.339 Z-0.735 F30.
X143.97 Z-0.736 F600.
X143.923 Z-0.7
X141.923
X141.875 Z-0.736 F30.
X127.511 Z-0.737 F600.
X127.462 Z-0.7
X125.462
X125.413 Z-0.737 F30.
X111.05 F600.
X111. Z-0.7
X109.
X108.95 Z-0.738 F30.
X94.59 F600.
X94.538 Z-0.7
X92.538
X92.487 Z-0.738 F30.
X78.129 Z-0.739 F600.
X78.077 Z-0.7
X76.077
X76.024 Z-0.739 F30.
X61.669 Z-0.74 F600.
X61.615 Z-0.7
X59.615
X59.562 Z-0.74 F30.
X45.209 Z-0.741 F600.
X45.154 Z-0.7
X43.154
X43.099 Z-0.741 F30.
X28.748 Z-0.742 F600.
X28.692 Z-0.7
X26.692
X26.636 Z-0.742 F30.
X12.288 Z-0.743 F600.
X12.231 Z-0.7
X10.231
X10.173 Z-0.743 F30.
X3. Z-0.744 F600.
G2 X-1. Y3. I0. J4.
G1 Y11.941
Y12. Z-0.7
Y14.
Y14.059 Z-0.745 F30.
Y31.939 Z-0.746 F600.
Y31.999 Z-0.7
Y33.999
Y34.06 Z-0.746 F30.
Y51.067 Z-0.747 F600.
Y51.129 Z-0.7
Y53.129
Y53.192 Z-0.747 F30.
Y67.941 Z-0.748 F600.
Y68.004 Z-0.7
Y70.004
Y70.068 Z-0.748 F30.
Y84.815 Z-0.749 F600.
Y84.879 Z-0.7
Y86.879
Y86.944 Z-0.749 F30.
Y101.688 F600.
Y101.754 Z-0.7
Y103.754
Y103.82 Z-0.75 F30.
Y118.562 F600.
Y118.629 Z-0.7
Y120.629
Y120.696 Z-0.751 F30.
Y135.436 F600.
Y135.504 Z-0.7
Y137.504
Y137.573 Z-0.751 F30.
Y152.309 Z-0.752 F600.
Y152.379 Z-0.7
Y154.379
Y154.449 Z-0.752 F30.
Y169.183 Z-0.753 F600.
Y169.254 Z-0.7
Y171.254
Y171.325 Z-0.753 F30.
Y188.312 Z-0.754 F600.
Y188.384 Z-0.7
Y190.384
Y190.457 Z-0.754 F30.
Y208.31 Z-0.755 F600.
Y208.384 Z-0.7
Y210.384
Y210.458 Z-0.756 F30.
Y219.383 F600.
G2 X3. Y223.383 I4. J0.
G1 X10.155 Z-0.757
X10.231 Z-0.7
X12.231
X12.307 Z-0.757 F30.
X26.615 Z-0.758 F600.
X26.692 Z-0.7
X28.692
X28.77 Z-0.758 F30.
X43.076 Z-0.759 F600.
X43.154 Z-0.7
X45.154
X45.232 Z-0.759 F30.
X59.536 Z-0.76 F600.
X59.615 Z-0.7
X61.615
X61.695 Z-0.76 F30.
X75.996 Z-0.761 F600.
X76.077 Z-0.7
X78.077
X78.158 Z-0.761 F30.
X92.456 Z-0.762 F600.
X92.538 Z-0.7
X94.538
X94.621 Z-0.762 F30.
X108.917 F600.
X109. Z-0.7
X111.
X111.083 Z-0.763 F30.
X125.378 F600.
X125.462 Z-0.7
X127.462
X127.547 Z-0.763 F30.
X141.837 Z-0.764 F600.
X141.923 Z-0.7
X143.923
X144.009 Z-0.764 F30.
X158.298 Z-0.765 F600.
X158.385 Z-0.7
X160.385
X160.472 Z-0.765 F30.
X174.758 Z-0.766 F600.
X174.846 Z-0.7
X176.846
X176.934 Z-0.766 F30.
X191.219 Z-0.767 F600.
X191.308 Z-0.7
X193.308
X193.398 Z-0.767 F30.
X207.678 Z-0.768 F600.
X207.769 Z-0.7
X209.769
X209.86 Z-0.768 F30.
X217. Z-0.769 F600.
G2 X221. Y219.383 I0. J-4.
G1 Y210.477
Y210.384 Z-0.7
Y208.384
Y208.291 Z-0.77 F30.
Y190.478 Z-0.771 F600.
Y190.384 Z-0.7
Y188.384
Y188.29 Z-0.771 F30.
Y171.349 Z-0.772 F600.
Y171.254 Z-0.7
Y169.254
Y169.158 Z-0.772 F30.
Y154.476 Z-0.773 F600.
Y154.379 Z-0.7
Y152.379
Y152.282 Z-0.773 F30.
Y137.602 Z-0.774 F600.
Y137.504 Z-0.7
Y135.504
Y135.406 Z-0.774 F30.
Y120.728 F600.
Y120.629 Z-0.7
Y118.629
Y118.53 Z-0.775 F30.
Y103.855 F600.
Y103.754 Z-0.7
Y101.754
Y101.653 Z-0.776 F30.
Y86.981 F600.
Y86.879 Z-0.7
Y84.879
Y84.777 Z-0.776 F30.
Y70.107 Z-0.777 F600.
Y70.004 Z-0.7
Y68.004
Y67.901 Z-0.777 F30.
Y53.234 Z-0.778 F600.
Y53.129 Z-0.7
Y51.129
Y51.025 Z-0.778 F30.
Y34.105 Z-0.779 F600.
Y33.999 Z-0.7
Y31.999
Y31.893 Z-0.779 F30.
Y14.107 Z-0.78 F600.
Y14. Z-0.7
Y12.
Y11.892 Z-0.781 F30.
Y3. F600.
G2 X217. Y-1. I-4. J0.
G1 X209.878 Z-0.782
X209.769 Z-0.7
X207.769
X207.66 Z-0.782 F30.
X193.418 Z-0.783 F600.
X193.308 Z-0.7
X191.308
X191.197 Z-0.783 F30.
X176.958 Z-0.784 F600.
X176.846 Z-0.7
X174.846
X174.734 Z-0.784 F30.
X160.498 Z-0.785 F600.
X160.385 Z-0.7
X158.385
X158.272 Z-0.785 F30.
X144.037 Z-0.786 F600.
X143.923 Z-0.7
X141.923
X141.809 Z-0.786 F30.
X127.577 Z-0.787 F600.
X127.462 Z-0.7
X125.462
X125.346 Z-0.787 F30.
X111.117 F600.
X111. Z-0.7
X109.
X108.883 Z-0.788 F30.
X94.656 F600.
X94.538 Z-0.7
X92.538
X92.421 Z-0.788 F30.
X78.196 Z-0.789 F600.
X78.077 Z-0.7
X76.077
X75.958 Z-0.789 F30.
X61.736 Z-0.79 F600.
X61.615 Z-0.7
X59.615
X59.495 Z-0.79 F30.
X45.275 Z-0.791 F600.
X45.154 Z-0.7
X43.154
X43.032 Z-0.791 F30.
X28.815 Z-0.792 F600.
X28.692 Z-0.7
X26.692
X26.569 Z-0.792 F30.
X12.355 Z-0.793 F600.
X12.231 Z-0.7
X10.231
X10.107 Z-0.793 F30.
X3. Z-0.794 F600.
G2 X-1. Y3. I0. J4.
G1 Y11.874
Y12. Z-0.7
Y14.
Y14.126 Z-0.795 F30.
Y31.872 Z-0.796 F600.
Y31.999 Z-0.7
Y33.999
Y34.127 Z-0.796 F30.
Y51. Z-0.797 F600.
Y51.129 Z-0.7
Y53.129
Y53.258 Z-0.797 F30.
Y67.874 Z-0.798 F600.
Y68.004 Z-0.7
Y70.004
Y70.134 Z-0.798 F30.
Y84.748 Z-0.799 F600.
Y84.879 Z-0.7
Y86.879
Y87.011 Z-0.799 F30.
Y101.621 F600.
Y101.754 Z-0.7
Y103.754
Y103.887 Z-0.8 F30.
Y118.495 F600.
Y118.629 Z-0.7
Y120.629
Y120.763 Z-0.801 F30.
Y135.369 F600.
Y135.504 Z-0.7
Y137.504
Y137.639 Z-0.801 F30.
Y152.243 Z-0.802 F600.
Y152.379 Z-0.7
Y154.379
Y154.516 Z-0.802 F30.
Y169.116 Z-0.803 F600.
Y169.254 Z-0.7
Y171.254
Y171.392 Z-0.803 F30.
Y188.245 Z-0.804 F600.
Y188.384 Z-0.7
Y190.384
Y190.523 Z-0.804 F30.
Y208.243 Z-0.805 F600.
Y208.384 Z-0.7
Y210.384
Y210.525 Z-0.806 F30.
Y219.383 F600.
G2 X3. Y223.383 I4. J0.
G1 X10.088 Z-0.807
X10.231 Z-0.7
X12.231
X12.373 Z-0.807 F30.
X26.549 Z-0.808 F600.
X26.692 Z-0.7
X28.692
X28.836 Z-0.808 F30.
X43.009 Z-0.809 F600.
X43.154 Z-0.7
X45.154
X45.299 Z-0.809 F30.
X59.469 Z-0.81 F600.
X59.615 Z-0.7
X61.615
X61.762 Z-0.81 F30.
X75.929 Z-0.811 F600.
X76.077 Z-0.7
X78.077
X78.225 Z-0.811 F30.
X92.39 Z-0.812 F600.
X92.538 Z-0.7
X94.538
X94.687 Z-0.812 F30.
X108.85 F600.
X109. Z-0.7
X111.
X111.15 Z-0.813 F30.
X125.311 F600.
X125.462 Z-0.7
X127.462
X127.613 Z-0.813 F30.
X141.771 Z-0.814 F600.
X141.923 Z-0.7
X143.923
X144.076 Z-0.814 F30.
X158.231 Z-0.815 F600.
X158.385 Z-0.7
X160.385
X160.539 Z-0.815 F30.
X174.691 Z-0.816 F600.
X174.846 Z-0.7
X176.846
X177.001 Z-0.816 F30.
X191.152 Z-0.817 F600.
X191.308 Z-0.7
X193.308
X193.464 Z-0.817 F30.
X207.612 Z-0.818 F600.
X207.769 Z-0.7
X209.769
X209.927 Z-0.818 F30.
X217. Z-0.819 F600.
G2 X221. Y219.383 I0. J-4.
G1 Y210.543
Y210.384 Z-0.7
Y208.384
Y208.225 Z-0.82 F30.
Y190.545 Z-0.821 F600.
Y190.384 Z-0.7
Y188.384
Y188.223 Z-0.821 F30.
Y171.416 Z-0.822 F600.
Y171.254 Z-0.7
Y169.254
Y169.092 Z-0.822 F30.
Y154.542 Z-0.823 F600.
Y154.379 Z-0.7
Y152.379
Y152.215 Z-0.823 F30.
Y137.669 Z-0.824 F600.
Y137.504 Z-0.7
Y135.504
Y135.339 Z-0.824 F30.
Y120.795 F600.
Y120.629 Z-0.7
Y118.629
Y118.463 Z-0.825 F30.
Y103.921 F600.
Y103.754 Z-0.7
Y101.754
Y101.587 Z-0.826 F30.
Y87.048 F600.
Y86.879 Z-0.7
Y84.879
Y84.711 Z-0.826 F30.
Y70.174 Z-0.827 F600.
Y70.004 Z-0.7
Y68.004
Y67.834 Z-0.827 F30.
Y53.3 Z-0.828 F600.
Y53.129 Z-0.7
Y51.129
Y50.958 Z-0.828 F30.
Y34.172 Z-0.829 F600.
Y33.999 Z-0.7
Y31.999
Y31.827 Z-0.829 F30.
Y14.174 Z-0.83 F600.
Y14. Z-0.7
Y12.
Y11.826 Z-0.831 F30.
Y3. F600.
G2 X217. Y-1. I-4. J0.
G1 X209.945 Z-0.832
X209.769 Z-0.7
X207.769
X207.593 Z-0.832 F30.
X193.485 Z-0.833 F600.
X193.308 Z-0.7
X191.308
X191.131 Z-0.833 F30.
X177.024 Z-0.834 F600.
X176.846 Z-0.7
X174.846
X174.668 Z-0.834 F30.
X160.565 Z-0.835 F600.
X160.385 Z-0.7
X158.385
X158.205 Z-0.835 F30.
X144.104 Z-0.836 F600.
X143.923 Z-0.7
X141.923
X141.742 Z-0.836 F30.
X127.644 Z-0.837 F600.
X127.462 Z-0.7
X125.462
X125.28 Z-0.837 F30.
X111.183 F600.
X111. Z-0.7
X109.
X108.817 Z-0.838 F30.
X94.723 F600.
X94.538 Z-0.7
X92.538
X92.354 Z-0.838 F30.
X78.263 Z-0.839 F600.
X78.077 Z-0.7
X76.077
X75.891 Z-0.839 F30.
X61.802 Z-0.84 F600.
X61.615 Z-0.7
X59.615
X59.428 Z-0.84 F30.
X45.342 Z-0.841 F600.
X45.154 Z-0.7
X43.154
X42.965 Z-0.841 F30.
X28.882 Z-0.842 F600.
X28.692 Z-0.7
X26.692
X26.503 Z-0.842 F30.
X12.421 Z-0.843 F600.
X12.231 Z-0.7
X10.231
X10.04 Z-0.843 F30.
X3. Z-0.844 F600.
G2 X-1. Y3. I0. J4.
G1 Y11.807
Y12. Z-0.7
Y14.
Y14.193 Z-0.845 F30.
Y31.805 Z-0.846 F600.
Y31.999 Z-0.7
Y33.999
Y34.194 Z-0.846 F30.
Y50.934 Z-0.847 F600.
Y51.129 Z-0.7
Y53.129
Y53.325 Z-0.847 F30.
Y67.807 Z-0.848 F600.
Y68.004 Z-0.7
Y70.004
Y70.201 Z-0.848 F30.
Y84.681 Z-0.849 F600.
Y84.879 Z-0.7
Y86.879
Y87.077 Z-0.849 F30.
Y101.555 F600.
Y101.754 Z-0.7
Y103.754
Y103.953 Z-0.85 F30.
Y118.428 F600.
Y118.629 Z-0.7
Y120.629
Y120.83 Z-0.851 F30.
Y135.302 F600.
Y135.504 Z-0.7
Y137.504
Y137.706 Z-0.851 F30.
Y152.176 Z-0.852 F600.
Y152.379 Z-0.7
Y154.379
Y154.582 Z-0.852 F30.
Y169.05 Z-0.853 F600.
Y169.254 Z-0.7
Y171.254
Y171.459 Z-0.853 F30.
Y188.178 Z-0.854 F600.
Y188.384 Z-0.7
Y190.384
Y190.59 Z-0.854 F30.
Y208.177 Z-0.855 F600.
Y208.384 Z-0.7
Y210.384
Y210.591 Z-0.856 F30.
Y219.383 F600.
G2 X3. Y223.383 I4. J0.
G1 X10.022 Z-0.857
X10.231 Z-0.7
X12.231
X12.44 Z-0.857 F30.
X26.482 Z-0.858 F600.
X26.692 Z-0.7
X28.692
X28.903 Z-0.858 F30.
X42.942 Z-0.859 F600.
X43.154 Z-0.7
X45.154
X45.366 Z-0.859 F30.
X59.403 Z-0.86 F600.
X59.615 Z-0.7
X61.615
X61.828 Z-0.86 F30.
X75.863 Z-0.861 F600.
X76.077 Z-0.7
X78.077
X78.291 Z-0.861 F30.
X92.323 Z-0.862 F600.
X92.538 Z-0.7
X94.538
X94.754 Z-0.862 F30.
X108.783 F600.
X109. Z-0.7
X111.
X111.217 Z-0.863 F30.
X125.244 F600.
X125.462 Z-0.7
X127.462
X127.68 Z-0.863 F30.
X141.704 Z-0.864 F600.
X141.923 Z-0.7
X143.923
X144.142 Z-0.864 F30.
X158.165 Z-0.865 F600.
X158.385 Z-0.7
X160.385
X160.605 Z-0.865 F30.
X174.624 Z-0.866 F600.
X174.846 Z-0.7
X176.846
X177.068 Z-0.866 F30.
X191.085 Z-0.867 F600.
X191.308 Z-0.7
X193.308
X193.531 Z-0.867 F30.
X207.545 Z-0.868 F600.
X207.769 Z-0.7
X209.769
X209.993 Z-0.868 F30.
X217. Z-0.869 F600.
G2 X221. Y219.383 I0. J-4.
G1 Y210.61
Y210.384 Z-0.7
Y208.384
Y208.158 Z-0.87 F30.
Y190.611 Z-0.871 F600.
Y190.384 Z-0.7
Y188.384
Y188.156 Z-0.871 F30.
Y171.483 Z-0.872 F600.
Y171.254 Z-0.7
Y169.254
Y169.025 Z-0.872 F30.
Y154.609 Z-0.873 F600.
Y154.379 Z-0.7
Y152.379
Y152.149 Z-0.873 F30.
Y137.735 Z-0.874 F600.
Y137.504 Z-0.7
Y135.504
Y135.272 Z-0.874 F30.
Y120.862 F600.
Y120.629 Z-0.7
Y118.629
Y118.396 Z-0.875 F30.
Y103.988 F600.
Y103.754 Z-0.7
Y101.754
Y101.52 Z-0.876 F30.
Y87.114 F600.
Y86.879 Z-0.7
Y84.879
Y84.644 Z-0.876 F30.
Y70.241 Z-0.877 F600.
Y70.004 Z-0.7
Y68.004
Y67.768 Z-0.877 F30.
Y53.367 Z-0.878 F600.
Y53.129 Z-0.7
Y51.129
Y50.891 Z-0.878 F30.
Y34.238 Z-0.879 F600.
Y33.999 Z-0.7
Y31.999
Y31.76 Z-0.879 F30.
Y14.24 Z-0.88 F600.
Y14. Z-0.7
Y12.
Y11.759 Z-0.881 F30.
Y3. F600.
G2 X217. Y-1. I-4. J0.
G1 X210.011 Z-0.882
X209.769 Z-0.7
X207.769
X207.526 Z-0.882 F30.
X193.552 Z-0.883 F600.
X193.308 Z-0.7
X191.308
X191.064 Z-0.883 F30.
X177.091 Z-0.884 F600.
X176.846 Z-0.7
X174.846
X174.601 Z-0.884 F30.
X160.631 Z-0.885 F600.
X160.385 Z-0.7
X158.385
X158.139 Z-0.885 F30.
X144.17 Z-0.886 F600.
X143.923 Z-0.7
X141.923
X141.675 Z-0.886 F30.
X127.711 Z-0.887 F600.
X127.462 Z-0.7
X125.462
X125.213 Z-0.887 F30.
X111.25 F600.
X111. Z-0.7
X109.
X108.75 Z-0.888 F30.
X94.79 F600.
X94.538 Z-0.7
X92.538
X92.287 Z-0.888 F30.
X78.329 Z-0.889 F600.
X78.077 Z-0.7
X76.077
X75.824 Z-0.889 F30.
X61.869 Z-0.89 F600.
X61.615 Z-0.7
X59.615
X59.362 Z-0.89 F30.
X45.409 Z-0.891 F600.
X45.154 Z-0.7
X43.154
X42.899 Z-0.891 F30.
X28.948 Z-0.892 F600.
X28.692 Z-0.7
X26.692
X26.436 Z-0.892 F30.
X12.488 Z-0.893 F600.
X12.231 Z-0.7
X10.231
X9.973 Z-0.893 F30.
X3. Z-0.894 F600.
G2 X-1. Y3. I0. J4.
G1 Y11.741
Y12. Z-0.7
Y14.
Y14.259 Z-0.895 F30.
Y31.739 Z-0.896 F600.
Y31.999 Z-0.7
Y33.999
Y34.26 Z-0.896 F30.
Y50.867 Z-0.897 F600.
Y51.129 Z-0.7
Y53.129
Y53.392 Z-0.897 F30.
Y67.741 Z-0.898 F600.
Y68.004 Z-0.7
Y70.004
Y70.268 Z-0.898 F30.
Y84.615 Z-0.899 F600.
Y84.879 Z-0.7
Y86.879
Y87.144 Z-0.899 F30.
Y101.488 F600.
Y101.754 Z-0.7
Y103.754
Y104.02 Z-0.9 F30.
Y118.362 F600.
Y118.629 Z-0.7
Y120.629
Y120.896 Z-0.901 F30.
Y135.236 F600.
Y135.504 Z-0.7
Y137.504
Y137.773 Z-0.902 F30.
Y152.109 F600.
Y152.379 Z-0.7
Y154.379
Y154.649 Z-0.902 F30.
Y168.983 Z-0.903 F600.
Y169.254 Z-0.7
Y171.254
Y171.525 Z-0.903 F30.
Y188.112 Z-0.904 F600.
Y188.384 Z-0.7
Y190.384
Y190.657 Z-0.904 F30.
Y208.11 Z-0.905 F600.
Y208.384 Z-0.7
Y210.384
Y210.658 Z-0.906 F30.
Y219.383 F600.
G2 X3. Y223.383 I4. J0.
G1 X9.955 Z-0.907
X10.231 Z-0.7
X12.231
X12.507 Z-0.907 F30.
X26.415 Z-0.908 F600.
X26.692 Z-0.7
X28.692
X28.97 Z-0.908 F30.
X42.876 Z-0.909 F600.
X43.154 Z-0.7
X45.154
X45.432 Z-0.909 F30.
X59.336 Z-0.91 F600.
X59.615 Z-0.7
X61.615
X61.895 Z-0.91 F30.
X75.796 Z-0.911 F600.
X76.077 Z-0.7
X78.077
X78.358 Z-0.911 F30.
X92.257 F600.
X92.538 Z-0.7
X94.538
X94.821 Z-0.912 F30.
X108.717 F600.
X109. Z-0.7
X111.
X111.283 Z-0.913 F30.
X125.178 F600.
X125.462 Z-0.7
X127.462
X127.747 Z-0.914 F30.
X141.637 F600.
X141.923 Z-0.7
X143.923
X144.209 Z-0.914 F30.
X158.098 Z-0.915 F600.
X158.385 Z-0.7
X160.385
X160.672 Z-0.915 F30.
X174.558 Z-0.916 F600.
X174.846 Z-0.7
X176.846
X177.134 Z-0.916 F30.
X191.019 Z-0.917 F600.
X191.308 Z-0.7
X193.308
X193.598 Z-0.917 F30.
X207.478 Z-0.918 F600.
X207.769 Z-0.7
X209.769
X210.06 Z-0.918 F30.
X217. Z-0.919 F600.
G2 X221. Y219.383 I0. J-4.
G1 Y210.677
Y210.384 Z-0.7
Y208.384
Y208.091 Z-0.92 F30.
Y190.678 Z-0.921 F600.
Y190.384 Z-0.7
Y188.384
Y188.09 Z-0.921 F30.
Y171.549 Z-0.922 F600.
Y171.254 Z-0.7
Y169.254
Y168.958 Z-0.922 F30.
Y154.676 Z-0.923 F600.
Y154.379 Z-0.7
Y152.379
Y152.082 Z-0.923 F30.
Y137.802 F600.
Y137.504 Z-0.7
Y135.504
Y135.206 Z-0.924 F30.
Y120.928 F600.
Y120.629 Z-0.7
Y118.629
Y118.33 Z-0.925 F30.
Y104.055 F600.
Y103.754 Z-0.7
Y101.754
Y101.453 Z-0.926 F30.
Y87.181 F600.
Y86.879 Z-0.7
Y84.879
Y84.577 Z-0.927 F30.
Y70.307 F600.
Y70.004 Z-0.7
Y68.004
Y67.701 Z-0.927 F30.
Y53.434 Z-0.928 F600.
Y53.129 Z-0.7
Y51.129
Y50.825 Z-0.928 F30.
Y34.305 Z-0.929 F600.
Y33.999 Z-0.7
Y31.999
Y31.693 Z-0.929 F30.
Y14.307 Z-0.93 F600.
Y14. Z-0.7
Y12.
Y11.692 Z-0.931 F30.
Y3. F600.
G2 X217. Y-1. I-4. J0.
G1 X210.078 Z-0.932
X209.769 Z-0.7
X207.769
X207.46 Z-0.932 F30.
X193.618 Z-0.933 F600.
X193.308 Z-0.7
X191.308
X190.997 Z-0.933 F30.
X177.158 Z-0.934 F600.
X176.846 Z-0.7
X174.846
X174.534 Z-0.934 F30.
X160.698 Z-0.935 F600.
X160.385 Z-0.7
X158.385
X158.072 Z-0.935 F30.
X144.237 Z-0.936 F600.
X143.923 Z-0.7
X141.923
X141.609 Z-0.936 F30.
X127.777 F600.
X127.462 Z-0.7
X125.462
X125.146 Z-0.937 F30.
X111.317 F600.
X111. Z-0.7
X109.
X108.683 Z-0.938 F30.
X94.856 F600.
X94.538 Z-0.7
X92.538
X92.22 Z-0.939 F30.
X78.396 F600.
X78.077 Z-0.7
X76.077
X75.758 Z-0.939 F30.
X61.936 Z-0.94 F600.
X61.615 Z-0.7
X59.615
X59.295 Z-0.94 F30.
X45.475 Z-0.941 F600.
X45.154 Z-0.7
X43.154
X42.832 Z-0.941 F30.
X29.015 Z-0.942 F600.
X28.692 Z-0.7
X26.692
X26.369 Z-0.942 F30.
X12.555 Z-0.943 F600.
X12.231 Z-0.7
X10.231
X9.907 Z-0.943 F30.
X3. Z-0.944 F600.
G2 X-1. Y3. I0. J4.
G1 Y11.674
Y12. Z-0.7
Y14.
Y14.326 Z-0.945 F30.
Y31.672 Z-0.946 F600.
Y31.999 Z-0.7
Y33.999
Y34.327 Z-0.946 F30.
Y50.8 Z-0.947 F600.
Y51.129 Z-0.7
Y53.129
Y53.458 Z-0.947 F30.
Y67.674 Z-0.948 F600.
Y68.004 Z-0.7
Y70.004
Y70.334 Z-0.948 F30.
Y84.548 F600.
Y84.879 Z-0.7
Y86.879
Y87.211 Z-0.949 F30.
Y101.421 F600.
Y101.754 Z-0.7
Y103.754
Y104.087 Z-0.95 F30.
Y118.295 F600.
Y118.629 Z-0.7
Y120.629
Y120.963 Z-0.951 F30.
Y135.169 F600.
Y135.504 Z-0.7
Y137.504
Y137.839 Z-0.952 F30.
Y152.043 F600.
Y152.379 Z-0.7
Y154.379
Y154.716 Z-0.952 F30.
Y168.916 Z-0.953 F600.
Y169.254 Z-0.7
Y171.254
Y171.592 Z-0.953 F30.
Y188.045 Z-0.954 F600.
Y188.384 Z-0.7
Y190.384
Y190.723 Z-0.954 F30.
Y208.043 Z-0.955 F600.
Y208.384 Z-0.7
Y210.384
Y210.725 Z-0.956 F30.
Y219.383 F600.
G2 X3. Y223.383 I4. J0.
G1 X9.888 Z-0.957
X10.231 Z-0.7
X12.231
X12.573 Z-0.957 F30.
X26.349 Z-0.958 F600.
X26.692 Z-0.7
X28.692
X29.036 Z-0.958 F30.
X42.809 Z-0.959 F600.
X43.154 Z-0.7
X45.154
X45.499 Z-0.959 F30.
X59.269 Z-0.96 F600.
X59.615 Z-0.7
X61.615
X61.962 Z-0.96 F30.
X75.729 Z-0.961 F600.
X76.077 Z-0.7
X78.077
X78.425 Z-0.961 F30.
X92.19 F600.
X92.538 Z-0.7
X94.538
X94.887 Z-0.962 F30.
X108.65 F600.
X109. Z-0.7
X111.
X111.35 Z-0.963 F30.
X125.111 F600.
X125.462 Z-0.7
X127.462
X127.813 Z-0.964 F30.
X141.571 F600.
X141.923 Z-0.7
X143.923
X144.276 Z-0.964 F30.
X158.031 Z-0.965 F600.
X158.385 Z-0.7
X160.385
X160.739 Z-0.965 F30.
X174.491 Z-0.966 F600.
X174.846 Z-0.7
X176.846
X177.201 Z-0.966 F30.
X190.952 Z-0.967 F600.
X191.308 Z-0.7
X193.308
X193.664 Z-0.967 F30.
X207.412 Z-0.968 F600.
X207.769 Z-0.7
X209.769
X210.127 Z-0.968 F30.
X217. Z-0.969 F600.
G2 X221. Y219.383 I0. J-4.
G1 Y210.743
Y210.384 Z-0.7
Y208.384
Y208.025 Z-0.97 F30.
Y190.745 Z-0.971 F600.
Y190.384 Z-0.7
Y188.384
Y188.023 Z-0.971 F30.
Y171.616 Z-0.972 F600.
Y171.254 Z-0.7
Y169.254
Y168.892 Z-0.972 F30.
Y154.742 Z-0.973 F600.
Y154.379 Z-0.7
Y152.379
Y152.015 Z-0.973 F30.
Y137.869 F600.
Y137.504 Z-0.7
Y135.504
Y135.139 Z-0.974 F30.
Y120.995 F600.
Y120.629 Z-0.7
Y118.629
Y118.263 Z-0.975 F30.
Y104.121 F600.
Y103.754 Z-0.7
Y101.754
Y101.387 Z-0.976 F30.
Y87.248 F600.
Y86.879 Z-0.7
Y84.879
Y84.511 Z-0.977 F30.
Y70.374 F600.
Y70.004 Z-0.7
Y68.004
Y67.634 Z-0.977 F30.
Y53.5 Z-0.978 F600.
Y53.129 Z-0.7
Y51.129
Y50.758 Z-0.978 F30.
Y34.372 Z-0.979 F600.
Y33.999 Z-0.7
Y31.999
Y31.627 Z-0.979 F30.
Y14.374 Z-0.98 F600.
Y14. Z-0.7
Y12.
Y11.626 Z-0.981 F30.
Y3. F600.
G2 X217. Y-1. I-4. J0.
G1 X210.145 Z-0.982
X209.769 Z-0.7
X207.769
X207.393 Z-0.982 F30.
X193.685 Z-0.983 F600.
X193.308 Z-0.7
X191.308
X190.931 Z-0.983 F30.
X177.224 Z-0.984 F600.
X176.846 Z-0.7
X174.846
X174.468 Z-0.984 F30.
X160.765 Z-0.985 F600.
X160.385 Z-0.7
X158.385
X158.005 Z-0.985 F30.
X144.304 Z-0.986 F600.
X143.923 Z-0.7
X141.923
X141.542 Z-0.986 F30.
X127.844 F600.
X127.462 Z-0.7
X125.462
X125.08 Z-0.987 F30.
X111.383 F600.
X111. Z-0.7
X109.
X108.617 Z-0.988 F30.
X94.923 F600.
X94.538 Z-0.7
X92.538
X92.154 Z-0.989 F30.
X78.463 F600.
X78.077 Z-0.7
X76.077
X75.691 Z-0.989 F30.
X62.002 Z-0.99 F600.
X61.615 Z-0.7
X59.615
X59.228 Z-0.99 F30.
X45.542 Z-0.991 F600.
X45.154 Z-0.7
X43.154
X42.765 Z-0.991 F30.
X29.082 Z-0.992 F600.
X28.692 Z-0.7
X26.692
X26.303 Z-0.992 F30.
X12.621 Z-0.993 F600.
X12.231 Z-0.7
X10.231
X9.84 Z-0.993 F30.
X3. Z-0.994 F600.
G2 X-1. Y3. I0. J4.
G1 Y11.607
Y12. Z-0.7
Y14.
Y14.393 Z-0.995 F30.
Y31.605 Z-0.996 F600.
Y31.999 Z-0.7
Y33.999
Y34.394 Z-0.996 F30.
Y50.734 Z-0.997 F600.
Y51.129 Z-0.7
Y53.129
Y53.525 Z-0.997 F30.
Y67.607 Z-0.998 F600.
Y68.004 Z-0.7
Y70.004
Y70.401 Z-0.998 F30.
Y84.481 F600.
Y84.879 Z-0.7
Y86.879
Y87.277 Z-0.999 F30.
Y101.355 F600.
Y101.754 Z-0.7
Y103.754
Y104.153 Z-1. F30.
Y111.191 F600.
Y118.229
Y118.629 Z-0.7
Y120.629
Y121.029 Z-1. F30.
Y135.104 F600.
Y135.504 Z-0.7
Y137.504
Y137.904 Z-1. F30.
Y151.979 F600.
Y152.379 Z-0.7
Y154.379
Y154.779 Z-1. F30.
Y168.854 F600.
Y169.254 Z-0.7
Y171.254
Y171.654 Z-1. F30.
Y187.984 F600.
Y188.384 Z-0.7
Y190.384
Y190.784 Z-1. F30.
Y207.984 F600.
Y208.384 Z-0.7
Y210.384
Y210.784 Z-1. F30.
Y219.383 F600.
G2 X3. Y223.383 I4. J0.
G1 X9.831
X10.231 Z-0.7
X12.231
X12.631 Z-1. F30.
X26.292 F600.
X26.692 Z-0.7
X28.692
X29.092 Z-1. F30.
X42.754 F600.
X43.154 Z-0.7
X45.154
X45.554 Z-1. F30.
X59.215 F600.
X59.615 Z-0.7
X61.615
X62.015 Z-1. F30.
X75.677 F600.
X76.077 Z-0.7
X78.077
X78.477 Z-1. F30.
X92.138 F600.
X92.538 Z-0.7
X94.538
X94.938 Z-1. F30.
X108.6 F600.
X109. Z-0.7
X111.
X111.4 Z-1. F30.
X125.062 F600.
X125.462 Z-0.7
X127.462
X127.862 Z-1. F30.
X141.523 F600.
X141.923 Z-0.7
X143.923
X144.323 Z-1. F30.
X157.985 F600.
X158.385 Z-0.7
X160.385
X160.785 Z-1. F30.
X174.446 F600.
X174.846 Z-0.7
X176.846
X177.246 Z-1. F30.
X190.908 F600.
X191.308 Z-0.7
X193.308
X193.708 Z-1. F30.
X207.369 F600.
X207.769 Z-0.7
X209.769
X210.169 Z-1. F30.
X217. F600.
G2 X221. Y219.383 I0. J-4.
G1 Y210.784
Y210.384 Z-0.7
Y208.384
Y207.984 Z-1. F30.
Y190.784 F600.
Y190.384 Z-0.7
Y188.384
Y187.984 Z-1. F30.
Y171.654 F600.
Y171.254 Z-0.7
Y169.254
Y168.854 Z-1. F30.
Y154.779 F600.
Y154.379 Z-0.7
Y152.379
Y151.979 Z-1. F30.
Y137.904 F600.
Y137.504 Z-0.7
Y135.504
Y135.104 Z-1. F30.
Y121.029 F600.
Y120.629 Z-0.7
Y118.629
Y118.229 Z-1. F30.
Y104.154 F600.
Y103.754 Z-0.7
Y101.754
Y101.354 Z-1. F30.
Y87.279 F600.
Y86.879 Z-0.7
Y84.879
Y84.479 Z-1. F30.
Y70.404 F600.
Y70.004 Z-0.7
Y68.004
Y67.604 Z-1. F30.
Y53.529 F600.
Y53.129 Z-0.7
Y51.129
Y50.729 Z-1. F30.
Y34.399 F600.
Y33.999 Z-0.7
Y31.999
Y31.599 Z-1. F30.
Y14.4 F600.
Y14. Z-0.7
Y12.
Y11.6 Z-1. F30.
Y3. F600.
G2 X217. Y-1. I-4. J0.
G1 X210.169
X209.769 Z-0.7
X207.769
X207.369 Z-1. F30.
X193.708 F600.
X193.308 Z-0.7
X191.308
X190.908 Z-1. F30.
X177.246 F600.
X176.846 Z-0.7
X174.846
X174.446 Z-1. F30.
X160.785 F600.
X160.385 Z-0.7
X158.385
X157.985 Z-1. F30.
X144.323 F600.
X143.923 Z-0.7
X141.923
X141.523 Z-1. F30.
X127.862 F600.
X127.462 Z-0.7
X125.462
X125.062 Z-1. F30.
X111.4 F600.
X111. Z-0.7
X109.
X108.6 Z-1. F30.
X94.938 F600.
X94.538 Z-0.7
X92.538
X92.138 Z-1. F30.
X78.477 F600.
X78.077 Z-0.7
X76.077
X75.677 Z-1. F30.
X62.015 F600.
X61.615 Z-0.7
X59.615
X59.215 Z-1. F30.
X45.554 F600.
X45.154 Z-0.7
X43.154
X42.754 Z-1. F30.
X29.092 F600.
X28.692 Z-0.7
X26.692
X26.292 Z-1. F30.
X12.631 F600.
X12.231 Z-0.7
X10.231
X9.831 Z-1. F30.
X3. F600.
G2 X-1. Y3. I0. J4.
G1 Y11.6
Y12. Z-0.7
Y14.
Y14.4 Z-1. F30.
Y31.599 F600.
Y31.999 Z-0.7
Y33.999
Y34.399 Z-1. F30.
Y50.729 F600.
Y51.129 Z-0.7
Y53.129
Y53.529 Z-1. F30.
Y67.604 F600.
Y68.004 Z-0.7
Y70.004
Y70.404 Z-1. F30.
Y84.479 F600.
Y84.879 Z-0.7
Y86.879
Y87.279 Z-1. F30.
Y101.354 F600.
Y101.754 Z-0.7
Y103.754
Y104.154 Z-1. F30.
Y111.191 F600.
Z1.
G0 Z1.5

M9
M30
